newspaper.CUBE
#Created by: Adobe Photoshop Export Color Lookup Plugin
TITLE "DSC_2724.JPG"
#LUT size
LUT_3D_SIZE 8
#data domain
DOMAIN_MIN 0.0 0.0 0.0
DOMAIN_MAX 1.0 1.0 1.0
#LUT data points
0.164703 0.164703 0.164703
0.163422 0.163422 0.163422
0.162201 0.162201 0.162201
0.161224 0.161224 0.161224
0.160522 0.160522 0.160522
0.160217 0.160217 0.160217
0.160431 0.160431 0.160431
0.161224 0.161224 0.161224
0.160522 0.160522 0.160522
0.160431 0.160431 0.160431
0.161224 0.161224 0.161224
0.162781 0.162781 0.162781
0.165100 0.165100 0.165100
0.168335 0.168335 0.168335
0.172546 0.172546 0.172546
0.177887 0.177887 0.177887
0.162781 0.162781 0.162781
0.168335 0.168335 0.168335
0.177917 0.177917 0.177917
0.184357 0.184357 0.184357
0.191833 0.191833 0.191833
0.200317 0.200317 0.200317
0.209900 0.209900 0.209900
0.220428 0.220428 0.220428
0.177917 0.177917 0.177917
0.191833 0.191833 0.191833
0.209930 0.209930 0.209930
0.232025 0.232025 0.232025
0.244507 0.244507 0.244507
0.257965 0.257965 0.257965
0.272278 0.272278 0.272278
0.287476 0.287476 0.287476
0.209930 0.209930 0.209930
0.232025 0.232025 0.232025
0.257996 0.257996 0.257996
0.287537 0.287537 0.287537
0.320282 0.320282 0.320282
0.337677 0.337677 0.337677
0.355713 0.355713 0.355713
0.374298 0.374298 0.374298
0.257996 0.257996 0.257996
0.287537 0.287537 0.287537
0.320282 0.320282 0.320282
0.355743 0.355743 0.355743
0.393463 0.393463 0.393463
0.433014 0.433014 0.433014
0.453308 0.453308 0.453308
0.473877 0.473877 0.473877
0.320282 0.320282 0.320282
0.355743 0.355743 0.355743
0.393463 0.393463 0.393463
0.433014 0.433014 0.433014
0.473907 0.473907 0.473907
0.515686 0.515686 0.515686
0.557922 0.557922 0.557922
0.579071 0.579071 0.579071
0.393463 0.393463 0.393463
0.433014 0.433014 0.433014
0.473907 0.473907 0.473907
0.515686 0.515686 0.515686
0.557922 0.557922 0.557922
0.600128 0.600128 0.600128
0.641876 0.641876 0.641876
0.682678 0.682678 0.682678
0.162201 0.162201 0.162201
0.162781 0.162781 0.162781
0.165100 0.165100 0.165100
0.168335 0.168335 0.168335
0.172577 0.172577 0.172577
0.177887 0.177887 0.177887
0.184326 0.184326 0.184326
0.191772 0.191772 0.191772
0.160431 0.160431 0.160431
0.168335 0.168335 0.168335
0.172607 0.172607 0.172607
0.177917 0.177917 0.177917
0.184357 0.184357 0.184357
0.191833 0.191833 0.191833
0.200317 0.200317 0.200317
0.209900 0.209900 0.209900
0.168335 0.168335 0.168335
0.191864 0.191864 0.191864
0.209961 0.209961 0.209961
0.220490 0.220490 0.220490
0.232025 0.232025 0.232025
0.244507 0.244507 0.244507
0.257965 0.257965 0.257965
0.272278 0.272278 0.272278
0.191833 0.191833 0.191833
0.232056 0.232056 0.232056
0.258026 0.258026 0.258026
0.287567 0.287567 0.287567
0.303558 0.303558 0.303558
0.320282 0.320282 0.320282
0.337646 0.337646 0.337646
0.355713 0.355713 0.355713
0.232025 0.232025 0.232025
0.287567 0.287567 0.287567
0.320312 0.320312 0.320312
0.355774 0.355774 0.355774
0.393494 0.393494 0.393494
0.413086 0.413086 0.413086
0.433014 0.433014 0.433014
0.453308 0.453308 0.453308
0.287537 0.287537 0.287537
0.355774 0.355774 0.355774
0.393494 0.393494 0.393494
0.433044 0.433044 0.433044
0.473938 0.473938 0.473938
0.515747 0.515747 0.515747
0.536835 0.536835 0.536835
0.557922 0.557922 0.557922
0.355743 0.355743 0.355743
0.433044 0.433044 0.433044
0.473938 0.473938 0.473938
0.515747 0.515747 0.515747
0.557983 0.557983 0.557983
0.600189 0.600189 0.600189
0.641937 0.641937 0.641937
0.662476 0.662476 0.662476
0.433014 0.433014 0.433014
0.515747 0.515747 0.515747
0.557983 0.557983 0.557983
0.600189 0.600189 0.600189
0.641937 0.641937 0.641937
0.682709 0.682709 0.682709
0.722137 0.722137 0.722137
0.759705 0.759705 0.759705
0.160522 0.160522 0.160522
0.168335 0.168335 0.168335
0.209930 0.209930 0.209930
0.220459 0.220459 0.220459
0.231995 0.231995 0.231995
0.244476 0.244476 0.244476
0.257935 0.257935 0.257935
0.272247 0.272247 0.272247
0.162781 0.162781 0.162781
0.177917 0.177917 0.177917
0.232056 0.232056 0.232056
0.244537 0.244537 0.244537
0.257996 0.257996 0.257996
0.272308 0.272308 0.272308
0.287506 0.287506 0.287506
0.303467 0.303467 0.303467
0.177917 0.177917 0.177917
0.209961 0.209961 0.209961
0.258057 0.258057 0.258057
0.272369 0.272369 0.272369
0.287567 0.287567 0.287567
0.303558 0.303558 0.303558
0.320282 0.320282 0.320282
0.337646 0.337646 0.337646
0.209930 0.209930 0.209930
0.258026 0.258026 0.258026
0.320343 0.320343 0.320343
0.355835 0.355835 0.355835
0.374390 0.374390 0.374390
0.393494 0.393494 0.393494
0.413055 0.413055 0.413055
0.433014 0.433014 0.433014
0.257996 0.257996 0.257996
0.320312 0.320312 0.320312
0.393555 0.393555 0.393555
0.433105 0.433105 0.433105
0.473999 0.473999 0.473999
0.494812 0.494812 0.494812
0.515747 0.515747 0.515747
0.536835 0.536835 0.536835
0.320282 0.320282 0.320282
0.393494 0.393494 0.393494
0.473999 0.473999 0.473999
0.515778 0.515778 0.515778
0.558014 0.558014 0.558014
0.600220 0.600220 0.600220
0.621185 0.621185 0.621185
0.641937 0.641937 0.641937
0.393463 0.393463 0.393463
0.473938 0.473938 0.473938
0.558014 0.558014 0.558014
0.600220 0.600220 0.600220
0.641968 0.641968 0.641968
0.682770 0.682770 0.682770
0.722198 0.722198 0.722198
0.741211 0.741211 0.741211
0.473907 0.473907 0.473907
0.557983 0.557983 0.557983
0.641968 0.641968 0.641968
0.682770 0.682770 0.682770
0.722198 0.722198 0.722198
0.759766 0.759766 0.759766
0.795013 0.795013 0.795013
0.827484 0.827484 0.827484
0.160431 0.160431 0.160431
0.177917 0.177917 0.177917
0.232025 0.232025 0.232025
0.320282 0.320282 0.320282
0.337646 0.337646 0.337646
0.355713 0.355713 0.355713
0.374268 0.374268 0.374268
0.393341 0.393341 0.393341
0.168335 0.168335 0.168335
0.191864 0.191864 0.191864
0.258026 0.258026 0.258026
0.355774 0.355774 0.355774
0.374359 0.374359 0.374359
0.393463 0.393463 0.393463
0.412994 0.412994 0.412994
0.432983 0.432983 0.432983
0.191833 0.191833 0.191833
0.232056 0.232056 0.232056
0.287598 0.287598 0.287598
0.393555 0.393555 0.393555
0.413086 0.413086 0.413086
0.433044 0.433044 0.433044
0.453308 0.453308 0.453308
0.473907 0.473907 0.473907
0.232025 0.232025 0.232025
0.287567 0.287567 0.287567
0.355835 0.355835 0.355835
0.433136 0.433136 0.433136
0.453461 0.453461 0.453461
0.473999 0.473999 0.473999
0.494781 0.494781 0.494781
0.515747 0.515747 0.515747
0.287537 0.287537 0.287537
0.355774 0.355774 0.355774
0.433105 0.433105 0.433105
0.515839 0.515839 0.515839
0.558105 0.558105 0.558105
0.579224 0.579224 0.579224
0.600220 0.600220 0.600220
0.621185 0.621185 0.621185
0.355743 0.355743 0.355743
0.433044 0.433044 0.433044
0.515778 0.515778 0.515778
0.600281 0.600281 0.600281
0.642029 0.642029 0.642029
0.682800 0.682800 0.682800
0.702728 0.702728 0.702728
0.722198 0.722198 0.722198
0.433014 0.433014 0.433014
0.515747 0.515747 0.515747
0.600220 0.600220 0.600220
0.682800 0.682800 0.682800
0.722229 0.722229 0.722229
0.759796 0.759796 0.759796
0.795044 0.795044 0.795044
0.811646 0.811646 0.811646
0.515686 0.515686 0.515686
0.600189 0.600189 0.600189
0.682770 0.682770 0.682770
0.759796 0.759796 0.759796
0.795044 0.795044 0.795044
0.827515 0.827515 0.827515
0.856812 0.856812 0.856812
0.882477 0.882477 0.882477
0.162781 0.162781 0.162781
0.191833 0.191833 0.191833
0.257996 0.257996 0.257996
0.355743 0.355743 0.355743
0.473907 0.473907 0.473907
0.494720 0.494720 0.494720
0.515656 0.515656 0.515656
0.536743 0.536743 0.536743
0.177917 0.177917 0.177917
0.209961 0.209961 0.209961
0.287567 0.287567 0.287567
0.393494 0.393494 0.393494
0.515747 0.515747 0.515747
0.536835 0.536835 0.536835
0.557922 0.557922 0.557922
0.579071 0.579071 0.579071
0.209930 0.209930 0.209930
0.258026 0.258026 0.258026
0.320343 0.320343 0.320343
0.433105 0.433105 0.433105
0.558075 0.558075 0.558075
0.579163 0.579163 0.579163
0.600189 0.600189 0.600189
0.621155 0.621155 0.621155
0.257996 0.257996 0.257996
0.320312 0.320312 0.320312
0.393555 0.393555 0.393555
0.474030 0.474030 0.474030
0.600311 0.600311 0.600311
0.621246 0.621246 0.621246
0.642029 0.642029 0.642029
0.662506 0.662506 0.662506
0.320282 0.320282 0.320282
0.393494 0.393494 0.393494
0.473999 0.473999 0.473999
0.558105 0.558105 0.558105
0.642120 0.642120 0.642120
0.662598 0.662598 0.662598
0.682861 0.682861 0.682861
0.702728 0.702728 0.702728
0.393463 0.393463 0.393463
0.473938 0.473938 0.473938
0.558014 0.558014 0.558014
0.642029 0.642029 0.642029
0.722321 0.722321 0.722321
0.759857 0.759857 0.759857
0.777771 0.777771 0.777771
0.795074 0.795074 0.795074
0.473907 0.473907 0.473907
0.557983 0.557983 0.557983
0.641968 0.641968 0.641968
0.722229 0.722229 0.722229
0.795105 0.795105 0.795105
0.827606 0.827606 0.827606
0.856842 0.856842 0.856842
0.870117 0.870117 0.870117
0.557922 0.557922 0.557922
0.641937 0.641937 0.641937
0.722198 0.722198 0.722198
0.795044 0.795044 0.795044
0.856842 0.856842 0.856842
0.882507 0.882507 0.882507
0.904724 0.904724 0.904724
0.923920 0.923920 0.923920
0.168335 0.168335 0.168335
0.209930 0.209930 0.209930
0.287537 0.287537 0.287537
0.393463 0.393463 0.393463
0.515686 0.515686 0.515686
0.641876 0.641876 0.641876
0.662445 0.662445 0.662445
0.682648 0.682648 0.682648
0.191833 0.191833 0.191833
0.232056 0.232056 0.232056
0.320312 0.320312 0.320312
0.433044 0.433044 0.433044
0.557983 0.557983 0.557983
0.682709 0.682709 0.682709
0.702637 0.702637 0.702637
0.722107 0.722107 0.722107
0.232025 0.232025 0.232025
0.287567 0.287567 0.287567
0.355835 0.355835 0.355835
0.473999 0.473999 0.473999
0.600281 0.600281 0.600281
0.722198 0.722198 0.722198
0.741211 0.741211 0.741211
0.759705 0.759705 0.759705
0.287537 0.287537 0.287537
0.355774 0.355774 0.355774
0.433105 0.433105 0.433105
0.515839 0.515839 0.515839
0.642059 0.642059 0.642059
0.759827 0.759827 0.759827
0.777740 0.777740 0.777740
0.795013 0.795013 0.795013
0.355743 0.355743 0.355743
0.433044 0.433044 0.433044
0.515778 0.515778 0.515778
0.600281 0.600281 0.600281
0.682892 0.682892 0.682892
0.795105 0.795105 0.795105
0.811676 0.811676 0.811676
0.827576 0.827576 0.827576
0.433014 0.433014 0.433014
0.515747 0.515747 0.515747
0.600220 0.600220 0.600220
0.682800 0.682800 0.682800
0.759857 0.759857 0.759857
0.827637 0.827637 0.827637
0.842651 0.842651 0.842651
0.856842 0.856842 0.856842
0.515686 0.515686 0.515686
0.600189 0.600189 0.600189
0.682770 0.682770 0.682770
0.759796 0.759796 0.759796
0.827606 0.827606 0.827606
0.882538 0.882538 0.882538
0.904755 0.904755 0.904755
0.914673 0.914673 0.914673
0.600128 0.600128 0.600128
0.682709 0.682709 0.682709
0.759766 0.759766 0.759766
0.827515 0.827515 0.827515
0.882507 0.882507 0.882507
0.923950 0.923950 0.923950
0.940552 0.940552 0.940552
0.955017 0.955017 0.955017
0.177917 0.177917 0.177917
0.232025 0.232025 0.232025
0.320282 0.320282 0.320282
0.433014 0.433014 0.433014
0.557922 0.557922 0.557922
0.682678 0.682678 0.682678
0.794922 0.794922 0.794922
0.811554 0.811554 0.811554
0.209930 0.209930 0.209930
0.258026 0.258026 0.258026
0.355774 0.355774 0.355774
0.473938 0.473938 0.473938
0.600189 0.600189 0.600189
0.722137 0.722137 0.722137
0.827454 0.827454 0.827454
0.842529 0.842529 0.842529
0.257996 0.257996 0.257996
0.320312 0.320312 0.320312
0.393555 0.393555 0.393555
0.515778 0.515778 0.515778
0.642029 0.642029 0.642029
0.759766 0.759766 0.759766
0.856781 0.856781 0.856781
0.870056 0.870056 0.870056
0.320282 0.320282 0.320282
0.393494 0.393494 0.393494
0.473999 0.473999 0.473999
0.558075 0.558075 0.558075
0.682861 0.682861 0.682861
0.795074 0.795074 0.795074
0.882477 0.882477 0.882477
0.893951 0.893951 0.893951
0.393463 0.393463 0.393463
0.473938 0.473938 0.473938
0.558014 0.558014 0.558014
0.642029 0.642029 0.642029
0.722321 0.722321 0.722321
0.827606 0.827606 0.827606
0.904724 0.904724 0.904724
0.914642 0.914642 0.914642
0.473907 0.473907 0.473907
0.557983 0.557983 0.557983
0.641968 0.641968 0.641968
0.722229 0.722229 0.722229
0.795105 0.795105 0.795105
0.856873 0.856873 0.856873
0.923950 0.923950 0.923950
0.932556 0.932556 0.932556
0.557922 0.557922 0.557922
0.641937 0.641937 0.641937
0.722198 0.722198 0.722198
0.795044 0.795044 0.795044
0.856842 0.856842 0.856842
0.904755 0.904755 0.904755
0.940582 0.940582 0.940582
0.948029 0.948029 0.948029
0.641876 0.641876 0.641876
0.722137 0.722137 0.722137
0.795013 0.795013 0.795013
0.856812 0.856812 0.856812
0.904724 0.904724 0.904724
0.940552 0.940552 0.940552
0.967804 0.967804 0.967804
0.979248 0.979248 0.979248
0.191833 0.191833 0.191833
0.257996 0.257996 0.257996
0.355743 0.355743 0.355743
0.473907 0.473907 0.473907
0.600128 0.600128 0.600128
0.722107 0.722107 0.722107
0.827423 0.827423 0.827423
0.904602 0.904602 0.904602
0.232025 0.232025 0.232025
0.287567 0.287567 0.287567
0.393494 0.393494 0.393494
0.515747 0.515747 0.515747
0.641937 0.641937 0.641937
0.759705 0.759705 0.759705
0.856750 0.856750 0.856750
0.923859 0.923859 0.923859
0.287537 0.287537 0.287537
0.355774 0.355774 0.355774
0.433105 0.433105 0.433105
0.558014 0.558014 0.558014
0.682770 0.682770 0.682770
0.795013 0.795013 0.795013
0.882446 0.882446 0.882446
0.940491 0.940491 0.940491
0.355743 0.355743 0.355743
0.433044 0.433044 0.433044
0.515778 0.515778 0.515778
0.600281 0.600281 0.600281
0.722290 0.722290 0.722290
0.827576 0.827576 0.827576
0.904663 0.904663 0.904663
0.954987 0.954987 0.954987
0.433014 0.433014 0.433014
0.515747 0.515747 0.515747
0.600220 0.600220 0.600220
0.682800 0.682800 0.682800
0.759857 0.759857 0.759857
0.856842 0.856842 0.856842
0.923920 0.923920 0.923920
0.967773 0.967773 0.967773
0.515686 0.515686 0.515686
0.600189 0.600189 0.600189
0.682770 0.682770 0.682770
0.759796 0.759796 0.759796
0.827606 0.827606 0.827606
0.882538 0.882538 0.882538
0.940552 0.940552 0.940552
0.979218 0.979218 0.979218
0.600128 0.600128 0.600128
0.682709 0.682709 0.682709
0.759766 0.759766 0.759766
0.827515 0.827515 0.827515
0.882507 0.882507 0.882507
0.923950 0.923950 0.923950
0.955048 0.955048 0.955048
0.989838 0.989838 0.989838
0.682678 0.682678 0.682678
0.759705 0.759705 0.759705
0.827484 0.827484 0.827484
0.882477 0.882477 0.882477
0.923920 0.923920 0.923920
0.955017 0.955017 0.955017
0.979248 0.979248 0.979248
1.000000 1.000000 1.000000
