newspaper.CUBE
#Created by: Adobe Photoshop Export Color Lookup Plugin
TITLE "DSC_2724.JPG"
#LUT size
LUT_3D_SIZE 4
#data domain
DOMAIN_MIN 0.0 0.0 0.0
DOMAIN_MAX 1.0 1.0 1.0
#LUT data points
0.164703 0.164703 0.164703
0.161865 0.161865 0.161865
0.160278 0.160278 0.160278
0.161224 0.161224 0.161224
0.166077 0.166077 0.166077
0.191833 0.191833 0.191833
0.213318 0.213318 0.213318
0.240204 0.240204 0.240204
0.240265 0.240265 0.240265
0.309021 0.309021 0.309021
0.393463 0.393463 0.393463
0.439697 0.439697 0.439697
0.393463 0.393463 0.393463
0.487762 0.487762 0.487762
0.586090 0.586090 0.586090
0.682678 0.682678 0.682678
0.160278 0.160278 0.160278
0.240265 0.240265 0.240265
0.272308 0.272308 0.272308
0.308960 0.308960 0.308960
0.191833 0.191833 0.191833
0.309143 0.309143 0.309143
0.349731 0.349731 0.349731
0.393463 0.393463 0.393463
0.309021 0.309021 0.309021
0.487885 0.487885 0.487885
0.586243 0.586243 0.586243
0.635040 0.635040 0.635040
0.487762 0.487762 0.487762
0.682800 0.682800 0.682800
0.771820 0.771820 0.771820
0.847412 0.847412 0.847412
0.166077 0.166077 0.166077
0.309021 0.309021 0.309021
0.586090 0.586090 0.586090
0.634888 0.634888 0.634888
0.240265 0.240265 0.240265
0.393585 0.393585 0.393585
0.682770 0.682770 0.682770
0.728546 0.728546 0.728546
0.393463 0.393463 0.393463
0.586243 0.586243 0.586243
0.771881 0.771881 0.771881
0.811676 0.811676 0.811676
0.586090 0.586090 0.586090
0.771820 0.771820 0.771820
0.904724 0.904724 0.904724
0.945587 0.945587 0.945587
0.191833 0.191833 0.191833
0.393463 0.393463 0.393463
0.682678 0.682678 0.682678
0.904602 0.904602 0.904602
0.309021 0.309021 0.309021
0.487885 0.487885 0.487885
0.771820 0.771820 0.771820
0.945557 0.945557 0.945557
0.487762 0.487762 0.487762
0.682800 0.682800 0.682800
0.847473 0.847473 0.847473
0.975525 0.975525 0.975525
0.682678 0.682678 0.682678
0.847412 0.847412 0.847412
0.945587 0.945587 0.945587
1.000000 1.000000 1.000000
