newspaper.CUBE
#Created by: Adobe Photoshop Export Color Lookup Plugin
TITLE "DSC_2724.JPG"
#LUT size
LUT_3D_SIZE 64
#data domain
DOMAIN_MIN 0.0 0.0 0.0
DOMAIN_MAX 1.0 1.0 1.0
#LUT data points
0.164703 0.164703 0.164703
0.164581 0.164581 0.164581
0.164398 0.164398 0.164398
0.164276 0.164276 0.164276
0.164124 0.164124 0.164124
0.163971 0.163971 0.163971
0.163818 0.163818 0.163818
0.163696 0.163696 0.163696
0.163544 0.163544 0.163544
0.163422 0.163422 0.163422
0.163269 0.163269 0.163269
0.163147 0.163147 0.163147
0.162994 0.162994 0.162994
0.162872 0.162872 0.162872
0.162720 0.162720 0.162720
0.162598 0.162598 0.162598
0.162445 0.162445 0.162445
0.162323 0.162323 0.162323
0.162201 0.162201 0.162201
0.162079 0.162079 0.162079
0.161957 0.161957 0.161957
0.161865 0.161865 0.161865
0.161743 0.161743 0.161743
0.161621 0.161621 0.161621
0.161499 0.161499 0.161499
0.161407 0.161407 0.161407
0.161316 0.161316 0.161316
0.161224 0.161224 0.161224
0.161102 0.161102 0.161102
0.161041 0.161041 0.161041
0.160919 0.160919 0.160919
0.160858 0.160858 0.160858
0.160767 0.160767 0.160767
0.160706 0.160706 0.160706
0.160645 0.160645 0.160645
0.160583 0.160583 0.160583
0.160522 0.160522 0.160522
0.160461 0.160461 0.160461
0.160400 0.160400 0.160400
0.160370 0.160370 0.160370
0.160309 0.160309 0.160309
0.160278 0.160278 0.160278
0.160278 0.160278 0.160278
0.160248 0.160248 0.160248
0.160217 0.160217 0.160217
0.160217 0.160217 0.160217
0.160217 0.160217 0.160217
0.160217 0.160217 0.160217
0.160217 0.160217 0.160217
0.160248 0.160248 0.160248
0.160278 0.160278 0.160278
0.160309 0.160309 0.160309
0.160339 0.160339 0.160339
0.160370 0.160370 0.160370
0.160431 0.160431 0.160431
0.160492 0.160492 0.160492
0.160553 0.160553 0.160553
0.160614 0.160614 0.160614
0.160706 0.160706 0.160706
0.160797 0.160797 0.160797
0.160889 0.160889 0.160889
0.161011 0.161011 0.161011
0.161133 0.161133 0.161133
0.161224 0.161224 0.161224
0.164124 0.164124 0.164124
0.163818 0.163818 0.163818
0.163696 0.163696 0.163696
0.163544 0.163544 0.163544
0.163422 0.163422 0.163422
0.163269 0.163269 0.163269
0.163147 0.163147 0.163147
0.162994 0.162994 0.162994
0.162872 0.162872 0.162872
0.162720 0.162720 0.162720
0.162598 0.162598 0.162598
0.162445 0.162445 0.162445
0.162323 0.162323 0.162323
0.162201 0.162201 0.162201
0.162079 0.162079 0.162079
0.161957 0.161957 0.161957
0.161865 0.161865 0.161865
0.161743 0.161743 0.161743
0.161621 0.161621 0.161621
0.161499 0.161499 0.161499
0.161407 0.161407 0.161407
0.161316 0.161316 0.161316
0.161224 0.161224 0.161224
0.161102 0.161102 0.161102
0.161041 0.161041 0.161041
0.160919 0.160919 0.160919
0.160858 0.160858 0.160858
0.160767 0.160767 0.160767
0.160706 0.160706 0.160706
0.160645 0.160645 0.160645
0.160583 0.160583 0.160583
0.160522 0.160522 0.160522
0.160461 0.160461 0.160461
0.160400 0.160400 0.160400
0.160370 0.160370 0.160370
0.160309 0.160309 0.160309
0.160278 0.160278 0.160278
0.160278 0.160278 0.160278
0.160248 0.160248 0.160248
0.160217 0.160217 0.160217
0.160217 0.160217 0.160217
0.160217 0.160217 0.160217
0.160217 0.160217 0.160217
0.160217 0.160217 0.160217
0.160248 0.160248 0.160248
0.160278 0.160278 0.160278
0.160309 0.160309 0.160309
0.160339 0.160339 0.160339
0.160370 0.160370 0.160370
0.160431 0.160431 0.160431
0.160492 0.160492 0.160492
0.160553 0.160553 0.160553
0.160614 0.160614 0.160614
0.160706 0.160706 0.160706
0.160797 0.160797 0.160797
0.160889 0.160889 0.160889
0.161011 0.161011 0.161011
0.161133 0.161133 0.161133
0.161224 0.161224 0.161224
0.161377 0.161377 0.161377
0.161499 0.161499 0.161499
0.161682 0.161682 0.161682
0.161804 0.161804 0.161804
0.161987 0.161987 0.161987
0.163544 0.163544 0.163544
0.163269 0.163269 0.163269
0.162994 0.162994 0.162994
0.162872 0.162872 0.162872
0.162720 0.162720 0.162720
0.162598 0.162598 0.162598
0.162445 0.162445 0.162445
0.162323 0.162323 0.162323
0.162201 0.162201 0.162201
0.162079 0.162079 0.162079
0.161957 0.161957 0.161957
0.161865 0.161865 0.161865
0.161743 0.161743 0.161743
0.161621 0.161621 0.161621
0.161499 0.161499 0.161499
0.161407 0.161407 0.161407
0.161316 0.161316 0.161316
0.161224 0.161224 0.161224
0.161102 0.161102 0.161102
0.161041 0.161041 0.161041
0.160919 0.160919 0.160919
0.160858 0.160858 0.160858
0.160767 0.160767 0.160767
0.160706 0.160706 0.160706
0.160645 0.160645 0.160645
0.160583 0.160583 0.160583
0.160522 0.160522 0.160522
0.160461 0.160461 0.160461
0.160400 0.160400 0.160400
0.160370 0.160370 0.160370
0.160309 0.160309 0.160309
0.160278 0.160278 0.160278
0.160278 0.160278 0.160278
0.160248 0.160248 0.160248
0.160217 0.160217 0.160217
0.160217 0.160217 0.160217
0.160217 0.160217 0.160217
0.160217 0.160217 0.160217
0.160217 0.160217 0.160217
0.160248 0.160248 0.160248
0.160278 0.160278 0.160278
0.160309 0.160309 0.160309
0.160339 0.160339 0.160339
0.160370 0.160370 0.160370
0.160431 0.160431 0.160431
0.160492 0.160492 0.160492
0.160553 0.160553 0.160553
0.160614 0.160614 0.160614
0.160706 0.160706 0.160706
0.160797 0.160797 0.160797
0.160889 0.160889 0.160889
0.161011 0.161011 0.161011
0.161133 0.161133 0.161133
0.161224 0.161224 0.161224
0.161377 0.161377 0.161377
0.161499 0.161499 0.161499
0.161682 0.161682 0.161682
0.161804 0.161804 0.161804
0.161987 0.161987 0.161987
0.162170 0.162170 0.162170
0.162354 0.162354 0.162354
0.162537 0.162537 0.162537
0.162781 0.162781 0.162781
0.162964 0.162964 0.162964
0.162994 0.162994 0.162994
0.162720 0.162720 0.162720
0.162445 0.162445 0.162445
0.162201 0.162201 0.162201
0.162079 0.162079 0.162079
0.161957 0.161957 0.161957
0.161865 0.161865 0.161865
0.161743 0.161743 0.161743
0.161621 0.161621 0.161621
0.161499 0.161499 0.161499
0.161407 0.161407 0.161407
0.161316 0.161316 0.161316
0.161224 0.161224 0.161224
0.161102 0.161102 0.161102
0.161041 0.161041 0.161041
0.160919 0.160919 0.160919
0.160858 0.160858 0.160858
0.160767 0.160767 0.160767
0.160706 0.160706 0.160706
0.160645 0.160645 0.160645
0.160583 0.160583 0.160583
0.160522 0.160522 0.160522
0.160461 0.160461 0.160461
0.160400 0.160400 0.160400
0.160370 0.160370 0.160370
0.160309 0.160309 0.160309
0.160278 0.160278 0.160278
0.160278 0.160278 0.160278
0.160248 0.160248 0.160248
0.160217 0.160217 0.160217
0.160217 0.160217 0.160217
0.160217 0.160217 0.160217
0.160217 0.160217 0.160217
0.160217 0.160217 0.160217
0.160248 0.160248 0.160248
0.160278 0.160278 0.160278
0.160309 0.160309 0.160309
0.160339 0.160339 0.160339
0.160370 0.160370 0.160370
0.160431 0.160431 0.160431
0.160492 0.160492 0.160492
0.160553 0.160553 0.160553
0.160614 0.160614 0.160614
0.160706 0.160706 0.160706
0.160797 0.160797 0.160797
0.160889 0.160889 0.160889
0.161011 0.161011 0.161011
0.161133 0.161133 0.161133
0.161224 0.161224 0.161224
0.161377 0.161377 0.161377
0.161499 0.161499 0.161499
0.161682 0.161682 0.161682
0.161804 0.161804 0.161804
0.161987 0.161987 0.161987
0.162170 0.162170 0.162170
0.162354 0.162354 0.162354
0.162537 0.162537 0.162537
0.162781 0.162781 0.162781
0.162964 0.162964 0.162964
0.163208 0.163208 0.163208
0.163422 0.163422 0.163422
0.163696 0.163696 0.163696
0.163940 0.163940 0.163940
0.164215 0.164215 0.164215
0.162445 0.162445 0.162445
0.162201 0.162201 0.162201
0.161957 0.161957 0.161957
0.161743 0.161743 0.161743
0.161499 0.161499 0.161499
0.161407 0.161407 0.161407
0.161316 0.161316 0.161316
0.161224 0.161224 0.161224
0.161102 0.161102 0.161102
0.161041 0.161041 0.161041
0.160919 0.160919 0.160919
0.160858 0.160858 0.160858
0.160767 0.160767 0.160767
0.160706 0.160706 0.160706
0.160645 0.160645 0.160645
0.160583 0.160583 0.160583
0.160522 0.160522 0.160522
0.160461 0.160461 0.160461
0.160400 0.160400 0.160400
0.160370 0.160370 0.160370
0.160309 0.160309 0.160309
0.160278 0.160278 0.160278
0.160278 0.160278 0.160278
0.160248 0.160248 0.160248
0.160217 0.160217 0.160217
0.160217 0.160217 0.160217
0.160217 0.160217 0.160217
0.160217 0.160217 0.160217
0.160217 0.160217 0.160217
0.160248 0.160248 0.160248
0.160278 0.160278 0.160278
0.160309 0.160309 0.160309
0.160339 0.160339 0.160339
0.160370 0.160370 0.160370
0.160431 0.160431 0.160431
0.160492 0.160492 0.160492
0.160553 0.160553 0.160553
0.160614 0.160614 0.160614
0.160706 0.160706 0.160706
0.160797 0.160797 0.160797
0.160889 0.160889 0.160889
0.161011 0.161011 0.161011
0.161133 0.161133 0.161133
0.161224 0.161224 0.161224
0.161377 0.161377 0.161377
0.161499 0.161499 0.161499
0.161682 0.161682 0.161682
0.161804 0.161804 0.161804
0.161987 0.161987 0.161987
0.162170 0.162170 0.162170
0.162354 0.162354 0.162354
0.162537 0.162537 0.162537
0.162781 0.162781 0.162781
0.162964 0.162964 0.162964
0.163208 0.163208 0.163208
0.163422 0.163422 0.163422
0.163696 0.163696 0.163696
0.163940 0.163940 0.163940
0.164215 0.164215 0.164215
0.164490 0.164490 0.164490
0.164795 0.164795 0.164795
0.165070 0.165070 0.165070
0.165405 0.165405 0.165405
0.165710 0.165710 0.165710
0.161957 0.161957 0.161957
0.161743 0.161743 0.161743
0.161499 0.161499 0.161499
0.161316 0.161316 0.161316
0.161102 0.161102 0.161102
0.160919 0.160919 0.160919
0.160858 0.160858 0.160858
0.160767 0.160767 0.160767
0.160706 0.160706 0.160706
0.160645 0.160645 0.160645
0.160583 0.160583 0.160583
0.160522 0.160522 0.160522
0.160461 0.160461 0.160461
0.160400 0.160400 0.160400
0.160370 0.160370 0.160370
0.160309 0.160309 0.160309
0.160278 0.160278 0.160278
0.160278 0.160278 0.160278
0.160248 0.160248 0.160248
0.160217 0.160217 0.160217
0.160217 0.160217 0.160217
0.160217 0.160217 0.160217
0.160217 0.160217 0.160217
0.160217 0.160217 0.160217
0.160248 0.160248 0.160248
0.160278 0.160278 0.160278
0.160309 0.160309 0.160309
0.160339 0.160339 0.160339
0.160370 0.160370 0.160370
0.160431 0.160431 0.160431
0.160492 0.160492 0.160492
0.160553 0.160553 0.160553
0.160614 0.160614 0.160614
0.160706 0.160706 0.160706
0.160797 0.160797 0.160797
0.160889 0.160889 0.160889
0.161011 0.161011 0.161011
0.161133 0.161133 0.161133
0.161224 0.161224 0.161224
0.161377 0.161377 0.161377
0.161499 0.161499 0.161499
0.161682 0.161682 0.161682
0.161804 0.161804 0.161804
0.161987 0.161987 0.161987
0.162170 0.162170 0.162170
0.162354 0.162354 0.162354
0.162537 0.162537 0.162537
0.162781 0.162781 0.162781
0.162964 0.162964 0.162964
0.163208 0.163208 0.163208
0.163422 0.163422 0.163422
0.163696 0.163696 0.163696
0.163940 0.163940 0.163940
0.164215 0.164215 0.164215
0.164490 0.164490 0.164490
0.164795 0.164795 0.164795
0.165070 0.165070 0.165070
0.165405 0.165405 0.165405
0.165710 0.165710 0.165710
0.166046 0.166046 0.166046
0.166382 0.166382 0.166382
0.166748 0.166748 0.166748
0.167114 0.167114 0.167114
0.167511 0.167511 0.167511
0.161499 0.161499 0.161499
0.161316 0.161316 0.161316
0.161102 0.161102 0.161102
0.160919 0.160919 0.160919
0.160767 0.160767 0.160767
0.160645 0.160645 0.160645
0.160522 0.160522 0.160522
0.160461 0.160461 0.160461
0.160400 0.160400 0.160400
0.160370 0.160370 0.160370
0.160309 0.160309 0.160309
0.160278 0.160278 0.160278
0.160278 0.160278 0.160278
0.160248 0.160248 0.160248
0.160217 0.160217 0.160217
0.160217 0.160217 0.160217
0.160217 0.160217 0.160217
0.160217 0.160217 0.160217
0.160217 0.160217 0.160217
0.160248 0.160248 0.160248
0.160278 0.160278 0.160278
0.160309 0.160309 0.160309
0.160339 0.160339 0.160339
0.160370 0.160370 0.160370
0.160431 0.160431 0.160431
0.160492 0.160492 0.160492
0.160553 0.160553 0.160553
0.160614 0.160614 0.160614
0.160706 0.160706 0.160706
0.160797 0.160797 0.160797
0.160889 0.160889 0.160889
0.161011 0.161011 0.161011
0.161133 0.161133 0.161133
0.161224 0.161224 0.161224
0.161377 0.161377 0.161377
0.161499 0.161499 0.161499
0.161682 0.161682 0.161682
0.161804 0.161804 0.161804
0.161987 0.161987 0.161987
0.162170 0.162170 0.162170
0.162354 0.162354 0.162354
0.162537 0.162537 0.162537
0.162781 0.162781 0.162781
0.162964 0.162964 0.162964
0.163208 0.163208 0.163208
0.163452 0.163452 0.163452
0.163696 0.163696 0.163696
0.163940 0.163940 0.163940
0.164215 0.164215 0.164215
0.164490 0.164490 0.164490
0.164795 0.164795 0.164795
0.165070 0.165070 0.165070
0.165405 0.165405 0.165405
0.165710 0.165710 0.165710
0.166046 0.166046 0.166046
0.166382 0.166382 0.166382
0.166748 0.166748 0.166748
0.167114 0.167114 0.167114
0.167511 0.167511 0.167511
0.167908 0.167908 0.167908
0.168304 0.168304 0.168304
0.168732 0.168732 0.168732
0.169159 0.169159 0.169159
0.169617 0.169617 0.169617
0.161102 0.161102 0.161102
0.160919 0.160919 0.160919
0.160767 0.160767 0.160767
0.160645 0.160645 0.160645
0.160522 0.160522 0.160522
0.160400 0.160400 0.160400
0.160309 0.160309 0.160309
0.160278 0.160278 0.160278
0.160248 0.160248 0.160248
0.160217 0.160217 0.160217
0.160217 0.160217 0.160217
0.160217 0.160217 0.160217
0.160217 0.160217 0.160217
0.160217 0.160217 0.160217
0.160248 0.160248 0.160248
0.160278 0.160278 0.160278
0.160309 0.160309 0.160309
0.160339 0.160339 0.160339
0.160370 0.160370 0.160370
0.160431 0.160431 0.160431
0.160492 0.160492 0.160492
0.160553 0.160553 0.160553
0.160614 0.160614 0.160614
0.160706 0.160706 0.160706
0.160797 0.160797 0.160797
0.160889 0.160889 0.160889
0.161011 0.161011 0.161011
0.161133 0.161133 0.161133
0.161224 0.161224 0.161224
0.161377 0.161377 0.161377
0.161499 0.161499 0.161499
0.161682 0.161682 0.161682
0.161804 0.161804 0.161804
0.161987 0.161987 0.161987
0.162170 0.162170 0.162170
0.162354 0.162354 0.162354
0.162537 0.162537 0.162537
0.162781 0.162781 0.162781
0.162964 0.162964 0.162964
0.163208 0.163208 0.163208
0.163452 0.163452 0.163452
0.163696 0.163696 0.163696
0.163940 0.163940 0.163940
0.164215 0.164215 0.164215
0.164490 0.164490 0.164490
0.164795 0.164795 0.164795
0.165100 0.165100 0.165100
0.165405 0.165405 0.165405
0.165710 0.165710 0.165710
0.166046 0.166046 0.166046
0.166382 0.166382 0.166382
0.166748 0.166748 0.166748
0.167114 0.167114 0.167114
0.167511 0.167511 0.167511
0.167908 0.167908 0.167908
0.168304 0.168304 0.168304
0.168732 0.168732 0.168732
0.169159 0.169159 0.169159
0.169617 0.169617 0.169617
0.170074 0.170074 0.170074
0.170532 0.170532 0.170532
0.171021 0.171021 0.171021
0.171509 0.171509 0.171509
0.172028 0.172028 0.172028
0.160767 0.160767 0.160767
0.160645 0.160645 0.160645
0.160522 0.160522 0.160522
0.160400 0.160400 0.160400
0.160309 0.160309 0.160309
0.160278 0.160278 0.160278
0.160217 0.160217 0.160217
0.160217 0.160217 0.160217
0.160217 0.160217 0.160217
0.160248 0.160248 0.160248
0.160278 0.160278 0.160278
0.160309 0.160309 0.160309
0.160339 0.160339 0.160339
0.160370 0.160370 0.160370
0.160431 0.160431 0.160431
0.160492 0.160492 0.160492
0.160553 0.160553 0.160553
0.160614 0.160614 0.160614
0.160706 0.160706 0.160706
0.160797 0.160797 0.160797
0.160889 0.160889 0.160889
0.161011 0.161011 0.161011
0.161133 0.161133 0.161133
0.161224 0.161224 0.161224
0.161377 0.161377 0.161377
0.161499 0.161499 0.161499
0.161682 0.161682 0.161682
0.161804 0.161804 0.161804
0.161987 0.161987 0.161987
0.162170 0.162170 0.162170
0.162354 0.162354 0.162354
0.162537 0.162537 0.162537
0.162781 0.162781 0.162781
0.162964 0.162964 0.162964
0.163208 0.163208 0.163208
0.163452 0.163452 0.163452
0.163696 0.163696 0.163696
0.163940 0.163940 0.163940
0.164215 0.164215 0.164215
0.164490 0.164490 0.164490
0.164795 0.164795 0.164795
0.165100 0.165100 0.165100
0.165405 0.165405 0.165405
0.165741 0.165741 0.165741
0.166077 0.166077 0.166077
0.166412 0.166412 0.166412
0.166779 0.166779 0.166779
0.167145 0.167145 0.167145
0.167511 0.167511 0.167511
0.167908 0.167908 0.167908
0.168304 0.168304 0.168304
0.168732 0.168732 0.168732
0.169159 0.169159 0.169159
0.169617 0.169617 0.169617
0.170074 0.170074 0.170074
0.170532 0.170532 0.170532
0.171021 0.171021 0.171021
0.171509 0.171509 0.171509
0.172028 0.172028 0.172028
0.172546 0.172546 0.172546
0.173096 0.173096 0.173096
0.173645 0.173645 0.173645
0.174225 0.174225 0.174225
0.174774 0.174774 0.174774
0.160522 0.160522 0.160522
0.160400 0.160400 0.160400
0.160309 0.160309 0.160309
0.160278 0.160278 0.160278
0.160217 0.160217 0.160217
0.160217 0.160217 0.160217
0.160217 0.160217 0.160217
0.160278 0.160278 0.160278
0.160339 0.160339 0.160339
0.160431 0.160431 0.160431
0.160492 0.160492 0.160492
0.160553 0.160553 0.160553
0.160645 0.160645 0.160645
0.160706 0.160706 0.160706
0.160797 0.160797 0.160797
0.160889 0.160889 0.160889
0.161011 0.161011 0.161011
0.161133 0.161133 0.161133
0.161224 0.161224 0.161224
0.161377 0.161377 0.161377
0.161499 0.161499 0.161499
0.161682 0.161682 0.161682
0.161804 0.161804 0.161804
0.161987 0.161987 0.161987
0.162170 0.162170 0.162170
0.162354 0.162354 0.162354
0.162537 0.162537 0.162537
0.162781 0.162781 0.162781
0.162964 0.162964 0.162964
0.163208 0.163208 0.163208
0.163452 0.163452 0.163452
0.163696 0.163696 0.163696
0.163940 0.163940 0.163940
0.164215 0.164215 0.164215
0.164490 0.164490 0.164490
0.164795 0.164795 0.164795
0.165100 0.165100 0.165100
0.165405 0.165405 0.165405
0.165741 0.165741 0.165741
0.166077 0.166077 0.166077
0.166412 0.166412 0.166412
0.166779 0.166779 0.166779
0.167145 0.167145 0.167145
0.167542 0.167542 0.167542
0.167938 0.167938 0.167938
0.168335 0.168335 0.168335
0.168762 0.168762 0.168762
0.169189 0.169189 0.169189
0.169617 0.169617 0.169617
0.170074 0.170074 0.170074
0.170532 0.170532 0.170532
0.171021 0.171021 0.171021
0.171509 0.171509 0.171509
0.172028 0.172028 0.172028
0.172546 0.172546 0.172546
0.173096 0.173096 0.173096
0.173645 0.173645 0.173645
0.174225 0.174225 0.174225
0.174774 0.174774 0.174774
0.175385 0.175385 0.175385
0.175964 0.175964 0.175964
0.176605 0.176605 0.176605
0.177246 0.177246 0.177246
0.177887 0.177887 0.177887
0.160309 0.160309 0.160309
0.160278 0.160278 0.160278
0.160217 0.160217 0.160217
0.160217 0.160217 0.160217
0.160217 0.160217 0.160217
0.160278 0.160278 0.160278
0.160339 0.160339 0.160339
0.160431 0.160431 0.160431
0.160553 0.160553 0.160553
0.160706 0.160706 0.160706
0.160889 0.160889 0.160889
0.161011 0.161011 0.161011
0.161133 0.161133 0.161133
0.161255 0.161255 0.161255
0.161377 0.161377 0.161377
0.161530 0.161530 0.161530
0.161682 0.161682 0.161682
0.161804 0.161804 0.161804
0.161987 0.161987 0.161987
0.162170 0.162170 0.162170
0.162354 0.162354 0.162354
0.162537 0.162537 0.162537
0.162781 0.162781 0.162781
0.162964 0.162964 0.162964
0.163208 0.163208 0.163208
0.163452 0.163452 0.163452
0.163696 0.163696 0.163696
0.163940 0.163940 0.163940
0.164215 0.164215 0.164215
0.164490 0.164490 0.164490
0.164795 0.164795 0.164795
0.165100 0.165100 0.165100
0.165405 0.165405 0.165405
0.165741 0.165741 0.165741
0.166077 0.166077 0.166077
0.166412 0.166412 0.166412
0.166779 0.166779 0.166779
0.167145 0.167145 0.167145
0.167542 0.167542 0.167542
0.167938 0.167938 0.167938
0.168335 0.168335 0.168335
0.168762 0.168762 0.168762
0.169189 0.169189 0.169189
0.169647 0.169647 0.169647
0.170074 0.170074 0.170074
0.170563 0.170563 0.170563
0.171051 0.171051 0.171051
0.171539 0.171539 0.171539
0.172028 0.172028 0.172028
0.172546 0.172546 0.172546
0.173096 0.173096 0.173096
0.173645 0.173645 0.173645
0.174225 0.174225 0.174225
0.174774 0.174774 0.174774
0.175385 0.175385 0.175385
0.175964 0.175964 0.175964
0.176605 0.176605 0.176605
0.177246 0.177246 0.177246
0.177887 0.177887 0.177887
0.178558 0.178558 0.178558
0.179230 0.179230 0.179230
0.179901 0.179901 0.179901
0.180603 0.180603 0.180603
0.181335 0.181335 0.181335
0.160217 0.160217 0.160217
0.160217 0.160217 0.160217
0.160217 0.160217 0.160217
0.160278 0.160278 0.160278
0.160339 0.160339 0.160339
0.160431 0.160431 0.160431
0.160553 0.160553 0.160553
0.160706 0.160706 0.160706
0.160889 0.160889 0.160889
0.161133 0.161133 0.161133
0.161377 0.161377 0.161377
0.161682 0.161682 0.161682
0.161835 0.161835 0.161835
0.161987 0.161987 0.161987
0.162201 0.162201 0.162201
0.162354 0.162354 0.162354
0.162537 0.162537 0.162537
0.162781 0.162781 0.162781
0.162964 0.162964 0.162964
0.163208 0.163208 0.163208
0.163452 0.163452 0.163452
0.163696 0.163696 0.163696
0.163940 0.163940 0.163940
0.164215 0.164215 0.164215
0.164490 0.164490 0.164490
0.164795 0.164795 0.164795
0.165100 0.165100 0.165100
0.165405 0.165405 0.165405
0.165741 0.165741 0.165741
0.166077 0.166077 0.166077
0.166412 0.166412 0.166412
0.166779 0.166779 0.166779
0.167145 0.167145 0.167145
0.167542 0.167542 0.167542
0.167938 0.167938 0.167938
0.168335 0.168335 0.168335
0.168762 0.168762 0.168762
0.169189 0.169189 0.169189
0.169647 0.169647 0.169647
0.170074 0.170074 0.170074
0.170563 0.170563 0.170563
0.171051 0.171051 0.171051
0.171539 0.171539 0.171539
0.172058 0.172058 0.172058
0.172577 0.172577 0.172577
0.173096 0.173096 0.173096
0.173676 0.173676 0.173676
0.174225 0.174225 0.174225
0.174774 0.174774 0.174774
0.175385 0.175385 0.175385
0.175964 0.175964 0.175964
0.176605 0.176605 0.176605
0.177246 0.177246 0.177246
0.177887 0.177887 0.177887
0.178558 0.178558 0.178558
0.179230 0.179230 0.179230
0.179901 0.179901 0.179901
0.180603 0.180603 0.180603
0.181335 0.181335 0.181335
0.182068 0.182068 0.182068
0.182800 0.182800 0.182800
0.183563 0.183563 0.183563
0.184326 0.184326 0.184326
0.185089 0.185089 0.185089
0.160217 0.160217 0.160217
0.160278 0.160278 0.160278
0.160339 0.160339 0.160339
0.160431 0.160431 0.160431
0.160553 0.160553 0.160553
0.160706 0.160706 0.160706
0.160889 0.160889 0.160889
0.161133 0.161133 0.161133
0.161377 0.161377 0.161377
0.161682 0.161682 0.161682
0.161987 0.161987 0.161987
0.162354 0.162354 0.162354
0.162781 0.162781 0.162781
0.162994 0.162994 0.162994
0.163208 0.163208 0.163208
0.163452 0.163452 0.163452
0.163696 0.163696 0.163696
0.163971 0.163971 0.163971
0.164215 0.164215 0.164215
0.164520 0.164520 0.164520
0.164795 0.164795 0.164795
0.165100 0.165100 0.165100
0.165405 0.165405 0.165405
0.165741 0.165741 0.165741
0.166077 0.166077 0.166077
0.166412 0.166412 0.166412
0.166779 0.166779 0.166779
0.167145 0.167145 0.167145
0.167542 0.167542 0.167542
0.167938 0.167938 0.167938
0.168335 0.168335 0.168335
0.168762 0.168762 0.168762
0.169189 0.169189 0.169189
0.169647 0.169647 0.169647
0.170105 0.170105 0.170105
0.170563 0.170563 0.170563
0.171051 0.171051 0.171051
0.171539 0.171539 0.171539
0.172058 0.172058 0.172058
0.172577 0.172577 0.172577
0.173096 0.173096 0.173096
0.173676 0.173676 0.173676
0.174225 0.174225 0.174225
0.174805 0.174805 0.174805
0.175385 0.175385 0.175385
0.175995 0.175995 0.175995
0.176605 0.176605 0.176605
0.177246 0.177246 0.177246
0.177887 0.177887 0.177887
0.178558 0.178558 0.178558
0.179230 0.179230 0.179230
0.179932 0.179932 0.179932
0.180603 0.180603 0.180603
0.181335 0.181335 0.181335
0.182068 0.182068 0.182068
0.182800 0.182800 0.182800
0.183563 0.183563 0.183563
0.184326 0.184326 0.184326
0.185089 0.185089 0.185089
0.185883 0.185883 0.185883
0.186707 0.186707 0.186707
0.187500 0.187500 0.187500
0.188354 0.188354 0.188354
0.189178 0.189178 0.189178
0.160339 0.160339 0.160339
0.160431 0.160431 0.160431
0.160553 0.160553 0.160553
0.160706 0.160706 0.160706
0.160889 0.160889 0.160889
0.161133 0.161133 0.161133
0.161377 0.161377 0.161377
0.161682 0.161682 0.161682
0.161987 0.161987 0.161987
0.162354 0.162354 0.162354
0.162781 0.162781 0.162781
0.163208 0.163208 0.163208
0.163696 0.163696 0.163696
0.164215 0.164215 0.164215
0.164520 0.164520 0.164520
0.164795 0.164795 0.164795
0.165100 0.165100 0.165100
0.165405 0.165405 0.165405
0.165741 0.165741 0.165741
0.166077 0.166077 0.166077
0.166412 0.166412 0.166412
0.166779 0.166779 0.166779
0.167145 0.167145 0.167145
0.167542 0.167542 0.167542
0.167938 0.167938 0.167938
0.168335 0.168335 0.168335
0.168762 0.168762 0.168762
0.169189 0.169189 0.169189
0.169647 0.169647 0.169647
0.170105 0.170105 0.170105
0.170563 0.170563 0.170563
0.171051 0.171051 0.171051
0.171539 0.171539 0.171539
0.172058 0.172058 0.172058
0.172577 0.172577 0.172577
0.173126 0.173126 0.173126
0.173676 0.173676 0.173676
0.174255 0.174255 0.174255
0.174805 0.174805 0.174805
0.175415 0.175415 0.175415
0.175995 0.175995 0.175995
0.176605 0.176605 0.176605
0.177246 0.177246 0.177246
0.177887 0.177887 0.177887
0.178558 0.178558 0.178558
0.179230 0.179230 0.179230
0.179932 0.179932 0.179932
0.180603 0.180603 0.180603
0.181335 0.181335 0.181335
0.182068 0.182068 0.182068
