sepia.CUBE
#Created by: Adobe Photoshop Export Color Lookup Plugin
TITLE "Untitled Session02649.JPG"
#LUT size
LUT_3D_SIZE 64
#data domain
DOMAIN_MIN 0.0 0.0 0.0
DOMAIN_MAX 1.0 1.0 1.0
#LUT data points
0.201874 0.160034 0.104858
0.211273 0.160004 0.104828
0.220703 0.160004 0.104797
0.230347 0.159973 0.104767
0.240540 0.159943 0.104706
0.251373 0.159912 0.104645
0.263000 0.159882 0.104645
0.275543 0.159882 0.104553
0.288971 0.159821 0.104492
0.303162 0.159790 0.104431
0.317780 0.159760 0.104340
0.332550 0.159698 0.104248
0.347473 0.159637 0.104156
0.362244 0.159607 0.104034
0.377075 0.159546 0.103943
0.392120 0.159454 0.103821
0.407288 0.159424 0.103729
0.422333 0.159332 0.103607
0.437164 0.159271 0.103485
0.451813 0.159210 0.103363
0.466095 0.159149 0.103271
0.480011 0.159058 0.103119
0.493683 0.158997 0.102997
0.506989 0.158936 0.102875
0.520111 0.158844 0.102753
0.532959 0.158783 0.102631
0.545593 0.158722 0.102539
0.558044 0.158661 0.102386
0.570312 0.158569 0.102264
0.582428 0.158539 0.102142
0.594360 0.158447 0.102020
0.606201 0.158356 0.101898
0.617859 0.158325 0.101776
0.629425 0.158234 0.101654
0.640869 0.158203 0.101562
0.652252 0.158112 0.101471
0.663513 0.158081 0.101349
0.674713 0.158020 0.101257
0.685822 0.157959 0.101105
0.696899 0.157898 0.101013
0.707886 0.157837 0.100891
0.718842 0.157776 0.100800
0.729736 0.157715 0.100647
0.740601 0.157654 0.100555
0.751495 0.157593 0.100433
0.762360 0.157532 0.100342
0.773193 0.157471 0.100250
0.784088 0.157410 0.100128
0.795044 0.157349 0.100067
0.806061 0.157318 0.099976
0.817200 0.157257 0.099854
0.828461 0.157166 0.099792
0.839966 0.157104 0.099670
0.851562 0.157104 0.099579
0.863495 0.157013 0.099457
0.875732 0.156982 0.099396
0.888336 0.156891 0.099304
0.901428 0.156891 0.099182
0.915070 0.156830 0.099091
0.929443 0.156769 0.098999
0.944702 0.156708 0.098907
0.961243 0.156677 0.098816
0.979431 0.156616 0.098755
1.000000 0.156555 0.098633
0.201874 0.167847 0.104797
0.211243 0.167816 0.104767
0.220703 0.167816 0.104736
0.230347 0.167816 0.104675
0.240540 0.167786 0.104645
0.251373 0.167755 0.104614
0.262970 0.167725 0.104553
0.275543 0.167664 0.104492
0.288940 0.167633 0.104431
0.303162 0.167603 0.104370
0.317749 0.167542 0.104279
0.332550 0.167480 0.104187
0.347443 0.167450 0.104095
0.362244 0.167389 0.104004
0.377075 0.167328 0.103882
0.392120 0.167236 0.103760
0.407288 0.167175 0.103638
0.422333 0.167114 0.103546
0.437164 0.167053 0.103424
0.451813 0.166962 0.103333
0.466095 0.166901 0.103180
0.480011 0.166840 0.103058
0.493652 0.166748 0.102936
0.506989 0.166687 0.102814
0.520111 0.166626 0.102692
0.532959 0.166565 0.102539
0.545593 0.166504 0.102448
0.558044 0.166412 0.102325
0.570312 0.166351 0.102203
0.582428 0.166290 0.102081
0.594360 0.166199 0.101959
0.606171 0.166138 0.101837
0.617828 0.166077 0.101715
0.629395 0.165985 0.101624
0.640869 0.165924 0.101501
0.652252 0.165863 0.101379
0.663483 0.165802 0.101288
0.674683 0.165741 0.101166
0.685822 0.165680 0.101044
0.696899 0.165619 0.100922
0.707855 0.165527 0.100830
0.718811 0.165497 0.100677
0.729736 0.165436 0.100586
0.740570 0.165344 0.100494
0.751495 0.165283 0.100372
0.762329 0.165253 0.100250
0.773193 0.165161 0.100189
0.784058 0.165100 0.100067
0.795044 0.165039 0.099976
0.806061 0.164978 0.099915
0.817200 0.164917 0.099823
0.828461 0.164886 0.099701
0.839905 0.164825 0.099609
0.851562 0.164795 0.099487
0.863495 0.164734 0.099396
0.875732 0.164673 0.099304
0.888336 0.164642 0.099213
0.901428 0.164581 0.099121
0.915070 0.164520 0.098999
0.929443 0.164459 0.098938
0.944702 0.164429 0.098846
0.961243 0.164368 0.098755
0.979431 0.164307 0.098663
1.000000 0.164246 0.098572
0.201874 0.175720 0.104736
0.211243 0.175690 0.104675
0.220703 0.175659 0.104645
0.230347 0.175629 0.104645
0.240540 0.175598 0.104584
0.251373 0.175568 0.104523
0.262970 0.175568 0.104492
0.275513 0.175537 0.104431
0.288940 0.175476 0.104370
0.303131 0.175446 0.104279
0.317749 0.175385 0.104218
0.332550 0.175354 0.104126
0.347443 0.175262 0.104004
0.362213 0.175201 0.103912
0.377075 0.175171 0.103790
0.392120 0.175110 0.103699
0.407288 0.175018 0.103577
0.422333 0.174957 0.103455
0.437164 0.174896 0.103333
0.451782 0.174835 0.103241
0.466095 0.174744 0.103119
0.479980 0.174683 0.102966
0.493652 0.174591 0.102844
0.506958 0.174530 0.102753
0.520081 0.174438 0.102600
0.532959 0.174377 0.102509
0.545563 0.174316 0.102356
0.558014 0.174225 0.102264
0.570312 0.174133 0.102112
0.582397 0.174072 0.101990
0.594360 0.174011 0.101868
0.606171 0.173920 0.101746
0.617828 0.173859 0.101654
0.629395 0.173798 0.101532
0.640869 0.173706 0.101410
0.652252 0.173676 0.101288
0.663483 0.173584 0.101196
0.674683 0.173523 0.101074
0.685822 0.173462 0.100983
0.696869 0.173401 0.100861
0.707855 0.173340 0.100739
0.718811 0.173279 0.100647
0.729736 0.173218 0.100494
0.740570 0.173157 0.100403
0.751495 0.173065 0.100281
0.762329 0.173004 0.100189
0.773193 0.172943 0.100098
0.784058 0.172852 0.100006
0.795044 0.172821 0.099915
0.806030 0.172760 0.099823
0.817200 0.172699 0.099701
0.828461 0.172638 0.099609
0.839905 0.172577 0.099518
0.851562 0.172516 0.099396
0.863495 0.172455 0.099335
0.875732 0.172424 0.099213
0.888336 0.172363 0.099121
0.901428 0.172302 0.099030
0.915070 0.172241 0.098969
0.929443 0.172211 0.098846
0.944702 0.172150 0.098755
0.961243 0.172089 0.098663
0.979431 0.171997 0.098572
1.000000 0.171997 0.098480
0.201843 0.183838 0.104645
0.211243 0.183807 0.104645
0.220703 0.183807 0.104584
0.230347 0.183777 0.104553
0.240540 0.183746 0.104523
0.251343 0.183716 0.104462
0.262970 0.183716 0.104431
0.275513 0.183655 0.104370
0.288910 0.183624 0.104279
0.303131 0.183563 0.104218
0.317749 0.183533 0.104126
0.332520 0.183472 0.104034
0.347412 0.183411 0.103943
0.362213 0.183350 0.103821
0.377045 0.183289 0.103729
0.392120 0.183197 0.103607
0.407288 0.183136 0.103516
0.422302 0.183075 0.103394
0.437134 0.182983 0.103302
0.451782 0.182922 0.103180
0.466064 0.182831 0.103027
0.479980 0.182739 0.102905
0.493622 0.182709 0.102783
0.506958 0.182587 0.102661
0.520081 0.182526 0.102539
0.532928 0.182434 0.102417
0.545563 0.182343 0.102295
0.558014 0.182281 0.102173
0.570282 0.182220 0.102051
0.582397 0.182129 0.101898
0.594330 0.182068 0.101776
0.606171 0.182007 0.101685
0.617828 0.181946 0.101562
0.629395 0.181885 0.101471
0.640839 0.181793 0.101349
0.652222 0.181732 0.101227
0.663483 0.181671 0.101105
0.674683 0.181580 0.101013
0.685791 0.181519 0.100861
0.696869 0.181458 0.100769
0.707855 0.181366 0.100647
0.718811 0.181305 0.100525
0.729706 0.181244 0.100433
0.740570 0.181183 0.100311
0.751465 0.181091 0.100220
0.762329 0.181030 0.100128
0.773163 0.180969 0.100037
0.784058 0.180878 0.099945
0.795044 0.180817 0.099823
0.806030 0.180786 0.099731
0.817200 0.180725 0.099609
0.828461 0.180634 0.099518
0.839905 0.180603 0.099426
0.851562 0.180542 0.099335
0.863495 0.180481 0.099213
0.875732 0.180450 0.099152
0.888336 0.180389 0.099060
0.901428 0.180359 0.098969
0.915070 0.180267 0.098877
0.929443 0.180206 0.098755
0.944702 0.180176 0.098663
0.961243 0.180115 0.098572
0.979431 0.180054 0.098511
1.000000 0.179993 0.098389
0.201843 0.192474 0.104584
0.211243 0.192444 0.104553
0.220703 0.192413 0.104492
0.230347 0.192413 0.104462
0.240509 0.192383 0.104431
0.251343 0.192352 0.104401
0.262970 0.192322 0.104340
0.275482 0.192291 0.104279
0.288910 0.192230 0.104218
0.303131 0.192200 0.104126
0.317719 0.192169 0.104034
0.332520 0.192108 0.103973
0.347412 0.192017 0.103851
0.362183 0.191956 0.103760
0.377045 0.191895 0.103638
0.392120 0.191803 0.103546
0.407257 0.191742 0.103424
0.422302 0.191681 0.103333
0.437134 0.191589 0.103180
0.451752 0.191528 0.103058
0.466064 0.191437 0.102966
0.479950 0.191345 0.102814
0.493622 0.191284 0.102692
0.506958 0.191193 0.102539
0.520050 0.191101 0.102448
0.532928 0.191010 0.102325
0.545532 0.190918 0.102203
0.558014 0.190887 0.102081
0.570282 0.190796 0.101959
0.582367 0.190704 0.101807
0.594330 0.190643 0.101715
0.606140 0.190552 0.101593
0.617828 0.190491 0.101501
0.629395 0.190430 0.101349
0.640839 0.190369 0.101257
0.652222 0.190277 0.101135
0.663483 0.190216 0.101044
0.674683 0.190125 0.100891
0.685791 0.190063 0.100800
0.696869 0.190002 0.100647
0.707825 0.189911 0.100555
0.718811 0.189850 0.100433
0.729706 0.189789 0.100342
0.740570 0.189697 0.100220
0.751465 0.189636 0.100128
0.762329 0.189575 0.100037
0.773163 0.189484 0.099945
0.784058 0.189423 0.099823
0.794983 0.189362 0.099731
0.806030 0.189301 0.099609
0.817200 0.189209 0.099548
0.828400 0.189178 0.099426
0.839905 0.189117 0.099335
0.851562 0.189026 0.099243
0.863495 0.188995 0.099152
0.875732 0.188934 0.099060
0.888336 0.188873 0.098969
0.901428 0.188843 0.098877
0.915070 0.188782 0.098755
0.929443 0.188721 0.098663
0.944702 0.188660 0.098572
0.961243 0.188599 0.098511
0.979431 0.188568 0.098389
1.000000 0.188507 0.098328
0.201843 0.201721 0.104492
0.211243 0.201721 0.104462
0.220673 0.201691 0.104431
0.230316 0.201660 0.104401
0.240509 0.201630 0.104340
0.251343 0.201599 0.104279
0.262939 0.201599 0.104218
0.275482 0.201538 0.104187
0.288910 0.201477 0.104126
0.303101 0.201447 0.104034
0.317719 0.201385 0.103973
0.332520 0.201324 0.103851
0.347382 0.201263 0.103760
0.362183 0.201172 0.103668
0.377045 0.201111 0.103577
0.392090 0.201050 0.103424
0.407257 0.200958 0.103333
0.422272 0.200897 0.103210
0.437103 0.200806 0.103088
0.451752 0.200745 0.102966
0.466034 0.200653 0.102844
0.479950 0.200562 0.102722
0.493591 0.200500 0.102570
0.506958 0.200409 0.102478
0.520050 0.200348 0.102325
0.532898 0.200256 0.102234
0.545532 0.200165 0.102112
0.557983 0.200073 0.101959
0.570251 0.199982 0.101837
0.582367 0.199921 0.101746
0.594330 0.199829 0.101624
0.606140 0.199738 0.101501
0.617798 0.199677 0.101379
0.629364 0.199615 0.101288
0.640808 0.199524 0.101135
0.652222 0.199463 0.101044
0.663452 0.199371 0.100922
0.674652 0.199280 0.100800
0.685791 0.199219 0.100677
0.696838 0.199127 0.100555
0.707825 0.199066 0.100433
0.718781 0.199036 0.100342
0.729706 0.198944 0.100220
0.740540 0.198883 0.100128
0.751465 0.198792 0.100037
0.762268 0.198730 0.099945
0.773163 0.198669 0.099823
0.784058 0.198608 0.099731
0.794983 0.198517 0.099609
0.806030 0.198456 0.099548
0.817169 0.198395 0.099426
0.828400 0.198334 0.099335
0.839905 0.198242 0.099213
0.851562 0.198212 0.099152
0.863495 0.198151 0.099030
0.875732 0.198090 0.098969
0.888336 0.198029 0.098846
0.901428 0.197968 0.098755
0.915070 0.197906 0.098663
0.929382 0.197815 0.098572
0.944702 0.197784 0.098480
0.961243 0.197723 0.098389
0.979431 0.197662 0.098297
1.000000 0.197601 0.098236
0.201813 0.211761 0.104401
0.211243 0.211731 0.104370
0.220673 0.211700 0.104309
0.230316 0.211670 0.104279
0.240479 0.211670 0.104218
0.251343 0.211639 0.104187
0.262939 0.211609 0.104156
0.275482 0.211548 0.104095
0.288910 0.211487 0.104004
0.303070 0.211456 0.103943
0.317688 0.211395 0.103851
0.332489 0.211334 0.103760
0.347382 0.211273 0.103668
0.362152 0.211212 0.103577
0.377045 0.211121 0.103455
0.392090 0.211060 0.103333
0.407227 0.210999 0.103241
0.422272 0.210907 0.103119
0.437073 0.210846 0.102966
0.451721 0.210754 0.102875
0.466003 0.210663 0.102753
0.479919 0.210571 0.102600
0.493591 0.210480 0.102509
0.506927 0.210388 0.102356
0.520050 0.210297 0.102234
0.532867 0.210205 0.102112
0.545502 0.210144 0.101990
0.557953 0.210052 0.101868
0.570251 0.209991 0.101746
0.582367 0.209869 0.101624
0.594299 0.209778 0.101501
0.606140 0.209717 0.101379
0.617798 0.209625 0.101288
0.629364 0.209564 0.101135
0.640808 0.209473 0.101044
0.652191 0.209412 0.100922
0.663452 0.209351 0.100800
0.674652 0.209290 0.100677
0.685760 0.209167 0.100555
0.696838 0.209106 0.100433
0.707825 0.209045 0.100342
0.718781 0.208954 0.100220
0.729675 0.208893 0.100128
0.740540 0.208801 0.100037
0.751465 0.208740 0.099945
0.762268 0.208649 0.099823
0.773163 0.208588 0.099731
0.784027 0.208527 0.099609
0.794983 0.208435 0.099518
0.806030 0.208374 0.099396
0.817169 0.208313 0.099304
0.828400 0.208252 0.099213
0.839905 0.208191 0.099121
0.851562 0.208099 0.098999
0.863495 0.208069 0.098938
0.875702 0.207977 0.098846
0.888306 0.207916 0.098755
0.901428 0.207886 0.098633
0.915070 0.207794 0.098541
0.929382 0.207733 0.098480
0.944702 0.207703 0.098389
0.961243 0.207642 0.098297
0.979431 0.207581 0.098206
1.000000 0.207520 0.098114
0.201813 0.222748 0.104248
0.211243 0.222717 0.104218
0.220642 0.222687 0.104218
0.230316 0.222656 0.104156
0.240448 0.222626 0.104126
0.251312 0.222595 0.104065
0.262909 0.222565 0.104004
0.275482 0.222534 0.103973
0.288879 0.222473 0.103882
0.303070 0.222412 0.103790
0.317657 0.222382 0.103760
0.332458 0.222290 0.103638
0.347351 0.222229 0.103546
0.362152 0.222168 0.103424
0.377014 0.222076 0.103333
0.392059 0.221985 0.103241
0.407227 0.221924 0.103119
0.422241 0.221832 0.102966
0.437073 0.221741 0.102875
0.451691 0.221649 0.102753
0.466003 0.221558 0.102600
0.479919 0.221466 0.102509
0.493561 0.221375 0.102356
0.506927 0.221283 0.102234
0.520020 0.221222 0.102112
0.532867 0.221130 0.101990
0.545502 0.221069 0.101868
0.557953 0.220947 0.101746
0.570251 0.220886 0.101624
0.582336 0.220795 0.101501
0.594299 0.220703 0.101379
0.606110 0.220612 0.101288
0.617767 0.220551 0.101135
0.629333 0.220490 0.101044
0.640778 0.220367 0.100891
0.652191 0.220276 0.100800
0.663422 0.220215 0.100647
0.674622 0.220123 0.100555
0.685760 0.220062 0.100433
0.696838 0.219971 0.100311
0.707794 0.219879 0.100220
0.718781 0.219788 0.100098
0.729675 0.219727 0.100006
0.740540 0.219666 0.099915
0.751404 0.219604 0.099823
0.762268 0.219513 0.099701
0.773102 0.219452 0.099609
0.784027 0.219391 0.099487
0.794983 0.219299 0.099396
0.805969 0.219238 0.099274
0.817169 0.219208 0.099182
0.828400 0.219116 0.099091
0.839905 0.219025 0.098969
0.851532 0.218994 0.098907
0.863434 0.218903 0.098785
0.875702 0.218842 0.098724
0.888306 0.218781 0.098602
0.901398 0.218719 0.098511
0.915070 0.218628 0.098419
0.929382 0.218597 0.098358
0.944702 0.218536 0.098267
0.961243 0.218445 0.098145
0.979431 0.218384 0.098083
1.000000 0.218323 0.097992
0.201813 0.234619 0.104156
0.211212 0.234589 0.104095
0.220642 0.234558 0.104065
0.230286 0.234558 0.104004
0.240448 0.234528 0.104004
0.251312 0.234497 0.103943
0.262878 0.234436 0.103882
0.275452 0.234406 0.103821
0.288879 0.234344 0.103760
0.303040 0.234314 0.103699
0.317657 0.234222 0.103607
0.332458 0.234161 0.103516
0.347321 0.234131 0.103424
0.362152 0.234039 0.103333
0.376984 0.233948 0.103210
0.392029 0.233887 0.103088
0.407196 0.233765 0.102966
0.422211 0.233704 0.102844
0.437073 0.233582 0.102722
0.451691 0.233490 0.102600
0.465973 0.233398 0.102478
0.479889 0.233337 0.102325
0.493530 0.233246 0.102234
0.506897 0.233154 0.102112
0.520020 0.233093 0.101959
0.532837 0.232971 0.101837
0.545471 0.232880 0.101715
0.557922 0.232788 0.101593
0.570221 0.232697 0.101501
0.582336 0.232635 0.101349
0.594269 0.232544 0.101257
0.606079 0.232452 0.101105
0.617737 0.232361 0.101013
0.629303 0.232269 0.100861
0.640778 0.232208 0.100769
0.652161 0.232086 0.100647
0.663422 0.232025 0.100525
0.674622 0.231934 0.100403
0.685730 0.231842 0.100281
0.696808 0.231750 0.100189
0.707794 0.231659 0.100067
0.718750 0.231598 0.099976
0.729675 0.231537 0.099854
0.740509 0.231445 0.099762
0.751404 0.231415 0.099640
0.762268 0.231323 0.099548
0.773102 0.231232 0.099426
0.784027 0.231171 0.099335
0.794952 0.231110 0.099213
0.805969 0.231018 0.099121
0.817169 0.230957 0.099030
0.828400 0.230896 0.098938
0.839874 0.230804 0.098846
0.851532 0.230774 0.098755
0.863434 0.230682 0.098633
0.875702 0.230591 0.098541
0.888306 0.230560 0.098480
0.901398 0.230469 0.098389
0.915070 0.230408 0.098297
0.929382 0.230347 0.098175
0.944702 0.230286 0.098114
0.961243 0.230194 0.098022
0.979431 0.230133 0.097931
1.000000 0.230072 0.097839
0.201813 0.247375 0.104004
0.211182 0.247345 0.103973
0.220612 0.247345 0.103912
0.230255 0.247284 0.103882
0.240417 0.247253 0.103821
0.251282 0.247223 0.103790
0.262878 0.247192 0.103760
0.275421 0.247131 0.103668
0.288849 0.247101 0.103607
0.303009 0.247040 0.103546
0.317657 0.246979 0.103455
0.332428 0.246918 0.103363
0.347321 0.246857 0.103302
0.362122 0.246796 0.103180
0.376953 0.246735 0.103058
0.391998 0.246613 0.102936
0.407166 0.246521 0.102814
0.422180 0.246429 0.102692
0.437042 0.246338 0.102539
0.451660 0.246246 0.102448
0.465973 0.246124 0.102325
0.479889 0.246063 0.102173
0.493500 0.245941 0.102051
0.506866 0.245880 0.101929
0.519989 0.245758 0.101776
0.532837 0.245667 0.101654
0.545471 0.245575 0.101562
0.557922 0.245483 0.101440
0.570190 0.245422 0.101318
0.582306 0.245331 0.101196
0.594238 0.245239 0.101074
0.606079 0.245148 0.100952
0.617737 0.245056 0.100830
0.629303 0.244995 0.100677
0.640747 0.244873 0.100586
0.652130 0.244812 0.100433
0.663391 0.244720 0.100342
0.674591 0.244629 0.100220
0.685699 0.244537 0.100128
0.696777 0.244446 0.100037
0.707764 0.244385 0.099915
0.718750 0.244293 0.099823
0.729645 0.244202 0.099701
0.740509 0.244141 0.099609
0.751373 0.244049 0.099457
0.762238 0.243988 0.099365
0.773071 0.243896 0.099243
0.783997 0.243835 0.099182
0.794952 0.243774 0.099060
0.805969 0.243683 0.098969
0.817108 0.243622 0.098877
0.828369 0.243561 0.098755
0.839874 0.243500 0.098663
0.851532 0.243408 0.098572
0.863434 0.243378 0.098480
0.875702 0.243286 0.098389
0.888306 0.243195 0.098297
0.901398 0.243164 0.098206
0.915039 0.243073 0.098145
0.929382 0.242981 0.098022
0.944702 0.242950 0.097931
0.961243 0.242859 0.097839
0.979431 0.242767 0.097748
1.000000 0.242737 0.097687
0.201782 0.260773 0.103790
0.211182 0.260773 0.103790
0.220581 0.260742 0.103760
0.230255 0.260712 0.103729
0.240417 0.260651 0.103668
0.251251 0.260620 0.103638
0.262878 0.260590 0.103577
0.275421 0.260559 0.103516
0.288818 0.260529 0.103424
0.303009 0.260468 0.103394
0.317627 0.260406 0.103302
0.332397 0.260345 0.103210
0.347290 0.260254 0.103088
0.362091 0.260162 0.102997
0.376923 0.260071 0.102875
0.391968 0.260010 0.102753
0.407135 0.259918 0.102661
0.422180 0.259796 0.102539
0.437012 0.259705 0.102386
0.451630 0.259613 0.102264
0.465942 0.259521 0.102112
0.479858 0.259399 0.101990
0.493500 0.259308 0.101868
0.506836 0.259216 0.101746
0.519989 0.259125 0.101654
0.532806 0.259033 0.101501
0.545441 0.258942 0.101379
0.557892 0.258850 0.101288
0.570160 0.258789 0.101135
0.582275 0.258698 0.101013
0.594208 0.258606 0.100891
0.606049 0.258484 0.100769
0.617706 0.258423 0.100647
0.629303 0.258301 0.100525
0.640747 0.258240 0.100403
0.652100 0.258118 0.100281
0.663361 0.258057 0.100159
0.674591 0.257935 0.100067
0.685699 0.257843 0.099976
0.696777 0.257782 0.099854
0.707764 0.257690 0.099731
0.718719 0.257629 0.099609
0.729614 0.257538 0.099518
0.740448 0.257416 0.099396
0.751373 0.257355 0.099304
0.762207 0.257294 0.099182
0.773071 0.257233 0.099091
0.783997 0.257172 0.098969
0.794952 0.257080 0.098877
0.805939 0.257019 0.098755
0.817108 0.256958 0.098694
0.828369 0.256866 0.098572
0.839874 0.256805 0.098511
0.851532 0.256714 0.098389
0.863434 0.256653 0.098297
0.875702 0.256592 0.098206
0.888306 0.256531 0.098145
0.901398 0.256439 0.098022
0.915039 0.256378 0.097931
0.929382 0.256287 0.097839
0.944702 0.256195 0.097748
0.961243 0.256165 0.097687
0.979431 0.256104 0.097565
1.000000 0.256012 0.097504
0.201752 0.274597 0.103638
0.211151 0.274567 0.103607
0.220551 0.274536 0.103577
0.230225 0.274506 0.103546
0.240417 0.274475 0.103485
0.251221 0.274445 0.103424
0.262848 0.274414 0.103424
0.275360 0.274353 0.103333
0.288788 0.274323 0.103302
0.302979 0.274261 0.103210
0.317596 0.274200 0.103119
0.332397 0.274139 0.103027
0.347260 0.274048 0.102936
0.362061 0.273987 0.102783
0.376892 0.273865 0.102692
0.391968 0.273804 0.102570
0.407104 0.273682 0.102448
0.422150 0.273590 0.102325
0.436981 0.273499 0.102203
0.451599 0.273376 0.102081
0.465912 0.273285 0.101929
0.479828 0.273193 0.101807
0.493469 0.273102 0.101685
0.506836 0.272980 0.101562
0.519928 0.272919 0.101440
0.532776 0.272797 0.101288
0.545410 0.272736 0.101196
0.557892 0.272614 0.101074
0.570160 0.272522 0.100922
0.582245 0.272461 0.100830
0.594208 0.272339 0.100677
0.606018 0.272278 0.100555
0.617706 0.272156 0.100433
0.629272 0.272095 0.100311
0.640717 0.271973 0.100189
0.652100 0.271881 0.100067
0.663361 0.271790 0.099976
0.674561 0.271698 0.099854
0.685669 0.271606 0.099762
0.696747 0.271515 0.099640
0.707733 0.271454 0.099518
0.718658 0.271362 0.099396
0.729614 0.271271 0.099304
0.740448 0.271210 0.099182
0.751343 0.271118 0.099091
0.762207 0.271057 0.098969
0.773071 0.270966 0.098877
0.783966 0.270905 0.098755
0.794922 0.270813 0.098663
0.805939 0.270752 0.098572
0.817108 0.270691 0.098480
0.828369 0.270630 0.098389
0.839844 0.270538 0.098297
0.851471 0.270447 0.098206
0.863434 0.270386 0.098114
0.875641 0.270294 0.098022
0.888306 0.270233 0.097931
0.901398 0.270172 0.097839
0.915039 0.270081 0.097717
0.929382 0.270020 0.097656
0.944702 0.269958 0.097565
0.961182 0.269897 0.097473
0.979431 0.269806 0.097382
1.000000 0.269745 0.097290
0.201752 0.288757 0.103455
0.211121 0.288727 0.103424
0.220551 0.288696 0.103394
0.230194 0.288696 0.103333
0.240387 0.288666 0.103333
0.251190 0.288605 0.103271
0.262817 0.288574 0.103210
0.275360 0.288513 0.103180
0.288757 0.288483 0.103088
0.302948 0.288391 0.102997
0.317566 0.288330 0.102905
0.332336 0.288269 0.102814
0.347229 0.288177 0.102722
0.362030 0.288086 0.102600
0.376892 0.287994 0.102509
0.391937 0.287903 0.102356
0.407074 0.287811 0.102234
0.422119 0.287720 0.102112
0.436951 0.287628 0.101990
0.451569 0.287506 0.101837
0.465881 0.287445 0.101746
0.479797 0.287323 0.101624
0.493469 0.287231 0.101501
0.506805 0.287140 0.101349
0.519897 0.287018 0.101227
0.532745 0.286957 0.101105
0.545410 0.286835 0.100983
0.557861 0.286743 0.100861
0.570099 0.286652 0.100739
0.582214 0.286560 0.100586
0.594177 0.286438 0.100433
0.606018 0.286377 0.100342
0.617676 0.286255 0.100220
0.629242 0.286163 0.100098
0.640686 0.286102 0.099976
0.652069 0.285980 0.099884
0.663330 0.285919 0.099792
0.674530 0.285828 0.099640
0.685638 0.285767 0.099548
0.696716 0.285645 0.099396
0.707703 0.285553 0.099304
0.718658 0.285492 0.099182
0.729584 0.285400 0.099091
0.740417 0.285339 0.098969
0.751343 0.285248 0.098877
0.762177 0.285156 0.098755
0.773041 0.285095 0.098663
0.783966 0.285004 0.098572
0.794922 0.284912 0.098480
0.805908 0.284851 0.098389
0.817078 0.284760 0.098297
0.828339 0.284698 0.098175
0.839844 0.284607 0.098083
0.851471 0.284546 0.097992
0.863403 0.284454 0.097900
0.875641 0.284393 0.097809
0.888245 0.284332 0.097717
0.901398 0.284271 0.097626
0.915039 0.284210 0.097534
0.929382 0.284119 0.097443
0.944702 0.284058 0.097351
0.961182 0.283997 0.097260
0.979431 0.283905 0.097168
1.000000 0.283844 0.097076
0.201721 0.303101 0.103271
0.211090 0.303070 0.103210
0.220520 0.303040 0.103180
0.230164 0.303009 0.103180
0.240356 0.302979 0.103119
0.251160 0.302948 0.103058
0.262787 0.302887 0.102997
0.275330 0.302856 0.102936
0.288727 0.302765 0.102875
0.302917 0.302734 0.102783
0.317535 0.302673 0.102692
0.332306 0.302582 0.102600
0.347198 0.302521 0.102509
0.361969 0.302399 0.102386
0.376862 0.302307 0.102264
0.391907 0.302216 0.102142
0.407043 0.302124 0.102020
0.422089 0.302032 0.101898
0.436920 0.301910 0.101746
0.451569 0.301819 0.101654
0.465851 0.301758 0.101501
0.479767 0.301666 0.101379
0.493408 0.301544 0.101288
0.506744 0.301483 0.101135
0.519867 0.301361 0.101013
0.532715 0.301270 0.100861
0.545380 0.301147 0.100769
0.557831 0.301086 0.100616
0.570068 0.300964 0.100494
0.582184 0.300873 0.100372
0.594177 0.300751 0.100220
0.605988 0.300659 0.100128
0.617645 0.300568 0.100006
0.629211 0.300446 0.099915
0.640656 0.300385 0.099792
0.652039 0.300262 0.099670
0.663300 0.300201 0.099548
0.674500 0.300110 0.099396
0.685638 0.300018 0.099304
0.696716 0.299927 0.099182
0.707703 0.299866 0.099091
0.718628 0.299774 0.098969
0.729584 0.299713 0.098877
0.740387 0.299622 0.098755
0.751312 0.299530 0.098633
0.762177 0.299438 0.098541
0.773041 0.299377 0.098450
0.783936 0.299286 0.098358
0.794891 0.299225 0.098267
