sepia.CUBE
#Created by: Adobe Photoshop Export Color Lookup Plugin
TITLE "Untitled Session02649.JPG"
#LUT size
LUT_3D_SIZE 4
#data domain
DOMAIN_MIN 0.0 0.0 0.0
DOMAIN_MAX 1.0 1.0 1.0
#LUT data points
0.201874 0.160034 0.104858
0.480011 0.159058 0.103119
0.729736 0.157715 0.100647
1.000000 0.156555 0.098633
0.201508 0.421539 0.101318
0.479462 0.420074 0.099365
0.729340 0.418243 0.096863
1.000000 0.416809 0.094940
0.200958 0.688629 0.096405
0.478760 0.687744 0.094574
0.728851 0.686584 0.092041
1.000000 0.685577 0.089996
0.200562 1.000000 0.092560
0.478180 1.000000 0.090576
0.728455 1.000000 0.088074
1.000000 1.000000 0.086212
0.201813 0.159698 0.349701
0.479889 0.158691 0.347321
0.729675 0.157318 0.344025
1.000000 0.156189 0.341278
0.201416 0.421051 0.344849
0.479370 0.419556 0.342255
0.729279 0.417725 0.338959
1.000000 0.416290 0.336365
0.200867 0.688324 0.338318
0.478638 0.687408 0.335846
0.728790 0.686188 0.332489
1.000000 0.685242 0.329742
0.200470 1.000000 0.333160
0.478058 1.000000 0.330536
0.728363 1.000000 0.327240
1.000000 1.000000 0.324860
0.201721 0.159210 0.644958
0.479797 0.158203 0.643433
0.729584 0.156769 0.641357
1.000000 0.155670 0.639709
0.201324 0.420319 0.641907
0.479248 0.418884 0.640320
0.729156 0.417084 0.638336
1.000000 0.415649 0.636749
0.200806 0.687927 0.637970
0.478516 0.686981 0.636414
0.728729 0.685760 0.634338
1.000000 0.684784 0.632690
0.200348 1.000000 0.634766
0.477936 1.000000 0.633179
0.728271 1.000000 0.631256
1.000000 1.000000 0.629944
0.201630 0.158844 1.000000
0.479675 0.157776 1.000000
0.729523 0.156403 1.000000
1.000000 0.155243 1.000000
0.201233 0.419769 1.000000
0.479126 0.418365 1.000000
0.729095 0.416565 1.000000
1.000000 0.415100 1.000000
0.200714 0.687561 1.000000
0.478424 0.686646 1.000000
0.728607 0.685425 1.000000
1.000000 0.684479 1.000000
0.200287 1.000000 1.000000
0.477783 1.000000 1.000000
0.728210 1.000000 1.000000
1.000000 1.000000 1.000000
