sepia.CUBE
#Created by: Adobe Photoshop Export Color Lookup Plugin
TITLE "Untitled Session02649.JPG"
#LUT size
LUT_3D_SIZE 8
#data domain
DOMAIN_MIN 0.0 0.0 0.0
DOMAIN_MAX 1.0 1.0 1.0
#LUT data points
0.201874 0.160034 0.104858
0.303162 0.159790 0.104431
0.437164 0.159271 0.103485
0.558044 0.158661 0.102386
0.663513 0.158081 0.101349
0.762360 0.157532 0.100342
0.863495 0.157013 0.099457
1.000000 0.156555 0.098633
0.201813 0.247375 0.104004
0.303009 0.247040 0.103546
0.437042 0.246338 0.102539
0.557922 0.245483 0.101440
0.663391 0.244720 0.100342
0.762238 0.243988 0.099365
0.863434 0.243378 0.098480
1.000000 0.242737 0.097687
0.201599 0.377686 0.102081
0.302765 0.377289 0.101593
0.436768 0.376495 0.100525
0.557678 0.375580 0.099396
0.663147 0.374786 0.098297
0.762085 0.374023 0.097290
0.863312 0.373383 0.096466
1.000000 0.372772 0.095642
0.201355 0.502960 0.099823
0.302429 0.502625 0.099304
0.436432 0.501923 0.098267
0.557343 0.501129 0.097076
0.662872 0.500427 0.096039
0.761871 0.499786 0.095123
0.863159 0.499237 0.094299
1.000000 0.498657 0.093475
0.201111 0.616028 0.097687
0.302124 0.615723 0.097168
0.436096 0.615173 0.096161
0.557007 0.614563 0.095062
0.662628 0.613983 0.094025
0.761658 0.613403 0.093048
0.863068 0.612915 0.092163
1.000000 0.612427 0.091339
0.200897 0.724823 0.095795
0.301819 0.724609 0.095306
0.435822 0.724182 0.094360
0.556793 0.723694 0.093170
0.662384 0.723236 0.092072
0.761505 0.722778 0.091125
0.862946 0.722412 0.090210
1.000000 0.722046 0.089386
0.200714 0.838867 0.094147
0.301605 0.838684 0.093689
0.435547 0.838409 0.092651
0.556549 0.838074 0.091461
0.662201 0.837769 0.090363
0.761322 0.837524 0.089355
0.862854 0.837280 0.088470
1.000000 0.837067 0.087708
0.200562 1.000000 0.092560
0.301331 1.000000 0.092041
0.435272 1.000000 0.091003
0.556335 1.000000 0.089783
0.661987 1.000000 0.088715
0.761169 1.000000 0.087799
0.862762 1.000000 0.086945
1.000000 1.000000 0.086212
0.201874 0.159943 0.175049
0.303131 0.159698 0.174469
0.437134 0.159210 0.173279
0.558014 0.158569 0.171783
0.663483 0.157990 0.170380
0.762329 0.157410 0.169067
0.863495 0.156891 0.167938
1.000000 0.156464 0.166809
0.201782 0.247253 0.173889
0.303009 0.246948 0.173309
0.437012 0.246185 0.171997
0.557892 0.245361 0.170532
0.663361 0.244568 0.169067
0.762207 0.243835 0.167786
0.863434 0.243195 0.166595
1.000000 0.242584 0.165527
0.201569 0.377533 0.171356
0.302734 0.377136 0.170715
0.436737 0.376404 0.169342
0.557648 0.375458 0.167786
0.663116 0.374664 0.166351
0.762054 0.373901 0.165070
0.863312 0.373260 0.163971
1.000000 0.372650 0.162933
0.201324 0.502838 0.168365
0.302399 0.502502 0.167694
0.436401 0.501801 0.166321
0.557312 0.501007 0.164795
0.662842 0.500305 0.163391
0.761841 0.499664 0.162201
0.863159 0.499115 0.161102
1.000000 0.498535 0.160034
0.201080 0.615936 0.165527
0.302094 0.615631 0.164886
0.436035 0.615082 0.163574
0.557007 0.614471 0.162140
0.662598 0.613861 0.160736
0.761658 0.613342 0.159485
0.863037 0.612854 0.158295
1.000000 0.612335 0.157196
0.200867 0.724762 0.163086
0.301788 0.724518 0.162476
0.435760 0.724121 0.161163
0.556763 0.723572 0.159637
0.662384 0.723114 0.158203
0.761444 0.722717 0.156891
0.862946 0.722290 0.155701
1.000000 0.721954 0.154633
0.200714 0.838776 0.160919
0.301575 0.838654 0.160248
0.435516 0.838348 0.158875
0.556519 0.838013 0.157318
0.662170 0.837738 0.155914
0.761322 0.837433 0.154602
0.862793 0.837219 0.153442
1.000000 0.837006 0.152405
0.200531 1.000000 0.158783
0.301331 1.000000 0.158112
0.435242 1.000000 0.156677
0.556274 1.000000 0.155182
0.661957 1.000000 0.153748
0.761169 1.000000 0.152496
0.862701 1.000000 0.151428
1.000000 1.000000 0.150452
0.201813 0.159760 0.303223
0.303070 0.159515 0.302612
0.437073 0.158997 0.301300
0.557953 0.158356 0.299774
0.663452 0.157745 0.298279
0.762268 0.157196 0.296936
0.863495 0.156708 0.295715
1.000000 0.156281 0.294586
0.201752 0.247009 0.302032
0.302979 0.246704 0.301392
0.436951 0.245911 0.300018
0.557861 0.245117 0.298401
0.663330 0.244293 0.296936
0.762177 0.243561 0.295593
0.863403 0.242920 0.294373
1.000000 0.242310 0.293243
0.201538 0.377258 0.299316
0.302673 0.376892 0.298645
0.436676 0.376068 0.297180
0.557587 0.375183 0.295593
0.663086 0.374329 0.294098
0.761993 0.373596 0.292786
0.863251 0.372955 0.291595
1.000000 0.372345 0.290558
0.201263 0.502594 0.296173
0.302338 0.502228 0.295471
0.436340 0.501526 0.294067
0.557251 0.500732 0.292480
0.662811 0.500061 0.291046
0.761810 0.499451 0.289795
0.863159 0.498840 0.288605
1.000000 0.498322 0.287476
0.201019 0.615692 0.293243
0.302032 0.615448 0.292572
0.436005 0.614868 0.291229
0.556976 0.614258 0.289703
0.662567 0.613647 0.288239
0.761627 0.613098 0.286896
0.863037 0.612610 0.285675
1.000000 0.612122 0.284515
0.200836 0.724579 0.290710
0.301758 0.724365 0.290070
0.435699 0.723969 0.288696
0.556702 0.723419 0.287079
0.662323 0.722961 0.285583
0.761444 0.722534 0.284210
0.862885 0.722137 0.282990
1.000000 0.721771 0.281860
0.200653 0.838684 0.288422
0.301514 0.838531 0.287750
0.435425 0.838287 0.286255
0.556458 0.837952 0.284637
0.662109 0.837616 0.283142
0.761292 0.837341 0.281799
0.862793 0.837097 0.280670
1.000000 0.836884 0.279541
0.200470 1.000000 0.286163
0.301270 1.000000 0.285492
0.435181 1.000000 0.284058
0.556244 1.000000 0.282410
0.661926 1.000000 0.280945
0.761139 1.000000 0.279663
0.862701 1.000000 0.278595
1.000000 1.000000 0.277588
0.201813 0.159546 0.438507
0.303009 0.159302 0.437958
0.437042 0.158752 0.436798
0.557922 0.158112 0.435394
0.663391 0.157532 0.434143
0.762238 0.156952 0.432922
0.863434 0.156494 0.431885
1.000000 0.156036 0.430908
0.201691 0.246735 0.437439
0.302887 0.246368 0.436859
0.436920 0.245605 0.435608
0.557800 0.244781 0.434235
0.663269 0.243958 0.432922
0.762146 0.243256 0.431763
0.863403 0.242584 0.430725
1.000000 0.242004 0.429718
0.201477 0.376923 0.435028
0.302612 0.376556 0.434418
0.436646 0.375732 0.433197
0.557495 0.374847 0.431763
0.663025 0.374023 0.430481
0.761963 0.373291 0.429321
0.863251 0.372650 0.428314
1.000000 0.372040 0.427429
0.201233 0.502289 0.432251
0.302277 0.501953 0.431641
0.436249 0.501221 0.430420
0.557190 0.500488 0.429077
0.662750 0.499786 0.427856
0.761780 0.499146 0.426697
0.863129 0.498566 0.425690
1.000000 0.498016 0.424683
0.200989 0.615479 0.429718
0.301971 0.615204 0.429169
0.435944 0.614655 0.428009
0.556885 0.614044 0.426605
0.662506 0.613403 0.425323
0.761597 0.612885 0.424164
0.862976 0.612335 0.423065
1.000000 0.611877 0.422089
0.200806 0.724396 0.427551
0.301697 0.724213 0.426971
0.435638 0.723755 0.425751
0.556610 0.723267 0.424316
0.662262 0.722778 0.423004
0.761383 0.722321 0.421814
0.862885 0.721954 0.420776
1.000000 0.721619 0.419769
0.200623 0.838562 0.425507
0.301453 0.838440 0.424896
0.435394 0.838165 0.423645
0.556396 0.837830 0.422241
0.662079 0.837524 0.420929
0.761230 0.837219 0.419739
0.862762 0.837006 0.418762
1.000000 0.836823 0.417816
0.200409 1.000000 0.423553
0.301208 1.000000 0.422943
0.435150 1.000000 0.421661
0.556183 1.000000 0.420288
0.661865 1.000000 0.419037
0.761078 1.000000 0.417908
0.862671 1.000000 0.416962
1.000000 1.000000 0.416168
0.201752 0.159363 0.563812
0.302979 0.159088 0.563385
0.436981 0.158539 0.562408
0.557892 0.157928 0.561249
0.663330 0.157288 0.560211
0.762207 0.156738 0.559235
0.863434 0.156281 0.558411
1.000000 0.155792 0.557617
0.201630 0.246460 0.562927
0.302826 0.246094 0.562469
0.436859 0.245331 0.561462
0.557739 0.244476 0.560303
0.663239 0.243683 0.559235
0.762115 0.242950 0.558289
0.863342 0.242310 0.557465
1.000000 0.241730 0.556671
0.201447 0.376648 0.560944
0.302551 0.376221 0.560455
0.436554 0.375427 0.559418
0.557465 0.374542 0.558289
0.662994 0.373718 0.557251
0.761932 0.373016 0.556366
0.863220 0.372375 0.555542
1.000000 0.371765 0.554779
0.201172 0.502014 0.558716
0.302216 0.501678 0.558197
0.436218 0.500977 0.557220
0.557129 0.500214 0.556122
0.662720 0.499542 0.555176
0.761719 0.498871 0.554230
0.863129 0.498322 0.553375
1.000000 0.497772 0.552551
0.200958 0.615265 0.556671
0.301910 0.614990 0.556213
0.435883 0.614441 0.555267
0.556824 0.613800 0.554169
0.662445 0.613220 0.553131
0.761536 0.612640 0.552155
0.862976 0.612122 0.551270
1.000000 0.611664 0.550476
0.200745 0.724243 0.554871
0.301666 0.724030 0.554413
0.435608 0.723572 0.553406
0.556580 0.723053 0.552277
0.662231 0.722595 0.551208
0.761353 0.722168 0.550262
0.862854 0.721771 0.549408
1.000000 0.721466 0.548645
0.200562 0.838440 0.553253
0.301392 0.838318 0.552765
0.435333 0.838013 0.551758
0.556366 0.837677 0.550598
0.662018 0.837402 0.549561
0.761200 0.837158 0.548615
0.862762 0.836884 0.547821
1.000000 0.836670 0.547089
0.200378 1.000000 0.551666
0.301147 1.000000 0.551147
0.435059 1.000000 0.550110
0.556091 1.000000 0.549042
0.661835 1.000000 0.548035
0.761047 1.000000 0.547150
0.862671 1.000000 0.546448
1.000000 1.000000 0.545807
0.201721 0.159180 0.685547
0.302948 0.158905 0.685211
0.436920 0.158325 0.684448
0.557831 0.157715 0.683594
0.663300 0.157104 0.682800
0.762177 0.156525 0.682068
0.863403 0.156067 0.681427
1.000000 0.155609 0.680817
0.201599 0.246185 0.684845
0.302765 0.245819 0.684479
0.436829 0.245087 0.683746
0.557678 0.244202 0.682861
0.663177 0.243408 0.682068
0.762085 0.242706 0.681366
0.863342 0.242065 0.680695
1.000000 0.241486 0.680145
0.201385 0.376373 0.683350
0.302521 0.375946 0.682983
0.436493 0.375153 0.682220
0.557434 0.374268 0.681366
0.662933 0.373444 0.680573
0.761902 0.372742 0.679901
0.863220 0.372101 0.679291
1.000000 0.371521 0.678711
0.201141 0.501770 0.681671
0.302155 0.501404 0.681305
0.436157 0.500732 0.680542
0.557068 0.499969 0.679749
0.662659 0.499298 0.678986
0.761688 0.498627 0.678284
0.863068 0.498077 0.677643
1.000000 0.497528 0.677032
0.200897 0.615082 0.680145
0.301849 0.614777 0.679779
0.435822 0.614258 0.679077
0.556793 0.613586 0.678223
0.662415 0.613007 0.677429
0.761505 0.612427 0.676727
0.862946 0.611938 0.676086
1.000000 0.611450 0.675476
0.200714 0.724091 0.678802
0.301575 0.723877 0.678436
0.435547 0.723419 0.677673
0.556549 0.722900 0.676819
0.662201 0.722443 0.676025
0.761322 0.722015 0.675293
0.862854 0.721649 0.674652
1.000000 0.721283 0.674072
0.200531 0.838348 0.677521
0.301331 0.838226 0.677155
0.435242 0.837891 0.676392
0.556305 0.837616 0.675537
0.661987 0.837311 0.674744
0.761169 0.837006 0.674042
0.862701 0.836823 0.673462
1.000000 0.836609 0.672943
0.200348 1.000000 0.676331
0.301086 1.000000 0.675964
0.435028 1.000000 0.675232
0.556061 1.000000 0.674347
0.661804 1.000000 0.673615
0.761017 1.000000 0.672974
0.862671 1.000000 0.672455
1.000000 1.000000 0.672028
0.201691 0.158997 0.813995
0.302887 0.158752 0.813751
0.436890 0.158173 0.813293
0.557770 0.157532 0.812744
0.663269 0.156891 0.812225
0.762146 0.156372 0.811737
0.863403 0.155853 0.811371
1.000000 0.155426 0.810974
0.201599 0.245941 0.813568
0.302765 0.245575 0.813324
0.436768 0.244843 0.812805
0.557648 0.243958 0.812256
0.663147 0.243164 0.811737
0.762054 0.242462 0.811340
0.863312 0.241852 0.810883
1.000000 0.241272 0.810547
0.201385 0.376099 0.812592
0.302460 0.375702 0.812347
0.436462 0.374939 0.811859
0.557373 0.374023 0.811340
0.662903 0.373230 0.810791
0.761871 0.372498 0.810394
0.863220 0.371857 0.809998
1.000000 0.371246 0.809631
0.201111 0.501556 0.811523
0.302124 0.501190 0.811279
0.436096 0.500519 0.810791
0.557037 0.499786 0.810303
0.662628 0.499084 0.809814
0.761658 0.498444 0.809326
0.863068 0.497864 0.808929
1.000000 0.497284 0.808563
0.200867 0.614899 0.810547
0.301788 0.614655 0.810333
0.435791 0.614075 0.809845
0.556763 0.613403 0.809326
0.662384 0.612823 0.808838
0.761505 0.612213 0.808350
0.862946 0.611725 0.807922
1.000000 0.611267 0.807526
0.200684 0.723969 0.809692
0.301544 0.723755 0.809448
0.435486 0.723297 0.808990
0.556488 0.722778 0.808441
0.662140 0.722290 0.807892
0.761322 0.721893 0.807465
0.862793 0.721527 0.807037
1.000000 0.721161 0.806702
0.200500 0.838287 0.808868
0.301300 0.838104 0.808624
0.435211 0.837830 0.808136
0.556244 0.837524 0.807587
0.661926 0.837219 0.807129
0.761139 0.836945 0.806702
0.862701 0.836731 0.806274
1.000000 0.836517 0.805969
0.200317 1.000000 0.808105
0.301056 1.000000 0.807892
0.434967 1.000000 0.807373
0.556000 1.000000 0.806885
0.661774 1.000000 0.806396
0.760986 1.000000 0.805969
0.862610 1.000000 0.805664
1.000000 1.000000 0.805420
0.201630 0.158844 1.000000
0.302826 0.158569 1.000000
0.436859 0.158020 1.000000
0.557739 0.157349 1.000000
0.663239 0.156738 1.000000
0.762115 0.156219 1.000000
0.863342 0.155701 1.000000
1.000000 0.155243 1.000000
0.201538 0.245728 1.000000
0.302734 0.245361 1.000000
0.436737 0.244629 1.000000
0.557617 0.243744 1.000000
0.663116 0.242950 1.000000
0.762054 0.242249 1.000000
0.863312 0.241638 1.000000
1.000000 0.241058 1.000000
0.201355 0.375854 1.000000
0.302399 0.375458 1.000000
0.436432 0.374695 1.000000
0.557312 0.373779 1.000000
0.662872 0.373016 1.000000
0.761841 0.372284 1.000000
0.863159 0.371643 1.000000
1.000000 0.371002 1.000000
0.201080 0.501343 1.000000
0.302063 0.501007 1.000000
0.436035 0.500305 1.000000
0.557007 0.499603 1.000000
0.662598 0.498871 1.000000
0.761627 0.498230 1.000000
0.863037 0.497650 1.000000
1.000000 0.497070 1.000000
0.200836 0.614716 1.000000
0.301758 0.614471 1.000000
0.435730 0.613892 1.000000
0.556702 0.613251 1.000000
0.662354 0.612640 1.000000
0.761444 0.612061 1.000000
0.862885 0.611572 1.000000
1.000000 0.611115 1.000000
0.200653 0.723816 1.000000
0.301514 0.723572 1.000000
0.435425 0.723175 1.000000
0.556458 0.722656 1.000000
0.662109 0.722168 1.000000
0.761292 0.721741 1.000000
0.862793 0.721405 1.000000
1.000000 0.721008 1.000000
0.200439 0.838196 1.000000
0.301239 0.838013 1.000000
0.435181 0.837738 1.000000
0.556213 0.837433 1.000000
0.661896 0.837158 1.000000
0.761078 0.836853 1.000000
0.862701 0.836639 1.000000
1.000000 0.836487 1.000000
0.200287 1.000000 1.000000
0.301025 1.000000 1.000000
0.434937 1.000000 1.000000
0.555969 1.000000 1.000000
0.661743 1.000000 1.000000
0.760956 1.000000 1.000000
0.862610 1.000000 1.000000
1.000000 1.000000 1.000000
