luts/black2.CUBE
#Created by: Adobe Photoshop Export Color Lookup Plugin
TITLE "RYI07722.jpg"
#LUT size
LUT_3D_SIZE 4
#data domain
DOMAIN_MIN 0.0 0.0 0.0
DOMAIN_MAX 1.0 1.0 1.0
#LUT data points
0.447815 0.447815 0.447815
0.216431 0.216431 0.216431
0.687805 0.687805 0.687805
0.552124 0.552124 0.552124
0.584290 0.584290 0.584290
0.242310 0.242310 0.242310
0.340363 0.340363 0.340363
0.656433 0.656433 0.656433
0.676819 0.676819 0.676819
0.909790 0.909790 0.909790
0.913696 0.913696 0.913696
0.913696 0.913696 0.913696
0.199188 0.199188 0.199188
0.403931 0.403931 0.403931
0.338806 0.338806 0.338806
0.470581 0.470581 0.470581
0.796814 0.796814 0.796814
0.220337 0.220337 0.220337
0.796021 0.796021 0.796021
0.452545 0.452545 0.452545
0.261932 0.261932 0.261932
0.306641 0.306641 0.306641
0.314484 0.314484 0.314484
0.560760 0.560760 0.560760
0.851746 0.851746 0.851746
0.807037 0.807037 0.807037
0.790558 0.790558 0.790558
0.770142 0.770142 0.770142
0.156860 0.156860 0.156860
0.102753 0.102753 0.102753
0.432159 0.432159 0.432159
0.466675 0.466675 0.466675
0.310577 0.310577 0.310577
0.752899 0.752899 0.752899
0.277588 0.277588 0.277588
0.438416 0.438416 0.438416
0.289368 0.289368 0.289368
0.304291 0.304291 0.304291
0.305847 0.305847 0.305847
0.347412 0.347412 0.347412
0.926270 0.926270 0.926270
0.916840 0.916840 0.916840
0.912903 0.912903 0.912903
0.919189 0.919189 0.919189
0.372528 0.372528 0.372528
0.201569 0.201569 0.201569
0.469025 0.469025 0.469025
0.205505 0.205505 0.205505
0.374115 0.374115 0.374115
0.464294 0.464294 0.464294
0.906647 0.906647 0.906647
0.328583 0.328583 0.328583
0.312134 0.312134 0.312134
0.298767 0.298767 0.298767
0.284668 0.284668 0.284668
0.529388 0.529388 0.529388
0.919189 0.919189 0.919189
0.908203 0.908203 0.908203
0.915283 0.915283 0.915283
0.930176 0.930176 0.930176
0.112152 0.112152 0.112152
0.422760 0.422760 0.422760
0.472931 0.472931 0.472931
0.179626 0.179626 0.179626
