luts/black.CUBE
#Created by: Adobe Photoshop Export Color Lookup Plugin
TITLE "RYI07722.jpg"
#LUT size
LUT_3D_SIZE 4
#data domain
DOMAIN_MIN 0.0 0.0 0.0
DOMAIN_MAX 1.0 1.0 1.0
#LUT data points
0.137268 0.137268 0.137268
0.190216 0.190216 0.190216
0.278320 0.278320 0.278320
0.395142 0.395142 0.395142
0.190216 0.190216 0.190216
0.229675 0.229675 0.229675
0.334137 0.334137 0.334137
0.459381 0.459381 0.459381
0.278320 0.278320 0.278320
0.334137 0.334137 0.334137
0.395142 0.395142 0.395142
0.524872 0.524872 0.524872
0.395142 0.395142 0.395142
0.459381 0.459381 0.459381
0.524872 0.524872 0.524872
0.589600 0.589600 0.589600
0.160828 0.160828 0.160828
0.278320 0.278320 0.278320
0.395142 0.395142 0.395142
0.524872 0.524872 0.524872
0.229675 0.229675 0.229675
0.334229 0.334229 0.334229
0.459473 0.459473 0.459473
0.589691 0.589691 0.589691
0.334137 0.334137 0.334137
0.459473 0.459473 0.459473
0.524963 0.524963 0.524963
0.651672 0.651672 0.651672
0.459381 0.459381 0.459381
0.589691 0.589691 0.589691
0.651672 0.651672 0.651672
0.708923 0.708923 0.708923
0.190216 0.190216 0.190216
0.334137 0.334137 0.334137
0.524872 0.524872 0.524872
0.651581 0.651581 0.651581
0.278320 0.278320 0.278320
0.395233 0.395233 0.395233
0.589661 0.589661 0.589661
0.708923 0.708923 0.708923
0.395142 0.395142 0.395142
0.524963 0.524963 0.524963
0.651703 0.651703 0.651703
0.759521 0.759521 0.759521
0.524872 0.524872 0.524872
0.651672 0.651672 0.651672
0.759521 0.759521 0.759521
0.801514 0.801514 0.801514
0.229675 0.229675 0.229675
0.395142 0.395142 0.395142
0.589600 0.589600 0.589600
0.759399 0.759399 0.759399
0.334137 0.334137 0.334137
0.459473 0.459473 0.459473
0.651672 0.651672 0.651672
0.801483 0.801483 0.801483
0.459381 0.459381 0.459381
0.589691 0.589691 0.589691
0.708984 0.708984 0.708984
0.835968 0.835968 0.835968
0.589600 0.589600 0.589600
0.708923 0.708923 0.708923
0.801514 0.801514 0.801514
0.866669 0.866669 0.866669
