luts/black.CUBE
#Created by: Adobe Photoshop Export Color Lookup Plugin
TITLE "RYI07722.jpg"
#LUT size
LUT_3D_SIZE 64
#data domain
DOMAIN_MIN 0.0 0.0 0.0
DOMAIN_MAX 1.0 1.0 1.0
#LUT data points
0.137268 0.137268 0.137268
0.139435 0.139435 0.139435
0.141571 0.141571 0.141571
0.143738 0.143738 0.143738
0.145935 0.145935 0.145935
0.148132 0.148132 0.148132
0.150360 0.150360 0.150360
0.152618 0.152618 0.152618
0.154907 0.154907 0.154907
0.157257 0.157257 0.157257
0.159637 0.159637 0.159637
0.162048 0.162048 0.162048
0.164551 0.164551 0.164551
0.167084 0.167084 0.167084
0.169708 0.169708 0.169708
0.172394 0.172394 0.172394
0.175140 0.175140 0.175140
0.177979 0.177979 0.177979
0.180878 0.180878 0.180878
0.183899 0.183899 0.183899
0.187012 0.187012 0.187012
0.190216 0.190216 0.190216
0.193512 0.193512 0.193512
0.196930 0.196930 0.196930
0.200439 0.200439 0.200439
0.204041 0.204041 0.204041
0.207733 0.207733 0.207733
0.211517 0.211517 0.211517
0.215393 0.215393 0.215393
0.219360 0.219360 0.219360
0.223419 0.223419 0.223419
0.227570 0.227570 0.227570
0.231812 0.231812 0.231812
0.236115 0.236115 0.236115
0.240509 0.240509 0.240509
0.244965 0.244965 0.244965
0.249512 0.249512 0.249512
0.254120 0.254120 0.254120
0.258820 0.258820 0.258820
0.263580 0.263580 0.263580
0.268433 0.268433 0.268433
0.273346 0.273346 0.273346
0.278320 0.278320 0.278320
0.283356 0.283356 0.283356
0.288452 0.288452 0.288452
0.293610 0.293610 0.293610
0.298828 0.298828 0.298828
0.304108 0.304108 0.304108
0.309448 0.309448 0.309448
0.314850 0.314850 0.314850
0.320282 0.320282 0.320282
0.325775 0.325775 0.325775
0.331329 0.331329 0.331329
0.336945 0.336945 0.336945
0.342560 0.342560 0.342560
0.348267 0.348267 0.348267
0.353973 0.353973 0.353973
0.359772 0.359772 0.359772
0.365570 0.365570 0.365570
0.371429 0.371429 0.371429
0.377289 0.377289 0.377289
0.383209 0.383209 0.383209
0.389160 0.389160 0.389160
0.395142 0.395142 0.395142
0.139435 0.139435 0.139435
0.140503 0.140503 0.140503
0.142670 0.142670 0.142670
0.144836 0.144836 0.144836
0.147034 0.147034 0.147034
0.149261 0.149261 0.149261
0.151489 0.151489 0.151489
0.153778 0.153778 0.153778
0.156067 0.156067 0.156067
0.158447 0.158447 0.158447
0.160828 0.160828 0.160828
0.163300 0.163300 0.163300
0.165802 0.165802 0.165802
0.168396 0.168396 0.168396
0.171021 0.171021 0.171021
0.173737 0.173737 0.173737
0.176544 0.176544 0.176544
0.179413 0.179413 0.179413
0.182373 0.182373 0.182373
0.185455 0.185455 0.185455
0.188599 0.188599 0.188599
0.191864 0.191864 0.191864
0.195221 0.195221 0.195221
0.198669 0.198669 0.198669
0.202240 0.202240 0.202240
0.205872 0.205872 0.205872
0.209625 0.209625 0.209625
0.213440 0.213440 0.213440
0.217377 0.217377 0.217377
0.221405 0.221405 0.221405
0.225494 0.225494 0.225494
0.229675 0.229675 0.229675
0.233948 0.233948 0.233948
0.238281 0.238281 0.238281
0.242706 0.242706 0.242706
0.247223 0.247223 0.247223
0.251801 0.251801 0.251801
0.256470 0.256470 0.256470
0.261200 0.261200 0.261200
0.265991 0.265991 0.265991
0.270874 0.270874 0.270874
0.275818 0.275818 0.275818
0.280823 0.280823 0.280823
0.285889 0.285889 0.285889
0.291016 0.291016 0.291016
0.296204 0.296204 0.296204
0.301453 0.301453 0.301453
0.306763 0.306763 0.306763
0.312134 0.312134 0.312134
0.317566 0.317566 0.317566
0.323029 0.323029 0.323029
0.328552 0.328552 0.328552
0.334137 0.334137 0.334137
0.339752 0.339752 0.339752
0.345398 0.345398 0.345398
0.351105 0.351105 0.351105
0.356873 0.356873 0.356873
0.362671 0.362671 0.362671
0.368500 0.368500 0.368500
0.374359 0.374359 0.374359
0.380249 0.380249 0.380249
0.386200 0.386200 0.386200
0.392151 0.392151 0.392151
0.398163 0.398163 0.398163
0.141571 0.141571 0.141571
0.142670 0.142670 0.142670
0.143738 0.143738 0.143738
0.145935 0.145935 0.145935
0.148132 0.148132 0.148132
0.150360 0.150360 0.150360
0.152618 0.152618 0.152618
0.154907 0.154907 0.154907
0.157257 0.157257 0.157257
0.159637 0.159637 0.159637
0.162048 0.162048 0.162048
0.164551 0.164551 0.164551
0.167084 0.167084 0.167084
0.169708 0.169708 0.169708
0.172394 0.172394 0.172394
0.175140 0.175140 0.175140
0.177979 0.177979 0.177979
0.180878 0.180878 0.180878
0.183899 0.183899 0.183899
0.187012 0.187012 0.187012
0.190216 0.190216 0.190216
0.193512 0.193512 0.193512
0.196930 0.196930 0.196930
0.200439 0.200439 0.200439
0.204041 0.204041 0.204041
0.207733 0.207733 0.207733
0.211517 0.211517 0.211517
0.215393 0.215393 0.215393
0.219360 0.219360 0.219360
0.223419 0.223419 0.223419
0.227570 0.227570 0.227570
0.231812 0.231812 0.231812
0.236115 0.236115 0.236115
0.240509 0.240509 0.240509
0.244965 0.244965 0.244965
0.249512 0.249512 0.249512
0.254120 0.254120 0.254120
0.258820 0.258820 0.258820
0.263580 0.263580 0.263580
0.268433 0.268433 0.268433
0.273346 0.273346 0.273346
0.278320 0.278320 0.278320
0.283356 0.283356 0.283356
0.288452 0.288452 0.288452
0.293610 0.293610 0.293610
0.298828 0.298828 0.298828
0.304108 0.304108 0.304108
0.309448 0.309448 0.309448
0.314850 0.314850 0.314850
0.320282 0.320282 0.320282
0.325775 0.325775 0.325775
0.331329 0.331329 0.331329
0.336945 0.336945 0.336945
0.342560 0.342560 0.342560
0.348267 0.348267 0.348267
0.353973 0.353973 0.353973
0.359772 0.359772 0.359772
0.365570 0.365570 0.365570
0.371429 0.371429 0.371429
0.377289 0.377289 0.377289
0.383209 0.383209 0.383209
0.389160 0.389160 0.389160
0.395142 0.395142 0.395142
0.401154 0.401154 0.401154
0.143738 0.143738 0.143738
0.144836 0.144836 0.144836
0.145935 0.145935 0.145935
0.147034 0.147034 0.147034
0.149261 0.149261 0.149261
0.151489 0.151489 0.151489
0.153778 0.153778 0.153778
0.156067 0.156067 0.156067
0.158447 0.158447 0.158447
0.160828 0.160828 0.160828
0.163300 0.163300 0.163300
0.165802 0.165802 0.165802
0.168396 0.168396 0.168396
0.171021 0.171021 0.171021
0.173737 0.173737 0.173737
0.176544 0.176544 0.176544
0.179413 0.179413 0.179413
0.182373 0.182373 0.182373
0.185455 0.185455 0.185455
0.188599 0.188599 0.188599
0.191864 0.191864 0.191864
0.195221 0.195221 0.195221
0.198669 0.198669 0.198669
0.202240 0.202240 0.202240
0.205872 0.205872 0.205872
0.209625 0.209625 0.209625
0.213440 0.213440 0.213440
0.217377 0.217377 0.217377
0.221405 0.221405 0.221405
0.225494 0.225494 0.225494
0.229675 0.229675 0.229675
0.233948 0.233948 0.233948
0.238281 0.238281 0.238281
0.242706 0.242706 0.242706
0.247223 0.247223 0.247223
0.251801 0.251801 0.251801
0.256470 0.256470 0.256470
0.261200 0.261200 0.261200
0.265991 0.265991 0.265991
0.270874 0.270874 0.270874
0.275818 0.275818 0.275818
0.280823 0.280823 0.280823
0.285889 0.285889 0.285889
0.291016 0.291016 0.291016
0.296204 0.296204 0.296204
0.301453 0.301453 0.301453
0.306763 0.306763 0.306763
0.312134 0.312134 0.312134
0.317566 0.317566 0.317566
0.323029 0.323029 0.323029
0.328552 0.328552 0.328552
0.334137 0.334137 0.334137
0.339752 0.339752 0.339752
0.345398 0.345398 0.345398
0.351105 0.351105 0.351105
0.356873 0.356873 0.356873
0.362671 0.362671 0.362671
0.368500 0.368500 0.368500
0.374359 0.374359 0.374359
0.380249 0.380249 0.380249
0.386200 0.386200 0.386200
0.392151 0.392151 0.392151
0.398163 0.398163 0.398163
0.404175 0.404175 0.404175
0.145935 0.145935 0.145935
0.147034 0.147034 0.147034
0.148132 0.148132 0.148132
0.149261 0.149261 0.149261
0.150360 0.150360 0.150360
0.152618 0.152618 0.152618
0.154907 0.154907 0.154907
0.157257 0.157257 0.157257
0.159637 0.159637 0.159637
0.162048 0.162048 0.162048
0.164551 0.164551 0.164551
0.167084 0.167084 0.167084
0.169708 0.169708 0.169708
0.172394 0.172394 0.172394
0.175140 0.175140 0.175140
0.177979 0.177979 0.177979
0.180878 0.180878 0.180878
0.183899 0.183899 0.183899
0.187012 0.187012 0.187012
0.190216 0.190216 0.190216
0.193512 0.193512 0.193512
0.196930 0.196930 0.196930
0.200439 0.200439 0.200439
0.204041 0.204041 0.204041
0.207733 0.207733 0.207733
0.211517 0.211517 0.211517
0.215393 0.215393 0.215393
0.219360 0.219360 0.219360
0.223419 0.223419 0.223419
0.227570 0.227570 0.227570
0.231812 0.231812 0.231812
0.236115 0.236115 0.236115
0.240509 0.240509 0.240509
0.244965 0.244965 0.244965
0.249512 0.249512 0.249512
0.254120 0.254120 0.254120
0.258820 0.258820 0.258820
0.263580 0.263580 0.263580
0.268433 0.268433 0.268433
0.273346 0.273346 0.273346
0.278320 0.278320 0.278320
0.283356 0.283356 0.283356
0.288452 0.288452 0.288452
0.293610 0.293610 0.293610
0.298828 0.298828 0.298828
0.304108 0.304108 0.304108
0.309448 0.309448 0.309448
0.314850 0.314850 0.314850
0.320282 0.320282 0.320282
0.325775 0.325775 0.325775
0.331329 0.331329 0.331329
0.336945 0.336945 0.336945
0.342560 0.342560 0.342560
0.348267 0.348267 0.348267
0.353973 0.353973 0.353973
0.359772 0.359772 0.359772
0.365570 0.365570 0.365570
0.371429 0.371429 0.371429
0.377289 0.377289 0.377289
0.383209 0.383209 0.383209
0.389160 0.389160 0.389160
0.395142 0.395142 0.395142
0.401154 0.401154 0.401154
0.407196 0.407196 0.407196
0.148132 0.148132 0.148132
0.149261 0.149261 0.149261
0.150360 0.150360 0.150360
0.151489 0.151489 0.151489
0.152618 0.152618 0.152618
0.153778 0.153778 0.153778
0.156067 0.156067 0.156067
0.158447 0.158447 0.158447
0.160828 0.160828 0.160828
0.163300 0.163300 0.163300
0.165802 0.165802 0.165802
0.168396 0.168396 0.168396
0.171021 0.171021 0.171021
0.173737 0.173737 0.173737
0.176544 0.176544 0.176544
0.179413 0.179413 0.179413
0.182373 0.182373 0.182373
0.185455 0.185455 0.185455
0.188599 0.188599 0.188599
0.191864 0.191864 0.191864
0.195221 0.195221 0.195221
0.198669 0.198669 0.198669
0.202240 0.202240 0.202240
0.205872 0.205872 0.205872
0.209625 0.209625 0.209625
0.213440 0.213440 0.213440
0.217377 0.217377 0.217377
0.221405 0.221405 0.221405
0.225494 0.225494 0.225494
0.229675 0.229675 0.229675
0.233948 0.233948 0.233948
0.238281 0.238281 0.238281
0.242706 0.242706 0.242706
0.247223 0.247223 0.247223
0.251801 0.251801 0.251801
0.256470 0.256470 0.256470
0.261200 0.261200 0.261200
0.265991 0.265991 0.265991
0.270874 0.270874 0.270874
0.275818 0.275818 0.275818
0.280823 0.280823 0.280823
0.285889 0.285889 0.285889
0.291016 0.291016 0.291016
0.296204 0.296204 0.296204
0.301453 0.301453 0.301453
0.306763 0.306763 0.306763
0.312134 0.312134 0.312134
0.317566 0.317566 0.317566
0.323029 0.323029 0.323029
0.328552 0.328552 0.328552
0.334137 0.334137 0.334137
0.339752 0.339752 0.339752
0.345398 0.345398 0.345398
0.351105 0.351105 0.351105
0.356873 0.356873 0.356873
0.362671 0.362671 0.362671
0.368500 0.368500 0.368500
0.374359 0.374359 0.374359
0.380249 0.380249 0.380249
0.386200 0.386200 0.386200
0.392151 0.392151 0.392151
0.398163 0.398163 0.398163
0.404175 0.404175 0.404175
0.410217 0.410217 0.410217
0.150360 0.150360 0.150360
0.151489 0.151489 0.151489
0.152618 0.152618 0.152618
0.153778 0.153778 0.153778
0.154907 0.154907 0.154907
0.156067 0.156067 0.156067
0.157257 0.157257 0.157257
0.159637 0.159637 0.159637
0.162048 0.162048 0.162048
0.164551 0.164551 0.164551
0.167084 0.167084 0.167084
0.169708 0.169708 0.169708
0.172394 0.172394 0.172394
0.175140 0.175140 0.175140
0.177979 0.177979 0.177979
0.180878 0.180878 0.180878
0.183899 0.183899 0.183899
0.187012 0.187012 0.187012
0.190216 0.190216 0.190216
0.193512 0.193512 0.193512
0.196930 0.196930 0.196930
0.200439 0.200439 0.200439
0.204041 0.204041 0.204041
0.207733 0.207733 0.207733
0.211517 0.211517 0.211517
0.215393 0.215393 0.215393
0.219360 0.219360 0.219360
0.223419 0.223419 0.223419
0.227570 0.227570 0.227570
0.231812 0.231812 0.231812
0.236115 0.236115 0.236115
0.240509 0.240509 0.240509
0.244965 0.244965 0.244965
0.249512 0.249512 0.249512
0.254120 0.254120 0.254120
0.258820 0.258820 0.258820
0.263580 0.263580 0.263580
0.268433 0.268433 0.268433
0.273346 0.273346 0.273346
0.278320 0.278320 0.278320
0.283356 0.283356 0.283356
0.288452 0.288452 0.288452
0.293610 0.293610 0.293610
0.298828 0.298828 0.298828
0.304108 0.304108 0.304108
0.309448 0.309448 0.309448
0.314850 0.314850 0.314850
0.320282 0.320282 0.320282
0.325775 0.325775 0.325775
0.331329 0.331329 0.331329
0.336945 0.336945 0.336945
0.342560 0.342560 0.342560
0.348267 0.348267 0.348267
0.353973 0.353973 0.353973
0.359772 0.359772 0.359772
0.365570 0.365570 0.365570
0.371429 0.371429 0.371429
0.377289 0.377289 0.377289
0.383209 0.383209 0.383209
0.389160 0.389160 0.389160
0.395142 0.395142 0.395142
0.401154 0.401154 0.401154
0.407196 0.407196 0.407196
0.413269 0.413269 0.413269
0.152618 0.152618 0.152618
0.153778 0.153778 0.153778
0.154907 0.154907 0.154907
0.156067 0.156067 0.156067
0.157257 0.157257 0.157257
0.158447 0.158447 0.158447
0.159637 0.159637 0.159637
0.160828 0.160828 0.160828
0.163300 0.163300 0.163300
0.165802 0.165802 0.165802
0.168396 0.168396 0.168396
0.171021 0.171021 0.171021
0.173737 0.173737 0.173737
0.176544 0.176544 0.176544
0.179413 0.179413 0.179413
0.182373 0.182373 0.182373
0.185455 0.185455 0.185455
0.188599 0.188599 0.188599
0.191864 0.191864 0.191864
0.195221 0.195221 0.195221
0.198669 0.198669 0.198669
0.202240 0.202240 0.202240
0.205872 0.205872 0.205872
0.209625 0.209625 0.209625
0.213440 0.213440 0.213440
0.217377 0.217377 0.217377
0.221405 0.221405 0.221405
0.225494 0.225494 0.225494
0.229675 0.229675 0.229675
0.233948 0.233948 0.233948
0.238281 0.238281 0.238281
0.242706 0.242706 0.242706
0.247223 0.247223 0.247223
0.251801 0.251801 0.251801
0.256470 0.256470 0.256470
0.261200 0.261200 0.261200
0.265991 0.265991 0.265991
0.270874 0.270874 0.270874
0.275818 0.275818 0.275818
0.280823 0.280823 0.280823
0.285889 0.285889 0.285889
0.291016 0.291016 0.291016
0.296204 0.296204 0.296204
0.301453 0.301453 0.301453
0.306763 0.306763 0.306763
0.312134 0.312134 0.312134
0.317566 0.317566 0.317566
0.323029 0.323029 0.323029
0.328552 0.328552 0.328552
0.334137 0.334137 0.334137
0.339752 0.339752 0.339752
0.345398 0.345398 0.345398
0.351105 0.351105 0.351105
0.356873 0.356873 0.356873
0.362671 0.362671 0.362671
0.368500 0.368500 0.368500
0.374359 0.374359 0.374359
0.380249 0.380249 0.380249
0.386200 0.386200 0.386200
0.392151 0.392151 0.392151
0.398163 0.398163 0.398163
0.404175 0.404175 0.404175
0.410217 0.410217 0.410217
0.416321 0.416321 0.416321
0.154907 0.154907 0.154907
0.156067 0.156067 0.156067
0.157257 0.157257 0.157257
0.158447 0.158447 0.158447
0.159637 0.159637 0.159637
0.160828 0.160828 0.160828
0.162048 0.162048 0.162048
0.163300 0.163300 0.163300
0.164551 0.164551 0.164551
0.167084 0.167084 0.167084
0.169708 0.169708 0.169708
0.172394 0.172394 0.172394
0.175140 0.175140 0.175140
0.177979 0.177979 0.177979
0.180878 0.180878 0.180878
0.183899 0.183899 0.183899
0.187012 0.187012 0.187012
0.190216 0.190216 0.190216
0.193512 0.193512 0.193512
0.196930 0.196930 0.196930
0.200439 0.200439 0.200439
0.204041 0.204041 0.204041
0.207733 0.207733 0.207733
0.211517 0.211517 0.211517
0.215393 0.215393 0.215393
0.219360 0.219360 0.219360
0.223419 0.223419 0.223419
0.227570 0.227570 0.227570
0.231812 0.231812 0.231812
0.236115 0.236115 0.236115
0.240509 0.240509 0.240509
0.244965 0.244965 0.244965
0.249512 0.249512 0.249512
0.254120 0.254120 0.254120
0.258820 0.258820 0.258820
0.263580 0.263580 0.263580
0.268433 0.268433 0.268433
0.273346 0.273346 0.273346
0.278320 0.278320 0.278320
0.283356 0.283356 0.283356
0.288452 0.288452 0.288452
0.293610 0.293610 0.293610
0.298828 0.298828 0.298828
0.304108 0.304108 0.304108
0.309448 0.309448 0.309448
0.314850 0.314850 0.314850
0.320282 0.320282 0.320282
0.325775 0.325775 0.325775
0.331329 0.331329 0.331329
0.336945 0.336945 0.336945
0.342560 0.342560 0.342560
0.348267 0.348267 0.348267
0.353973 0.353973 0.353973
0.359772 0.359772 0.359772
0.365570 0.365570 0.365570
0.371429 0.371429 0.371429
0.377289 0.377289 0.377289
0.383209 0.383209 0.383209
0.389160 0.389160 0.389160
0.395142 0.395142 0.395142
0.401154 0.401154 0.401154
0.407196 0.407196 0.407196
0.413269 0.413269 0.413269
0.419342 0.419342 0.419342
0.157257 0.157257 0.157257
0.158447 0.158447 0.158447
0.159637 0.159637 0.159637
0.160828 0.160828 0.160828
0.162048 0.162048 0.162048
0.163300 0.163300 0.163300
0.164551 0.164551 0.164551
0.165802 0.165802 0.165802
0.167084 0.167084 0.167084
0.168396 0.168396 0.168396
0.171021 0.171021 0.171021
0.173737 0.173737 0.173737
0.176544 0.176544 0.176544
0.179413 0.179413 0.179413
0.182373 0.182373 0.182373
0.185455 0.185455 0.185455
0.188599 0.188599 0.188599
0.191864 0.191864 0.191864
0.195221 0.195221 0.195221
0.198669 0.198669 0.198669
0.202240 0.202240 0.202240
0.205872 0.205872 0.205872
0.209625 0.209625 0.209625
0.213440 0.213440 0.213440
0.217377 0.217377 0.217377
0.221405 0.221405 0.221405
0.225494 0.225494 0.225494
0.229675 0.229675 0.229675
0.233948 0.233948 0.233948
0.238281 0.238281 0.238281
0.242706 0.242706 0.242706
0.247223 0.247223 0.247223
0.251801 0.251801 0.251801
0.256470 0.256470 0.256470
0.261200 0.261200 0.261200
0.265991 0.265991 0.265991
0.270874 0.270874 0.270874
0.275818 0.275818 0.275818
0.280823 0.280823 0.280823
0.285889 0.285889 0.285889
0.291016 0.291016 0.291016
0.296204 0.296204 0.296204
0.301453 0.301453 0.301453
0.306763 0.306763 0.306763
0.312134 0.312134 0.312134
0.317566 0.317566 0.317566
0.323029 0.323029 0.323029
0.328552 0.328552 0.328552
0.334137 0.334137 0.334137
0.339752 0.339752 0.339752
0.345398 0.345398 0.345398
0.351105 0.351105 0.351105
0.356873 0.356873 0.356873
0.362671 0.362671 0.362671
0.368500 0.368500 0.368500
0.374359 0.374359 0.374359
0.380249 0.380249 0.380249
0.386200 0.386200 0.386200
0.392151 0.392151 0.392151
0.398163 0.398163 0.398163
0.404175 0.404175 0.404175
0.410217 0.410217 0.410217
0.416321 0.416321 0.416321
0.422394 0.422394 0.422394
0.159637 0.159637 0.159637
0.160828 0.160828 0.160828
0.162048 0.162048 0.162048
0.163300 0.163300 0.163300
0.164551 0.164551 0.164551
0.165802 0.165802 0.165802
0.167084 0.167084 0.167084
0.168396 0.168396 0.168396
0.169708 0.169708 0.169708
0.171021 0.171021 0.171021
0.172394 0.172394 0.172394
0.175140 0.175140 0.175140
0.177979 0.177979 0.177979
0.180878 0.180878 0.180878
0.183899 0.183899 0.183899
0.187012 0.187012 0.187012
0.190216 0.190216 0.190216
0.193512 0.193512 0.193512
0.196930 0.196930 0.196930
0.200439 0.200439 0.200439
0.204041 0.204041 0.204041
0.207733 0.207733 0.207733
0.211517 0.211517 0.211517
0.215393 0.215393 0.215393
0.219360 0.219360 0.219360
0.223419 0.223419 0.223419
0.227570 0.227570 0.227570
0.231812 0.231812 0.231812
0.236115 0.236115 0.236115
0.240509 0.240509 0.240509
0.244965 0.244965 0.244965
0.249512 0.249512 0.249512
0.254120 0.254120 0.254120
0.258820 0.258820 0.258820
0.263580 0.263580 0.263580
0.268433 0.268433 0.268433
0.273346 0.273346 0.273346
0.278320 0.278320 0.278320
0.283356 0.283356 0.283356
0.288452 0.288452 0.288452
0.293610 0.293610 0.293610
0.298828 0.298828 0.298828
0.304108 0.304108 0.304108
0.309448 0.309448 0.309448
0.314850 0.314850 0.314850
0.320282 0.320282 0.320282
0.325775 0.325775 0.325775
0.331329 0.331329 0.331329
0.336945 0.336945 0.336945
0.342560 0.342560 0.342560
0.348267 0.348267 0.348267
0.353973 0.353973 0.353973
0.359772 0.359772 0.359772
0.365570 0.365570 0.365570
0.371429 0.371429 0.371429
0.377289 0.377289 0.377289
0.383209 0.383209 0.383209
0.389160 0.389160 0.389160
0.395142 0.395142 0.395142
0.401154 0.401154 0.401154
0.407196 0.407196 0.407196
0.413269 0.413269 0.413269
0.419342 0.419342 0.419342
0.425476 0.425476 0.425476
0.162048 0.162048 0.162048
0.163300 0.163300 0.163300
0.164551 0.164551 0.164551
0.165802 0.165802 0.165802
0.167084 0.167084 0.167084
0.168396 0.168396 0.168396
0.169708 0.169708 0.169708
0.171021 0.171021 0.171021
0.172394 0.172394 0.172394
0.173737 0.173737 0.173737
0.175140 0.175140 0.175140
0.176544 0.176544 0.176544
0.179413 0.179413 0.179413
0.182373 0.182373 0.182373
0.185455 0.185455 0.185455
0.188599 0.188599 0.188599
0.191864 0.191864 0.191864
0.195221 0.195221 0.195221
0.198669 0.198669 0.198669
0.202240 0.202240 0.202240
0.205872 0.205872 0.205872
0.209625 0.209625 0.209625
0.213440 0.213440 0.213440
0.217377 0.217377 0.217377
0.221405 0.221405 0.221405
0.225494 0.225494 0.225494
0.229675 0.229675 0.229675
0.233948 0.233948 0.233948
0.238281 0.238281 0.238281
0.242706 0.242706 0.242706
0.247223 0.247223 0.247223
0.251801 0.251801 0.251801
0.256470 0.256470 0.256470
0.261200 0.261200 0.261200
0.265991 0.265991 0.265991
0.270874 0.270874 0.270874
0.275818 0.275818 0.275818
0.280823 0.280823 0.280823
0.285889 0.285889 0.285889
0.291016 0.291016 0.291016
0.296204 0.296204 0.296204
0.301453 0.301453 0.301453
0.306763 0.306763 0.306763
0.312134 0.312134 0.312134
0.317566 0.317566 0.317566
0.323029 0.323029 0.323029
0.328552 0.328552 0.328552
0.334137 0.334137 0.334137
0.339752 0.339752 0.339752
0.345398 0.345398 0.345398
0.351105 0.351105 0.351105
0.356873 0.356873 0.356873
0.362671 0.362671 0.362671
0.368500 0.368500 0.368500
0.374359 0.374359 0.374359
0.380249 0.380249 0.380249
0.386200 0.386200 0.386200
0.392151 0.392151 0.392151
0.398163 0.398163 0.398163
0.404175 0.404175 0.404175
0.410217 0.410217 0.410217
0.416321 0.416321 0.416321
0.422394 0.422394 0.422394
0.428528 0.428528 0.428528
0.164551 0.164551 0.164551
0.165802 0.165802 0.165802
0.167084 0.167084 0.167084
0.168396 0.168396 0.168396
0.169708 0.169708 0.169708
0.171021 0.171021 0.171021
0.172394 0.172394 0.172394
0.173737 0.173737 0.173737
0.175140 0.175140 0.175140
0.176544 0.176544 0.176544
0.177979 0.177979 0.177979
0.179413 0.179413 0.179413
0.180878 0.180878 0.180878
0.183899 0.183899 0.183899
0.187012 0.187012 0.187012
0.190216 0.190216 0.190216
0.193512 0.193512 0.193512
0.196930 0.196930 0.196930
0.200439 0.200439 0.200439
0.204041 0.204041 0.204041
0.207733 0.207733 0.207733
0.211517 0.211517 0.211517
0.215393 0.215393 0.215393
0.219360 0.219360 0.219360
0.223419 0.223419 0.223419
0.227570 0.227570 0.227570
0.231812 0.231812 0.231812
0.236115 0.236115 0.236115
0.240509 0.240509 0.240509
0.244965 0.244965 0.244965
0.249512 0.249512 0.249512
0.254120 0.254120 0.254120
0.258820 0.258820 0.258820
0.263580 0.263580 0.263580
0.268433 0.268433 0.268433
0.273346 0.273346 0.273346
0.278320 0.278320 0.278320
0.283356 0.283356 0.283356
0.288452 0.288452 0.288452
0.293610 0.293610 0.293610
0.298828 0.298828 0.298828
0.304108 0.304108 0.304108
0.309448 0.309448 0.309448
0.314850 0.314850 0.314850
0.320282 0.320282 0.320282
0.325775 0.325775 0.325775
0.331329 0.331329 0.331329
0.336945 0.336945 0.336945
0.342560 0.342560 0.342560
0.348267 0.348267 0.348267
0.353973 0.353973 0.353973
0.359772 0.359772 0.359772
0.365570 0.365570 0.365570
0.371429 0.371429 0.371429
0.377289 0.377289 0.377289
0.383209 0.383209 0.383209
0.389160 0.389160 0.389160
0.395142 0.395142 0.395142
0.401154 0.401154 0.401154
0.407196 0.407196 0.407196
0.413269 0.413269 0.413269
0.419342 0.419342 0.419342
0.425476 0.425476 0.425476
0.431610 0.431610 0.431610
0.167084 0.167084 0.167084
0.168396 0.168396 0.168396
0.169708 0.169708 0.169708
0.171021 0.171021 0.171021
0.172394 0.172394 0.172394
0.173737 0.173737 0.173737
0.175140 0.175140 0.175140
0.176544 0.176544 0.176544
0.177979 0.177979 0.177979
0.179413 0.179413 0.179413
0.180878 0.180878 0.180878
0.182373 0.182373 0.182373
0.183899 0.183899 0.183899
0.185455 0.185455 0.185455
0.188599 0.188599 0.188599
0.191864 0.191864 0.191864
0.195221 0.195221 0.195221
0.198669 0.198669 0.198669
0.202240 0.202240 0.202240
0.205872 0.205872 0.205872
0.209625 0.209625 0.209625
0.213440 0.213440 0.213440
0.217377 0.217377 0.217377
0.221405 0.221405 0.221405
0.225494 0.225494 0.225494
0.229675 0.229675 0.229675
0.233948 0.233948 0.233948
0.238281 0.238281 0.238281
0.242706 0.242706 0.242706
0.247223 0.247223 0.247223
0.251801 0.251801 0.251801
0.256470 0.256470 0.256470
0.261200 0.261200 0.261200
0.265991 0.265991 0.265991
0.270874 0.270874 0.270874
0.275818 0.275818 0.275818
0.280823 0.280823 0.280823
0.285889 0.285889 0.285889
0.291016 0.291016 0.291016
0.296204 0.296204 0.296204
0.301453 0.301453 0.301453
0.306763 0.306763 0.306763
0.312134 0.312134 0.312134
0.317566 0.317566 0.317566
0.323029 0.323029 0.323029
0.328552 0.328552 0.328552
0.334137 0.334137 0.334137
0.339752 0.339752 0.339752
0.345398 0.345398 0.345398
0.351105 0.351105 0.351105
