luts/black.CUBE
#Created by: Adobe Photoshop Export Color Lookup Plugin
TITLE "RYI07722.jpg"
#LUT size
LUT_3D_SIZE 8
#data domain
DOMAIN_MIN 0.0 0.0 0.0
DOMAIN_MAX 1.0 1.0 1.0
#LUT data points
0.137268 0.137268 0.137268
0.157257 0.157257 0.157257
0.180878 0.180878 0.180878
0.211517 0.211517 0.211517
0.249512 0.249512 0.249512
0.293610 0.293610 0.293610
0.342560 0.342560 0.342560
0.395142 0.395142 0.395142
0.157257 0.157257 0.157257
0.168396 0.168396 0.168396
0.195221 0.195221 0.195221
0.229675 0.229675 0.229675
0.270874 0.270874 0.270874
0.317566 0.317566 0.317566
0.368500 0.368500 0.368500
0.422394 0.422394 0.422394
0.180878 0.180878 0.180878
0.195221 0.195221 0.195221
0.211517 0.211517 0.211517
0.249512 0.249512 0.249512
0.293610 0.293610 0.293610
0.342560 0.342560 0.342560
0.395142 0.395142 0.395142
0.450104 0.450104 0.450104
0.211517 0.211517 0.211517
0.229675 0.229675 0.229675
0.249512 0.249512 0.249512
0.270874 0.270874 0.270874
0.317566 0.317566 0.317566
0.368500 0.368500 0.368500
0.422394 0.422394 0.422394
0.478058 0.478058 0.478058
0.249512 0.249512 0.249512
0.270874 0.270874 0.270874
0.293610 0.293610 0.293610
0.317566 0.317566 0.317566
0.342560 0.342560 0.342560
0.395142 0.395142 0.395142
0.450104 0.450104 0.450104
0.506165 0.506165 0.506165
0.293610 0.293610 0.293610
0.317566 0.317566 0.317566
0.342560 0.342560 0.342560
0.368500 0.368500 0.368500
0.395142 0.395142 0.395142
0.422394 0.422394 0.422394
0.478058 0.478058 0.478058
0.534210 0.534210 0.534210
0.342560 0.342560 0.342560
0.368500 0.368500 0.368500
0.395142 0.395142 0.395142
0.422394 0.422394 0.422394
0.450104 0.450104 0.450104
0.478058 0.478058 0.478058
0.506165 0.506165 0.506165
0.562073 0.562073 0.562073
0.395142 0.395142 0.395142
0.422394 0.422394 0.422394
0.450104 0.450104 0.450104
0.478058 0.478058 0.478058
0.506165 0.506165 0.506165
0.534210 0.534210 0.534210
0.562073 0.562073 0.562073
0.589600 0.589600 0.589600
0.147034 0.147034 0.147034
0.180878 0.180878 0.180878
0.211517 0.211517 0.211517
0.249512 0.249512 0.249512
0.293610 0.293610 0.293610
0.342560 0.342560 0.342560
0.395142 0.395142 0.395142
0.450104 0.450104 0.450104
0.168396 0.168396 0.168396
0.195251 0.195251 0.195251
0.229706 0.229706 0.229706
0.270905 0.270905 0.270905
0.317596 0.317596 0.317596
0.368530 0.368530 0.368530
0.422424 0.422424 0.422424
0.478088 0.478088 0.478088
0.195221 0.195221 0.195221
0.229706 0.229706 0.229706
0.249542 0.249542 0.249542
0.293640 0.293640 0.293640
0.342590 0.342590 0.342590
0.395172 0.395172 0.395172
0.450134 0.450134 0.450134
0.506195 0.506195 0.506195
0.229675 0.229675 0.229675
0.270905 0.270905 0.270905
0.293640 0.293640 0.293640
0.317596 0.317596 0.317596
0.368530 0.368530 0.368530
0.422424 0.422424 0.422424
0.478088 0.478088 0.478088
0.534241 0.534241 0.534241
0.270874 0.270874 0.270874
0.317596 0.317596 0.317596
0.342590 0.342590 0.342590
0.368530 0.368530 0.368530
0.395172 0.395172 0.395172
0.450134 0.450134 0.450134
0.506195 0.506195 0.506195
0.562103 0.562103 0.562103
0.317566 0.317566 0.317566
0.368530 0.368530 0.368530
0.395172 0.395172 0.395172
0.422424 0.422424 0.422424
0.450134 0.450134 0.450134
0.478088 0.478088 0.478088
0.534241 0.534241 0.534241
0.589630 0.589630 0.589630
0.368500 0.368500 0.368500
0.422424 0.422424 0.422424
0.450134 0.450134 0.450134
0.478088 0.478088 0.478088
0.506195 0.506195 0.506195
0.534241 0.534241 0.534241
0.562103 0.562103 0.562103
0.616638 0.616638 0.616638
0.422394 0.422394 0.422394
0.478088 0.478088 0.478088
0.506195 0.506195 0.506195
0.534241 0.534241 0.534241
0.562103 0.562103 0.562103
0.589630 0.589630 0.589630
0.616638 0.616638 0.616638
0.643005 0.643005 0.643005
0.157257 0.157257 0.157257
0.195221 0.195221 0.195221
0.249512 0.249512 0.249512
0.293610 0.293610 0.293610
0.342560 0.342560 0.342560
0.395142 0.395142 0.395142
0.450104 0.450104 0.450104
0.506165 0.506165 0.506165
0.180878 0.180878 0.180878
0.211548 0.211548 0.211548
0.270905 0.270905 0.270905
0.317596 0.317596 0.317596
0.368530 0.368530 0.368530
0.422424 0.422424 0.422424
0.478088 0.478088 0.478088
0.534241 0.534241 0.534241
0.211517 0.211517 0.211517
0.249542 0.249542 0.249542
0.293671 0.293671 0.293671
0.342621 0.342621 0.342621
0.395203 0.395203 0.395203
0.450165 0.450165 0.450165
0.506226 0.506226 0.506226
0.562134 0.562134 0.562134
0.249512 0.249512 0.249512
0.293640 0.293640 0.293640
0.342621 0.342621 0.342621
0.368561 0.368561 0.368561
0.422455 0.422455 0.422455
0.478119 0.478119 0.478119
0.534271 0.534271 0.534271
0.589661 0.589661 0.589661
0.293610 0.293610 0.293610
0.342590 0.342590 0.342590
0.395203 0.395203 0.395203
0.422455 0.422455 0.422455
0.450165 0.450165 0.450165
0.506226 0.506226 0.506226
0.562134 0.562134 0.562134
0.616669 0.616669 0.616669
0.342560 0.342560 0.342560
0.395172 0.395172 0.395172
0.450165 0.450165 0.450165
0.478119 0.478119 0.478119
0.506226 0.506226 0.506226
0.534271 0.534271 0.534271
0.589661 0.589661 0.589661
0.643036 0.643036 0.643036
0.395142 0.395142 0.395142
0.450134 0.450134 0.450134
0.506226 0.506226 0.506226
0.534271 0.534271 0.534271
0.562134 0.562134 0.562134
0.589661 0.589661 0.589661
0.616669 0.616669 0.616669
0.668579 0.668579 0.668579
0.450104 0.450104 0.450104
0.506195 0.506195 0.506195
0.562134 0.562134 0.562134
0.589661 0.589661 0.589661
0.616669 0.616669 0.616669
0.643036 0.643036 0.643036
0.668579 0.668579 0.668579
0.693146 0.693146 0.693146
0.168396 0.168396 0.168396
0.211517 0.211517 0.211517
0.270874 0.270874 0.270874
0.342560 0.342560 0.342560
0.395142 0.395142 0.395142
0.450104 0.450104 0.450104
0.506165 0.506165 0.506165
0.562073 0.562073 0.562073
0.195221 0.195221 0.195221
0.229706 0.229706 0.229706
0.293640 0.293640 0.293640
0.368530 0.368530 0.368530
0.422424 0.422424 0.422424
0.478088 0.478088 0.478088
0.534241 0.534241 0.534241
0.589630 0.589630 0.589630
0.229675 0.229675 0.229675
0.270905 0.270905 0.270905
0.317627 0.317627 0.317627
0.395203 0.395203 0.395203
0.450165 0.450165 0.450165
0.506226 0.506226 0.506226
0.562134 0.562134 0.562134
0.616669 0.616669 0.616669
0.270874 0.270874 0.270874
0.317596 0.317596 0.317596
0.368561 0.368561 0.368561
0.422485 0.422485 0.422485
0.478149 0.478149 0.478149
0.534302 0.534302 0.534302
0.589691 0.589691 0.589691
0.643066 0.643066 0.643066
0.317566 0.317566 0.317566
0.368530 0.368530 0.368530
0.422455 0.422455 0.422455
0.478149 0.478149 0.478149
0.506287 0.506287 0.506287
0.562164 0.562164 0.562164
0.616699 0.616699 0.616699
0.668610 0.668610 0.668610
0.368500 0.368500 0.368500
0.422424 0.422424 0.422424
0.478119 0.478119 0.478119
0.534302 0.534302 0.534302
0.562164 0.562164 0.562164
0.589691 0.589691 0.589691
0.643066 0.643066 0.643066
0.693176 0.693176 0.693176
0.422394 0.422394 0.422394
0.478088 0.478088 0.478088
0.534271 0.534271 0.534271
0.589691 0.589691 0.589691
0.616699 0.616699 0.616699
0.643066 0.643066 0.643066
0.668610 0.668610 0.668610
0.716614 0.716614 0.716614
0.478058 0.478058 0.478058
0.534241 0.534241 0.534241
0.589661 0.589661 0.589661
0.643066 0.643066 0.643066
0.668610 0.668610 0.668610
0.693176 0.693176 0.693176
0.716614 0.716614 0.716614
0.738739 0.738739 0.738739
0.180878 0.180878 0.180878
0.229675 0.229675 0.229675
0.293610 0.293610 0.293610
0.368500 0.368500 0.368500
0.450104 0.450104 0.450104
0.506165 0.506165 0.506165
0.562073 0.562073 0.562073
0.616608 0.616608 0.616608
0.211517 0.211517 0.211517
0.249542 0.249542 0.249542
0.317596 0.317596 0.317596
0.395172 0.395172 0.395172
0.478088 0.478088 0.478088
0.534241 0.534241 0.534241
0.589630 0.589630 0.589630
0.643005 0.643005 0.643005
0.249512 0.249512 0.249512
0.293640 0.293640 0.293640
0.342621 0.342621 0.342621
0.422455 0.422455 0.422455
0.506256 0.506256 0.506256
0.562164 0.562164 0.562164
0.616669 0.616669 0.616669
0.668579 0.668579 0.668579
0.293610 0.293610 0.293610
0.342590 0.342590 0.342590
0.395203 0.395203 0.395203
0.450195 0.450195 0.450195
0.534332 0.534332 0.534332
0.589722 0.589722 0.589722
0.643097 0.643097 0.643097
0.693207 0.693207 0.693207
0.342560 0.342560 0.342560
0.395172 0.395172 0.395172
0.450165 0.450165 0.450165
0.506287 0.506287 0.506287
0.562225 0.562225 0.562225
0.616760 0.616760 0.616760
0.668640 0.668640 0.668640
0.716644 0.716644 0.716644
0.395142 0.395142 0.395142
0.450134 0.450134 0.450134
0.506226 0.506226 0.506226
0.562164 0.562164 0.562164
0.616760 0.616760 0.616760
0.643097 0.643097 0.643097
0.693207 0.693207 0.693207
0.738800 0.738800 0.738800
0.450104 0.450104 0.450104
0.506195 0.506195 0.506195
0.562134 0.562134 0.562134
0.616699 0.616699 0.616699
0.668640 0.668640 0.668640
0.693207 0.693207 0.693207
0.716644 0.716644 0.716644
0.759521 0.759521 0.759521
0.506165 0.506165 0.506165
0.562103 0.562103 0.562103
0.616669 0.616669 0.616669
0.668610 0.668610 0.668610
0.716644 0.716644 0.716644
0.738800 0.738800 0.738800
0.759521 0.759521 0.759521
0.778625 0.778625 0.778625
0.195221 0.195221 0.195221
0.249512 0.249512 0.249512
0.317566 0.317566 0.317566
0.395142 0.395142 0.395142
0.478058 0.478058 0.478058
0.562073 0.562073 0.562073
0.616608 0.616608 0.616608
0.668518 0.668518 0.668518
0.229675 0.229675 0.229675
0.270905 0.270905 0.270905
0.342590 0.342590 0.342590
0.422424 0.422424 0.422424
0.506195 0.506195 0.506195
0.589630 0.589630 0.589630
0.643005 0.643005 0.643005
0.693115 0.693115 0.693115
0.270874 0.270874 0.270874
0.317596 0.317596 0.317596
0.368561 0.368561 0.368561
0.450165 0.450165 0.450165
0.534302 0.534302 0.534302
0.616669 0.616669 0.616669
0.668579 0.668579 0.668579
0.716583 0.716583 0.716583
0.317566 0.317566 0.317566
0.368530 0.368530 0.368530
0.422455 0.422455 0.422455
0.478149 0.478149 0.478149
0.562195 0.562195 0.562195
0.643097 0.643097 0.643097
0.693207 0.693207 0.693207
0.738739 0.738739 0.738739
0.368500 0.368500 0.368500
0.422424 0.422424 0.422424
0.478119 0.478119 0.478119
0.534302 0.534302 0.534302
0.589752 0.589752 0.589752
0.668640 0.668640 0.668640
0.716644 0.716644 0.716644
0.759521 0.759521 0.759521
0.422394 0.422394 0.422394
0.478088 0.478088 0.478088
0.534271 0.534271 0.534271
0.589691 0.589691 0.589691
0.643097 0.643097 0.643097
0.693237 0.693237 0.693237
0.738831 0.738831 0.738831
0.778656 0.778656 0.778656
0.478058 0.478058 0.478058
0.534241 0.534241 0.534241
0.589661 0.589661 0.589661
0.643066 0.643066 0.643066
0.693207 0.693207 0.693207
0.738831 0.738831 0.738831
0.759552 0.759552 0.759552
0.796051 0.796051 0.796051
0.534210 0.534210 0.534210
0.589630 0.589630 0.589630
0.643036 0.643036 0.643036
0.693176 0.693176 0.693176
0.738800 0.738800 0.738800
0.778656 0.778656 0.778656
0.796051 0.796051 0.796051
0.811981 0.811981 0.811981
0.211517 0.211517 0.211517
0.270874 0.270874 0.270874
0.342560 0.342560 0.342560
0.422394 0.422394 0.422394
0.506165 0.506165 0.506165
0.589600 0.589600 0.589600
0.668518 0.668518 0.668518
0.716522 0.716522 0.716522
0.249512 0.249512 0.249512
0.293640 0.293640 0.293640
0.368530 0.368530 0.368530
0.450134 0.450134 0.450134
0.534241 0.534241 0.534241
0.616638 0.616638 0.616638
0.693115 0.693115 0.693115
0.738708 0.738708 0.738708
0.293610 0.293610 0.293610
0.342590 0.342590 0.342590
0.395203 0.395203 0.395203
0.478119 0.478119 0.478119
0.562164 0.562164 0.562164
0.643036 0.643036 0.643036
0.716583 0.716583 0.716583
0.759460 0.759460 0.759460
0.342560 0.342560 0.342560
0.395172 0.395172 0.395172
0.450165 0.450165 0.450165
0.506256 0.506256 0.506256
0.589722 0.589722 0.589722
0.668640 0.668640 0.668640
0.738739 0.738739 0.738739
0.778595 0.778595 0.778595
0.395142 0.395142 0.395142
0.450134 0.450134 0.450134
0.506226 0.506226 0.506226
0.562164 0.562164 0.562164
0.616760 0.616760 0.616760
0.693207 0.693207 0.693207
0.759521 0.759521 0.759521
0.796051 0.796051 0.796051
0.450104 0.450104 0.450104
0.506195 0.506195 0.506195
0.562134 0.562134 0.562134
0.616699 0.616699 0.616699
0.668640 0.668640 0.668640
0.716675 0.716675 0.716675
0.778656 0.778656 0.778656
0.811981 0.811981 0.811981
0.506165 0.506165 0.506165
0.562103 0.562103 0.562103
0.616669 0.616669 0.616669
0.668610 0.668610 0.668610
0.716644 0.716644 0.716644
0.759552 0.759552 0.759552
0.796082 0.796082 0.796082
0.826721 0.826721 0.826721
0.562073 0.562073 0.562073
0.616638 0.616638 0.616638
0.668579 0.668579 0.668579
0.716614 0.716614 0.716614
0.759521 0.759521 0.759521
0.796051 0.796051 0.796051
0.826721 0.826721 0.826721
0.840546 0.840546 0.840546
0.229675 0.229675 0.229675
0.293610 0.293610 0.293610
0.368500 0.368500 0.368500
0.450104 0.450104 0.450104
0.534210 0.534210 0.534210
0.616608 0.616608 0.616608
0.693085 0.693085 0.693085
0.759399 0.759399 0.759399
0.270874 0.270874 0.270874
0.317596 0.317596 0.317596
0.395172 0.395172 0.395172
0.478088 0.478088 0.478088
0.562103 0.562103 0.562103
0.643005 0.643005 0.643005
0.716553 0.716553 0.716553
0.778564 0.778564 0.778564
0.317566 0.317566 0.317566
0.368530 0.368530 0.368530
0.422455 0.422455 0.422455
0.506226 0.506226 0.506226
0.589661 0.589661 0.589661
0.668579 0.668579 0.668579
0.738739 0.738739 0.738739
0.795990 0.795990 0.795990
0.368500 0.368500 0.368500
0.422424 0.422424 0.422424
0.478119 0.478119 0.478119
0.534302 0.534302 0.534302
0.616730 0.616730 0.616730
0.693207 0.693207 0.693207
0.759460 0.759460 0.759460
0.811951 0.811951 0.811951
0.422394 0.422394 0.422394
0.478088 0.478088 0.478088
0.534271 0.534271 0.534271
0.589691 0.589691 0.589691
0.643097 0.643097 0.643097
0.716644 0.716644 0.716644
0.778625 0.778625 0.778625
0.826691 0.826691 0.826691
0.478058 0.478058 0.478058
0.534241 0.534241 0.534241
0.589661 0.589661 0.589661
0.643066 0.643066 0.643066
0.693207 0.693207 0.693207
0.738831 0.738831 0.738831
0.796051 0.796051 0.796051
0.840515 0.840515 0.840515
0.534210 0.534210 0.534210
0.589630 0.589630 0.589630
0.643036 0.643036 0.643036
0.693176 0.693176 0.693176
0.738800 0.738800 0.738800
0.778656 0.778656 0.778656
0.812012 0.812012 0.812012
0.853760 0.853760 0.853760
0.589600 0.589600 0.589600
0.643005 0.643005 0.643005
0.693146 0.693146 0.693146
0.738739 0.738739 0.738739
0.778625 0.778625 0.778625
0.811981 0.811981 0.811981
0.840546 0.840546 0.840546
0.866669 0.866669 0.866669
