luts/black2.CUBE
#Created by: Adobe Photoshop Export Color Lookup Plugin
TITLE "RYI07722.jpg"
#LUT size
LUT_3D_SIZE 8
#data domain
DOMAIN_MIN 0.0 0.0 0.0
DOMAIN_MAX 1.0 1.0 1.0
#LUT data points
0.447815 0.447815 0.447815
0.530945 0.530945 0.530945
0.246216 0.246216 0.246216
0.196014 0.196014 0.196014
0.639160 0.639160 0.639160
0.458801 0.458801 0.458801
0.523895 0.523895 0.523895
0.552124 0.552124 0.552124
0.341919 0.341919 0.341919
0.341919 0.341919 0.341919
0.344269 0.344269 0.344269
0.330139 0.330139 0.330139
0.396820 0.396820 0.396820
0.582703 0.582703 0.582703
0.683105 0.683105 0.683105
0.710571 0.710571 0.710571
0.549774 0.549774 0.549774
0.581146 0.581146 0.581146
0.593689 0.593689 0.593689
0.490173 0.490173 0.490173
0.371704 0.371704 0.371704
0.392914 0.392914 0.392914
0.416443 0.416443 0.416443
0.407013 0.407013 0.407013
0.477631 0.477631 0.477631
0.387451 0.387451 0.387451
0.214905 0.214905 0.214905
0.226654 0.226654 0.226654
0.362335 0.362335 0.362335
0.712128 0.712128 0.712128
0.697998 0.697998 0.697998
0.217255 0.217255 0.217255
0.160797 0.160797 0.160797
0.152161 0.152161 0.152161
0.192932 0.192932 0.192932
0.207062 0.207062 0.207062
0.203125 0.203125 0.203125
0.187439 0.187439 0.187439
0.199982 0.199982 0.199982
0.202332 0.202332 0.202332
0.894867 0.894867 0.894867
0.890961 0.890961 0.890961
0.898804 0.898804 0.898804
0.909790 0.909790 0.909790
0.923096 0.923096 0.923096
0.924683 0.924683 0.924683
0.916046 0.916046 0.916046
0.879181 0.879181 0.879181
0.733337 0.733337 0.733337
0.732544 0.732544 0.732544
0.732544 0.732544 0.732544
0.727051 0.727051 0.727051
0.732544 0.732544 0.732544
0.738037 0.738037 0.738037
0.734894 0.734894 0.734894
0.734894 0.734894 0.734894
0.199188 0.199188 0.199188
0.290192 0.290192 0.290192
0.367828 0.367828 0.367828
0.327057 0.327057 0.327057
0.125488 0.125488 0.125488
0.392151 0.392151 0.392151
0.455688 0.455688 0.455688
0.470581 0.470581 0.470581
0.861145 0.861145 0.861145
0.534882 0.534882 0.534882
0.231323 0.231323 0.231323
0.192108 0.192108 0.192108
0.178009 0.178009 0.178009
0.634460 0.634460 0.634460
0.628998 0.628998 0.628998
0.498810 0.498810 0.498810
0.342682 0.342682 0.342682
0.355255 0.355255 0.355255
0.344269 0.344269 0.344269
0.394470 0.394470 0.394470
0.567810 0.567810 0.567810
0.654083 0.654083 0.654083
0.690948 0.690948 0.690948
0.716034 0.716034 0.716034
0.560760 0.560760 0.560760
0.588196 0.588196 0.588196
0.599182 0.599182 0.599182
0.467438 0.467438 0.467438
0.356842 0.356842 0.356842
0.399963 0.399963 0.399963
0.412506 0.412506 0.412506
0.401520 0.401520 0.401520
0.398407 0.398407 0.398407
0.287048 0.287048 0.287048
0.196869 0.196869 0.196869
0.338013 0.338013 0.338013
0.580353 0.580353 0.580353
0.763092 0.763092 0.763092
0.395264 0.395264 0.395264
0.184326 0.184326 0.184326
0.162354 0.162354 0.162354
0.173340 0.173340 0.173340
0.206268 0.206268 0.206268
0.206268 0.206268 0.206268
0.202332 0.202332 0.202332
0.198425 0.198425 0.198425
0.190582 0.190582 0.190582
0.199188 0.199188 0.199188
0.892517 0.892517 0.892517
0.889374 0.889374 0.889374
0.897217 0.897217 0.897217
0.908203 0.908203 0.908203
0.905060 0.905060 0.905060
0.873688 0.873688 0.873688
0.799957 0.799957 0.799957
0.762299 0.762299 0.762299
0.733337 0.733337 0.733337
0.733337 0.733337 0.733337
0.732544 0.732544 0.732544
0.730957 0.730957 0.730957
0.734894 0.734894 0.734894
0.736450 0.736450 0.736450
0.734894 0.734894 0.734894
0.738800 0.738800 0.738800
0.298035 0.298035 0.298035
0.327057 0.327057 0.327057
0.418030 0.418030 0.418030
0.135681 0.135681 0.135681
0.258026 0.258026 0.258026
0.422729 0.422729 0.422729
0.472137 0.472137 0.472137
0.480774 0.480774 0.480774
0.847046 0.847046 0.847046
0.654846 0.654846 0.654846
0.243073 0.243073 0.243073
0.202301 0.202301 0.202301
0.152130 0.152130 0.152130
0.864258 0.864258 0.864258
0.483887 0.483887 0.483887
0.453308 0.453308 0.453308
0.342682 0.342682 0.342682
0.344269 0.344269 0.344269
0.403107 0.403107 0.403107
0.565460 0.565460 0.565460
0.647034 0.647034 0.647034
0.684692 0.684692 0.684692
0.715271 0.715271 0.715271
0.744293 0.744293 0.744293
0.580353 0.580353 0.580353
0.603119 0.603119 0.603119
0.603882 0.603882 0.603882
0.454102 0.454102 0.454102
0.353699 0.353699 0.353699
0.416443 0.416443 0.416443
0.415649 0.415649 0.415649
0.401520 0.401520 0.401520
0.350586 0.350586 0.350586
0.172546 0.172546 0.172546
0.311371 0.311371 0.311371
0.405457 0.405457 0.405457
0.732513 0.732513 0.732513
0.549774 0.549774 0.549774
0.202332 0.202332 0.202332
0.178833 0.178833 0.178833
0.167847 0.167847 0.167847
0.196075 0.196075 0.196075
0.210968 0.210968 0.210968
0.202332 0.202332 0.202332
0.198425 0.198425 0.198425
0.186646 0.186646 0.186646
0.188995 0.188995 0.188995
0.182739 0.182739 0.182739
0.889404 0.889404 0.889404
0.887817 0.887817 0.887817
0.878387 0.878387 0.878387
0.840759 0.840759 0.840759
0.797607 0.797607 0.797607
0.765442 0.765442 0.765442
0.733276 0.733276 0.733276
0.720734 0.720734 0.720734
0.732544 0.732544 0.732544
0.733337 0.733337 0.733337
0.734894 0.734894 0.734894
0.733337 0.733337 0.733337
0.734894 0.734894 0.734894
0.734894 0.734894 0.734894
0.736450 0.736450 0.736450
0.741943 0.741943 0.741943
0.244720 0.244720 0.244720
0.339600 0.339600 0.339600
0.338806 0.338806 0.338806
0.091766 0.091766 0.091766
0.342743 0.342743 0.342743
0.440002 0.440002 0.440002
0.471375 0.471375 0.471375
0.472931 0.472931 0.472931
0.249390 0.249390 0.249390
0.275238 0.275238 0.275238
0.261139 0.261139 0.261139
0.210144 0.210144 0.210144
0.171722 0.171722 0.171722
0.857971 0.857971 0.857971
0.527008 0.527008 0.527008
0.567017 0.567017 0.567017
0.337189 0.337189 0.337189
0.368591 0.368591 0.368591
0.541931 0.541931 0.541931
0.644684 0.644684 0.644684
0.691742 0.691742 0.691742
0.715271 0.715271 0.715271
0.745056 0.745056 0.745056
0.439972 0.439972 0.439972
0.589783 0.589783 0.589783
0.607025 0.607025 0.607025
0.593689 0.593689 0.593689
0.445465 0.445465 0.445465
0.351318 0.351318 0.351318
0.421936 0.421936 0.421936
0.417999 0.417999 0.417999
0.407013 0.407013 0.407013
0.203918 0.203918 0.203918
0.261963 0.261963 0.261963
0.389771 0.389771 0.389771
0.712097 0.712097 0.712097
0.668182 0.668182 0.668182
0.206268 0.206268 0.206268
0.187439 0.187439 0.187439
0.169403 0.169403 0.169403
0.170990 0.170990 0.170990
0.205475 0.205475 0.205475
0.200775 0.200775 0.200775
0.199219 0.199219 0.199219
0.184326 0.184326 0.184326
0.189789 0.189789 0.189789
0.185089 0.185089 0.185089
0.178040 0.178040 0.178040
0.852509 0.852509 0.852509
0.818787 0.818787 0.818787
0.778809 0.778809 0.778809
0.740356 0.740356 0.740356
0.728577 0.728577 0.728577
0.715271 0.715271 0.715271
0.701935 0.701935 0.701935
0.697998 0.697998 0.697998
0.734100 0.734100 0.734100
0.734894 0.734894 0.734894
0.734894 0.734894 0.734894
0.733337 0.733337 0.733337
0.736450 0.736450 0.736450
0.734894 0.734894 0.734894
0.734894 0.734894 0.734894
0.738800 0.738800 0.738800
0.177246 0.177246 0.177246
0.409393 0.409393 0.409393
0.090973 0.090973 0.090973
0.161560 0.161560 0.161560
0.424316 0.424316 0.424316
0.461945 0.461945 0.461945
0.476074 0.476074 0.476074
0.452545 0.452545 0.452545
0.298004 0.298004 0.298004
0.223511 0.223511 0.223511
0.428192 0.428192 0.428192
0.283112 0.283112 0.283112
0.214050 0.214050 0.214050
0.179565 0.179565 0.179565
0.487823 0.487823 0.487823
0.407806 0.407806 0.407806
0.356018 0.356018 0.356018
0.524658 0.524658 0.524658
0.631348 0.631348 0.631348
0.679962 0.679962 0.679962
0.709778 0.709778 0.709778
0.748993 0.748993 0.748993
0.755280 0.755280 0.755280
0.768616 0.768616 0.768616
0.596039 0.596039 0.596039
0.613312 0.613312 0.613312
0.582703 0.582703 0.582703
0.441528 0.441528 0.441528
0.356018 0.356018 0.356018
0.415649 0.415649 0.415649
0.414062 0.414062 0.414062
0.413300 0.413300 0.413300
0.213318 0.213318 0.213318
0.410187 0.410187 0.410187
0.635254 0.635254 0.635254
0.748199 0.748199 0.748199
0.341156 0.341156 0.341156
0.196075 0.196075 0.196075
0.175690 0.175690 0.175690
0.157654 0.157654 0.157654
0.210175 0.210175 0.210175
0.210175 0.210175 0.210175
0.203125 0.203125 0.203125
0.189026 0.189026 0.189026
0.190582 0.190582 0.190582
0.174103 0.174103 0.174103
0.181183 0.181183 0.181183
0.136475 0.136475 0.136475
0.759979 0.759979 0.759979
0.736420 0.736420 0.736420
0.717621 0.717621 0.717621
0.702698 0.702698 0.702698
0.699554 0.699554 0.699554
0.686249 0.686249 0.686249
0.684662 0.684662 0.684662
0.679169 0.679169 0.679169
0.730957 0.730957 0.730957
0.734100 0.734100 0.734100
0.728638 0.728638 0.728638
0.730957 0.730957 0.730957
0.730957 0.730957 0.730957
0.736481 0.736481 0.736481
0.736481 0.736481 0.736481
0.744324 0.744324 0.744324
0.355286 0.355286 0.355286
0.314514 0.314514 0.314514
0.061951 0.061951 0.061951
0.332550 0.332550 0.332550
0.429810 0.429810 0.429810
0.469025 0.469025 0.469025
0.479218 0.479218 0.479218
0.326263 0.326263 0.326263
0.318420 0.318420 0.318420
0.268219 0.268219 0.268219
0.512909 0.512909 0.512909
0.886230 0.886230 0.886230
0.905853 0.905853 0.905853
0.403870 0.403870 0.403870
0.521515 0.521515 0.521515
0.474487 0.474487 0.474487
0.486237 0.486237 0.486237
0.623505 0.623505 0.623505
0.674469 0.674469 0.674469
0.705078 0.705078 0.705078
0.731750 0.731750 0.731750
0.755280 0.755280 0.755280
0.767029 0.767029 0.767029
0.776459 0.776459 0.776459
0.610931 0.610931 0.610931
0.624268 0.624268 0.624268
0.581146 0.581146 0.581146
0.436035 0.436035 0.436035
0.352905 0.352905 0.352905
0.411713 0.411713 0.411713
0.407013 0.407013 0.407013
0.402313 0.402313 0.402313
0.340363 0.340363 0.340363
0.499573 0.499573 0.499573
0.765442 0.765442 0.765442
0.527008 0.527008 0.527008
0.197662 0.197662 0.197662
0.179596 0.179596 0.179596
0.179596 0.179596 0.179596
0.161560 0.161560 0.161560
0.205475 0.205475 0.205475
0.203918 0.203918 0.203918
0.210175 0.210175 0.210175
0.181976 0.181976 0.181976
0.184326 0.184326 0.184326
0.163940 0.163940 0.163940
0.137268 0.137268 0.137268
0.125488 0.125488 0.125488
0.715240 0.715240 0.715240
0.701935 0.701935 0.701935
0.692505 0.692505 0.692505
0.688599 0.688599 0.688599
0.688599 0.688599 0.688599
0.684662 0.684662 0.684662
0.679962 0.679962 0.679962
0.672119 0.672119 0.672119
0.734894 0.734894 0.734894
0.730957 0.730957 0.730957
0.734894 0.734894 0.734894
0.730957 0.730957 0.730957
0.734100 0.734100 0.734100
0.738037 0.738037 0.738037
0.740387 0.740387 0.740387
0.740387 0.740387 0.740387
0.392151 0.392151 0.392151
0.097260 0.097260 0.097260
0.108246 0.108246 0.108246
0.415680 0.415680 0.415680
0.458038 0.458038 0.458038
0.475281 0.475281 0.475281
0.462738 0.462738 0.462738
0.149811 0.149811 0.149811
0.429016 0.429016 0.429016
0.358398 0.358398 0.358398
0.281555 0.281555 0.281555
0.390564 0.390564 0.390564
0.946655 0.946655 0.946655
0.420349 0.420349 0.420349
0.952148 0.952148 0.952148
0.516815 0.516815 0.516815
0.592133 0.592133 0.592133
0.658020 0.658020 0.658020
0.692505 0.692505 0.692505
0.719208 0.719208 0.719208
0.744293 0.744293 0.744293
0.760773 0.760773 0.760773
0.772522 0.772522 0.772522
0.781952 0.781952 0.781952
0.614868 0.614868 0.614868
0.620361 0.620361 0.620361
0.558380 0.558380 0.558380
0.425049 0.425049 0.425049
0.351318 0.351318 0.351318
0.410156 0.410156 0.410156
0.407806 0.407806 0.407806
0.410156 0.410156 0.410156
0.399200 0.399200 0.399200
0.742706 0.742706 0.742706
0.664276 0.664276 0.664276
0.192139 0.192139 0.192139
0.184326 0.184326 0.184326
0.172546 0.172546 0.172546
0.172546 0.172546 0.172546
0.153717 0.153717 0.153717
0.206268 0.206268 0.206268
0.200012 0.200012 0.200012
0.194489 0.194489 0.194489
0.186676 0.186676 0.186676
0.172546 0.172546 0.172546
0.162354 0.162354 0.162354
0.127075 0.127075 0.127075
0.125488 0.125488 0.125488
0.688568 0.688568 0.688568
0.689392 0.689392 0.689392
0.685455 0.685455 0.685455
0.681519 0.681519 0.681519
0.672882 0.672882 0.672882
0.662720 0.662720 0.662720
0.623505 0.623505 0.623505
0.556061 0.556061 0.556061
0.732544 0.732544 0.732544
0.734100 0.734100 0.734100
0.726257 0.726257 0.726257
0.719208 0.719208 0.719208
0.734100 0.734100 0.734100
0.738037 0.738037 0.738037
0.734100 0.734100 0.734100
0.734100 0.734100 0.734100
0.326263 0.326263 0.326263
0.054108 0.054108 0.054108
0.288635 0.288635 0.288635
0.437653 0.437653 0.437653
0.470581 0.470581 0.470581
0.472931 0.472931 0.472931
0.372528 0.372528 0.372528
0.158447 0.158447 0.158447
0.374115 0.374115 0.374115
0.418030 0.418030 0.418030
0.474487 0.474487 0.474487
0.327057 0.327057 0.327057
0.365448 0.365448 0.365448
0.485443 0.485443 0.485443
0.936432 0.936432 0.936432
0.328583 0.328583 0.328583
0.661926 0.661926 0.661926
0.695679 0.695679 0.695679
0.719971 0.719971 0.719971
0.736450 0.736450 0.736450
0.750549 0.750549 0.750549
0.771729 0.771729 0.771729
0.770966 0.770966 0.770966
0.782715 0.782715 0.782715
0.628204 0.628204 0.628204
0.629791 0.629791 0.629791
0.542725 0.542725 0.542725
0.406250 0.406250 0.406250
0.358398 0.358398 0.358398
0.398376 0.398376 0.398376
0.405457 0.405457 0.405457
0.435242 0.435242 0.435242
0.701111 0.701111 0.701111
0.759155 0.759155 0.759155
0.294891 0.294891 0.294891
0.185883 0.185883 0.185883
0.170959 0.170959 0.170959
0.163116 0.163116 0.163116
0.169403 0.169403 0.169403
0.159210 0.159210 0.159210
0.204681 0.204681 0.204681
0.200775 0.200775 0.200775
0.185883 0.185883 0.185883
0.174896 0.174896 0.174896
0.170197 0.170197 0.170197
0.134888 0.134888 0.134888
0.127838 0.127838 0.127838
0.123932 0.123932 0.123932
0.682312 0.682312 0.682312
0.682312 0.682312 0.682312
0.675262 0.675262 0.675262
0.633698 0.633698 0.633698
0.587433 0.587433 0.587433
0.511353 0.511353 0.511353
0.474487 0.474487 0.474487
0.474487 0.474487 0.474487
0.734100 0.734100 0.734100
0.736481 0.736481 0.736481
0.732544 0.732544 0.732544
0.730957 0.730957 0.730957
0.734100 0.734100 0.734100
0.732544 0.732544 0.732544
0.725494 0.725494 0.725494
0.721558 0.721558 0.721558
0.112152 0.112152 0.112152
0.087860 0.087860 0.087860
0.421967 0.421967 0.421967
0.455688 0.455688 0.455688
0.476868 0.476868 0.476868
0.472931 0.472931 0.472931
0.192932 0.192932 0.192932
0.179626 0.179626 0.179626
