luts/black2.CUBE
#Created by: Adobe Photoshop Export Color Lookup Plugin
TITLE "RYI07722.jpg"
#LUT size
LUT_3D_SIZE 64
#data domain
DOMAIN_MIN 0.0 0.0 0.0
DOMAIN_MAX 1.0 1.0 1.0
#LUT data points
0.447815 0.447815 0.447815
0.505066 0.505066 0.505066
0.496429 0.496429 0.496429
0.532501 0.532501 0.532501
0.572510 0.572510 0.572510
0.572510 0.572510 0.572510
0.562317 0.562317 0.562317
0.545837 0.545837 0.545837
0.541138 0.541138 0.541138
0.530945 0.530945 0.530945
0.528595 0.528595 0.528595
0.534088 0.534088 0.534088
0.531738 0.531738 0.531738
0.514465 0.514465 0.514465
0.428986 0.428986 0.428986
0.341919 0.341919 0.341919
0.338745 0.338745 0.338745
0.319122 0.319122 0.319122
0.246216 0.246216 0.246216
0.217194 0.217194 0.217194
0.220337 0.220337 0.220337
0.216431 0.216431 0.216431
0.212494 0.212494 0.212494
0.210938 0.210938 0.210938
0.197601 0.197601 0.197601
0.197601 0.197601 0.197601
0.195251 0.195251 0.195251
0.196014 0.196014 0.196014
0.185852 0.185852 0.185852
0.182709 0.182709 0.182709
0.171722 0.171722 0.171722
0.164673 0.164673 0.164673
0.169373 0.169373 0.169373
0.156036 0.156036 0.156036
0.192902 0.192902 0.192902
0.515259 0.515259 0.515259
0.639160 0.639160 0.639160
0.505859 0.505859 0.505859
0.451721 0.451721 0.451721
0.433685 0.433685 0.433685
0.368591 0.368591 0.368591
0.492523 0.492523 0.492523
0.687805 0.687805 0.687805
0.621155 0.621155 0.621155
0.489380 0.489380 0.489380
0.458801 0.458801 0.458801
0.444672 0.444672 0.444672
0.464294 0.464294 0.464294
0.479980 0.479980 0.479980
0.485474 0.485474 0.485474
0.485474 0.485474 0.485474
0.483093 0.483093 0.483093
0.477631 0.477631 0.477631
0.434479 0.434479 0.434479
0.523895 0.523895 0.523895
0.705841 0.705841 0.705841
0.697998 0.697998 0.697998
0.565460 0.565460 0.565460
0.467438 0.467438 0.467438
0.468994 0.468994 0.468994
0.501923 0.501923 0.501923
0.541138 0.541138 0.541138
0.569366 0.569366 0.569366
0.552124 0.552124 0.552124
0.404694 0.404694 0.404694
0.398407 0.398407 0.398407
0.370972 0.370972 0.370972
0.349792 0.349792 0.349792
0.365479 0.365479 0.365479
0.374878 0.374878 0.374878
0.341949 0.341949 0.341949
0.359192 0.359192 0.359192
0.386658 0.386658 0.386658
0.404694 0.404694 0.404694
0.430573 0.430573 0.430573
0.444702 0.444702 0.444702
0.447052 0.447052 0.447052
0.450958 0.450958 0.450958
0.457245 0.457245 0.457245
0.453308 0.453308 0.453308
0.457245 0.457245 0.457245
0.468231 0.468231 0.468231
0.478424 0.478424 0.478424
0.473694 0.473694 0.473694
0.461151 0.461151 0.461151
0.457245 0.457245 0.457245
0.466644 0.466644 0.466644
0.478394 0.478394 0.478394
0.483124 0.483124 0.483124
0.451752 0.451752 0.451752
0.403900 0.403900 0.403900
0.367035 0.367035 0.367035
0.344299 0.344299 0.344299
0.303497 0.303497 0.303497
0.317627 0.317627 0.317627
0.355286 0.355286 0.355286
0.364685 0.364685 0.364685
0.352905 0.352905 0.352905
0.332520 0.332520 0.332520
0.312927 0.312927 0.312927
0.308990 0.308990 0.308990
0.330170 0.330170 0.330170
0.349762 0.349762 0.349762
0.370941 0.370941 0.370941
0.454071 0.454071 0.454071
0.671326 0.671326 0.671326
0.858002 0.858002 0.858002
0.898773 0.898773 0.898773
0.781921 0.781921 0.781921
0.490936 0.490936 0.490936
0.396057 0.396057 0.396057
0.396057 0.396057 0.396057
0.328583 0.328583 0.328583
0.309784 0.309784 0.309784
0.343475 0.343475 0.343475
0.509766 0.509766 0.509766
0.794464 0.794464 0.794464
0.922333 0.922333 0.922333
0.932526 0.932526 0.932526
0.927826 0.927826 0.927826
0.917603 0.917603 0.917603
0.904297 0.904297 0.904297
0.887024 0.887024 0.887024
0.868988 0.868988 0.868988
0.862701 0.862701 0.862701
0.852509 0.852509 0.852509
0.687012 0.687012 0.687012
0.421143 0.421143 0.421143
0.679932 0.679932 0.679932
0.662689 0.662689 0.662689
0.588165 0.588165 0.588165
0.559937 0.559937 0.559937
0.589752 0.589752 0.589752
0.596802 0.596802 0.596802
0.589752 0.589752 0.589752
0.575623 0.575623 0.575623
0.570129 0.570129 0.570129
0.573273 0.573273 0.573273
0.564636 0.564636 0.564636
0.534058 0.534058 0.534058
0.508972 0.508972 0.508972
0.485443 0.485443 0.485443
0.481506 0.481506 0.481506
0.487793 0.487793 0.487793
0.478363 0.478363 0.478363
0.450928 0.450928 0.450928
0.432098 0.432098 0.432098
0.436798 0.436798 0.436798
0.410126 0.410126 0.410126
0.341919 0.341919 0.341919
0.272095 0.272095 0.272095
0.265808 0.265808 0.265808
0.278381 0.278381 0.278381
0.270538 0.270538 0.270538
0.257202 0.257202 0.257202
0.217194 0.217194 0.217194
0.194458 0.194458 0.194458
0.192108 0.192108 0.192108
0.183502 0.183502 0.183502
0.185852 0.185852 0.185852
0.188171 0.188171 0.188171
0.191345 0.191345 0.191345
0.192108 0.192108 0.192108
0.234467 0.234467 0.234467
0.277588 0.277588 0.277588
0.272888 0.272888 0.272888
0.316040 0.316040 0.316040
0.331726 0.331726 0.331726
0.276031 0.276031 0.276031
0.218018 0.218018 0.218018
0.198425 0.198425 0.198425
0.233704 0.233704 0.233704
0.263519 0.263519 0.263519
0.236847 0.236847 0.236847
0.269012 0.269012 0.269012
0.396820 0.396820 0.396820
0.545074 0.545074 0.545074
0.578003 0.578003 0.578003
0.534882 0.534882 0.534882
0.456451 0.456451 0.456451
0.441528 0.441528 0.441528
0.485474 0.485474 0.485474
0.450958 0.450958 0.450958
0.369385 0.369385 0.369385
0.343506 0.343506 0.343506
0.358398 0.358398 0.358398
0.315277 0.315277 0.315277
0.265076 0.265076 0.265076
0.238403 0.238403 0.238403
0.236847 0.236847 0.236847
0.214874 0.214874 0.214874
0.202332 0.202332 0.202332
0.352112 0.352112 0.352112
0.359161 0.359161 0.359161
0.437592 0.437592 0.437592
0.491699 0.491699 0.491699
0.505035 0.505035 0.505035
0.517578 0.517578 0.517578
0.518372 0.518372 0.518372
0.512115 0.512115 0.512115
0.505035 0.505035 0.505035
0.490143 0.490143 0.490143
0.472900 0.472900 0.472900
0.480743 0.480743 0.480743
0.451721 0.451721 0.451721
0.434479 0.434479 0.434479
0.383484 0.383484 0.383484
0.341125 0.341125 0.341125
0.320740 0.320740 0.320740
0.363861 0.363861 0.363861
0.403870 0.403870 0.403870
0.404663 0.404663 0.404663
0.389740 0.389740 0.389740
0.353668 0.353668 0.353668
0.335632 0.335632 0.335632
0.359955 0.359955 0.359955
0.410126 0.410126 0.410126
0.454834 0.454834 0.454834
0.461121 0.461121 0.461121
0.470520 0.470520 0.470520
0.449341 0.449341 0.449341
0.383484 0.383484 0.383484
0.320740 0.320740 0.320740
0.305054 0.305054 0.305054
0.307404 0.307404 0.307404
0.300354 0.300354 0.300354
0.307404 0.307404 0.307404
0.308960 0.308960 0.308960
0.305054 0.305054 0.305054
0.289368 0.289368 0.289368
0.274475 0.274475 0.274475
0.248566 0.248566 0.248566
0.220337 0.220337 0.220337
0.220337 0.220337 0.220337
0.224243 0.224243 0.224243
0.205444 0.205444 0.205444
0.199158 0.199158 0.199158
0.196014 0.196014 0.196014
0.186615 0.186615 0.186615
0.182709 0.182709 0.182709
0.184265 0.184265 0.184265
0.189758 0.189758 0.189758
0.202301 0.202301 0.202301
0.221130 0.221130 0.221130
0.187408 0.187408 0.187408
0.138000 0.138000 0.138000
0.128601 0.128601 0.128601
0.130188 0.130188 0.130188
0.130951 0.130951 0.130951
0.127838 0.127838 0.127838
0.120758 0.120758 0.120758
0.125458 0.125458 0.125458
0.130157 0.130157 0.130157
0.134094 0.134094 0.134094
0.138794 0.138794 0.138794
0.144287 0.144287 0.144287
0.578766 0.578766 0.578766
0.581116 0.581116 0.581116
0.583496 0.583496 0.583496
0.580353 0.580353 0.580353
0.589752 0.589752 0.589752
0.610138 0.610138 0.610138
0.603882 0.603882 0.603882
0.528564 0.528564 0.528564
0.445435 0.445435 0.445435
0.486237 0.486237 0.486237
0.531738 0.531738 0.531738
0.524658 0.524658 0.524658
0.514465 0.514465 0.514465
0.517578 0.517578 0.517578
0.517609 0.517609 0.517609
0.510559 0.510559 0.510559
0.517609 0.517609 0.517609
0.548187 0.548187 0.548187
0.581116 0.581116 0.581116
0.588959 0.588959 0.588959
0.575623 0.575623 0.575623
0.563843 0.563843 0.563843
0.564606 0.564606 0.564606
0.574036 0.574036 0.574036
0.592072 0.592072 0.592072
0.603821 0.603821 0.603821
0.581085 0.581085 0.581085
0.559113 0.559113 0.559113
0.541870 0.541870 0.541870
0.545776 0.545776 0.545776
0.567749 0.567749 0.567749
0.575592 0.575592 0.575592
0.585022 0.585022 0.585022
0.595978 0.595978 0.595978
0.580292 0.580292 0.580292
0.568542 0.568542 0.568542
0.608551 0.608551 0.608551
0.536407 0.536407 0.536407
0.413269 0.413269 0.413269
0.396027 0.396027 0.396027
0.525421 0.525421 0.525421
0.522308 0.522308 0.522308
0.279938 0.279938 0.279938
0.207001 0.207001 0.207001
0.325409 0.325409 0.325409
0.352081 0.352081 0.352081
0.257996 0.257996 0.257996
0.232880 0.232880 0.232880
0.237579 0.237579 0.237579
0.241516 0.241516 0.241516
0.243866 0.243866 0.243866
0.225830 0.225830 0.225830
0.216400 0.216400 0.216400
0.216431 0.216431 0.216431
0.196808 0.196808 0.196808
0.181152 0.181152 0.181152
0.167786 0.167786 0.167786
0.159973 0.159973 0.159973
0.147430 0.147430 0.147430
0.163879 0.163879 0.163879
0.175629 0.175629 0.175629
0.171722 0.171722 0.171722
0.173279 0.173279 0.173279
0.178009 0.178009 0.178009
0.483093 0.483093 0.483093
0.385834 0.385834 0.385834
0.284668 0.284668 0.284668
0.258789 0.258789 0.258789
0.257202 0.257202 0.257202
0.239166 0.239166 0.239166
0.279968 0.279968 0.279968
0.478394 0.478394 0.478394
0.628967 0.628967 0.628967
0.621124 0.621124 0.621124
0.614044 0.614044 0.614044
0.609375 0.609375 0.609375
0.541931 0.541931 0.541931
0.505066 0.505066 0.505066
0.432922 0.432922 0.432922
0.290955 0.290955 0.290955
0.250946 0.250946 0.250946
0.270569 0.270569 0.270569
0.228210 0.228210 0.228210
0.199982 0.199982 0.199982
0.248627 0.248627 0.248627
0.223511 0.223511 0.223511
0.172546 0.172546 0.172546
0.163910 0.163910 0.163910
0.185852 0.185852 0.185852
0.298004 0.298004 0.298004
0.468994 0.468994 0.468994
0.496429 0.496429 0.496429
0.421143 0.421143 0.421143
0.323883 0.323883 0.323883
0.247040 0.247040 0.247040
0.208588 0.208588 0.208588
0.220367 0.220367 0.220367
0.283875 0.283875 0.283875
0.383484 0.383484 0.383484
0.423492 0.423492 0.423492
0.345062 0.345062 0.345062
0.297211 0.297211 0.297211
0.304291 0.304291 0.304291
0.292511 0.292511 0.292511
0.252502 0.252502 0.252502
0.236816 0.236816 0.236816
0.225861 0.225861 0.225861
0.209381 0.209381 0.209381
0.192932 0.192932 0.192932
0.231354 0.231354 0.231354
0.288605 0.288605 0.288605
0.227417 0.227417 0.227417
0.177246 0.177246 0.177246
0.163116 0.163116 0.163116
0.169403 0.169403 0.169403
0.178802 0.178802 0.178802
0.201538 0.201538 0.201538
0.303497 0.303497 0.303497
0.522308 0.522308 0.522308
0.610931 0.610931 0.610931
0.539551 0.539551 0.539551
0.367798 0.367798 0.367798
0.263489 0.263489 0.263489
0.250946 0.250946 0.250946
0.294098 0.294098 0.294098
0.320770 0.320770 0.320770
0.298004 0.298004 0.298004
0.252502 0.252502 0.252502
0.622681 0.622681 0.622681
0.601501 0.601501 0.601501
0.571716 0.571716 0.571716
0.520721 0.520721 0.520721
0.477600 0.477600 0.477600
0.424286 0.424286 0.424286
0.359955 0.359955 0.359955
0.281525 0.281525 0.281525
0.256439 0.256439 0.256439
0.284668 0.284668 0.284668
0.306641 0.306641 0.306641
0.308197 0.308197 0.308197
0.355255 0.355255 0.355255
0.394470 0.394470 0.394470
0.365448 0.365448 0.365448
0.330139 0.330139 0.330139
0.332520 0.332520 0.332520
0.339569 0.339569 0.339569
0.370148 0.370148 0.370148
0.388977 0.388977 0.388977
0.368591 0.368591 0.368591
0.328583 0.328583 0.328583
0.314453 0.314453 0.314453
0.322296 0.322296 0.322296
0.336426 0.336426 0.336426
0.461914 0.461914 0.461914
0.664246 0.664246 0.664246
0.656403 0.656403 0.656403
0.591309 0.591309 0.591309
0.619537 0.619537 0.619537
0.612488 0.612488 0.612488
0.620331 0.620331 0.620331
0.658752 0.658752 0.658752
0.672882 0.672882 0.672882
0.655609 0.655609 0.655609
0.629730 0.629730 0.629730
0.636780 0.636780 0.636780
0.632874 0.632874 0.632874
0.546600 0.546600 0.546600
0.457214 0.457214 0.457214
0.516022 0.516022 0.516022
0.563080 0.563080 0.563080
0.547394 0.547394 0.547394
0.510529 0.510529 0.510529
0.494843 0.494843 0.494843
0.495636 0.495636 0.495636
0.523071 0.523071 0.523071
0.536407 0.536407 0.536407
0.540344 0.540344 0.540344
0.519928 0.519928 0.519928
0.498779 0.498779 0.498779
0.481506 0.481506 0.481506
0.457977 0.457977 0.457977
0.436005 0.436005 0.436005
0.453278 0.453278 0.453278
0.452484 0.452484 0.452484
0.444672 0.444672 0.444672
0.437592 0.437592 0.437592
0.448578 0.448578 0.448578
0.519165 0.519165 0.519165
0.486237 0.486237 0.486237
0.416412 0.416412 0.416412
0.401520 0.401520 0.401520
0.417206 0.417206 0.417206
0.774078 0.774078 0.774078
0.794434 0.794434 0.794434
0.663452 0.663452 0.663452
0.652496 0.652496 0.652496
0.677582 0.677582 0.677582
0.683868 0.683868 0.683868
0.745850 0.745850 0.745850
0.765442 0.765442 0.765442
0.632904 0.632904 0.632904
0.484680 0.484680 0.484680
0.467407 0.467407 0.467407
0.474457 0.474457 0.474457
0.489380 0.489380 0.489380
0.505859 0.505859 0.505859
0.487793 0.487793 0.487793
0.476837 0.476837 0.476837
0.487793 0.487793 0.487793
0.495636 0.495636 0.495636
0.525452 0.525452 0.525452
0.552124 0.552124 0.552124
0.571716 0.571716 0.571716
0.577209 0.577209 0.577209
0.553680 0.553680 0.553680
0.509766 0.509766 0.509766
0.493286 0.493286 0.493286
0.471313 0.471313 0.471313
0.428955 0.428955 0.428955
0.405426 0.405426 0.405426
0.372498 0.372498 0.372498
0.337189 0.337189 0.337189
0.373260 0.373260 0.373260
0.394440 0.394440 0.394440
0.352875 0.352875 0.352875
0.285431 0.285431 0.285431
0.247009 0.247009 0.247009
0.277588 0.277588 0.277588
0.391327 0.391327 0.391327
0.597595 0.597595 0.597595
0.753693 0.753693 0.753693
0.799164 0.799164 0.799164
0.769379 0.769379 0.769379
0.728577 0.728577 0.728577
0.701111 0.701111 0.701111
0.673676 0.673676 0.673676
0.636780 0.636780 0.636780
0.614044 0.614044 0.614044
0.612488 0.612488 0.612488
0.636017 0.636017 0.636017
0.631317 0.631317 0.631317
0.616394 0.616394 0.616394
0.620331 0.620331 0.620331
0.614044 0.614044 0.614044
0.589752 0.589752 0.589752
0.563873 0.563873 0.563873
0.526215 0.526215 0.526215
0.442291 0.442291 0.442291
0.338776 0.338776 0.338776
0.297211 0.297211 0.297211
0.313690 0.313690 0.313690
0.339569 0.339569 0.339569
0.370941 0.370941 0.370941
0.379547 0.379547 0.379547
0.345825 0.345825 0.345825
0.297211 0.297211 0.297211
0.756012 0.756012 0.756012
0.763092 0.763092 0.763092
0.766998 0.766998 0.766998
0.768585 0.768585 0.768585
0.774078 0.774078 0.774078
0.777985 0.777985 0.777985
0.779541 0.779541 0.779541
0.776398 0.776398 0.776398
0.772491 0.772491 0.772491
0.770142 0.770142 0.770142
0.761505 0.761505 0.761505
0.748199 0.748199 0.748199
0.731720 0.731720 0.731720
0.712891 0.712891 0.712891
0.693268 0.693268 0.693268
0.672119 0.672119 0.672119
0.643066 0.643066 0.643066
0.617218 0.617218 0.617218
0.577209 0.577209 0.577209
0.520752 0.520752 0.520752
0.462708 0.462708 0.462708
0.427429 0.427429 0.427429
0.403870 0.403870 0.403870
0.399963 0.399963 0.399963
0.388184 0.388184 0.388184
0.380341 0.380341 0.380341
0.366241 0.366241 0.366241
0.356812 0.356812 0.356812
0.340363 0.340363 0.340363
0.327026 0.327026 0.327026
0.327026 0.327026 0.327026
0.327026 0.327026 0.327026
0.322296 0.322296 0.322296
0.316803 0.316803 0.316803
0.317596 0.317596 0.317596
0.327789 0.327789 0.327789
0.465820 0.465820 0.465820
0.603088 0.603088 0.603088
0.512115 0.512115 0.512115
0.433685 0.433685 0.433685
0.399933 0.399933 0.399933
0.356812 0.356812 0.356812
0.352112 0.352112 0.352112
0.363892 0.363892 0.363892
0.364655 0.364655 0.364655
0.373291 0.373291 0.373291
0.630524 0.630524 0.630524
0.746613 0.746613 0.746613
0.530151 0.530151 0.530151
0.465851 0.465851 0.465851
0.621918 0.621918 0.621918
0.710541 0.710541 0.710541
0.698761 0.698761 0.698761
0.625031 0.625031 0.625031
0.392883 0.392883 0.392883
0.237610 0.237610 0.237610
0.317596 0.317596 0.317596
0.454071 0.454071 0.454071
0.432892 0.432892 0.432892
0.408600 0.408600 0.408600
0.399170 0.399170 0.399170
0.405457 0.405457 0.405457
0.384277 0.384277 0.384277
0.389771 0.389771 0.389771
0.341919 0.341919 0.341919
0.340332 0.340332 0.340332
0.341919 0.341919 0.341919
0.344269 0.344269 0.344269
0.346619 0.346619 0.346619
0.349762 0.349762 0.349762
0.348175 0.348175 0.348175
0.344269 0.344269 0.344269
0.344269 0.344269 0.344269
0.341919 0.341919 0.341919
0.351318 0.351318 0.351318
0.349762 0.349762 0.349762
0.348969 0.348969 0.348969
0.351318 0.351318 0.351318
0.348969 0.348969 0.348969
0.348969 0.348969 0.348969
0.349762 0.349762 0.349762
0.348175 0.348175 0.348175
0.344269 0.344269 0.344269
0.349762 0.349762 0.349762
0.345062 0.345062 0.345062
0.337219 0.337219 0.337219
0.338776 0.338776 0.338776
0.342682 0.342682 0.342682
0.331726 0.331726 0.331726
0.329346 0.329346 0.329346
0.324646 0.324646 0.324646
0.330139 0.330139 0.330139
0.325439 0.325439 0.325439
0.327789 0.327789 0.327789
0.352112 0.352112 0.352112
0.361542 0.361542 0.361542
0.361511 0.361511 0.361511
0.367004 0.367004 0.367004
0.374847 0.374847 0.374847
0.383484 0.383484 0.383484
0.396820 0.396820 0.396820
0.405457 0.405457 0.405457
0.428192 0.428192 0.428192
0.453308 0.453308 0.453308
0.475250 0.475250 0.475250
0.516052 0.516052 0.516052
0.555267 0.555267 0.555267
0.561523 0.561523 0.561523
0.562317 0.562317 0.562317
0.582703 0.582703 0.582703
0.607025 0.607025 0.607025
0.611725 0.611725 0.611725
0.614868 0.614868 0.614868
0.627411 0.627411 0.627411
0.637634 0.637634 0.637634
0.650146 0.650146 0.650146
0.668976 0.668976 0.668976
0.675262 0.675262 0.675262
0.683105 0.683105 0.683105
0.683105 0.683105 0.683105
0.684692 0.684692 0.684692
0.687805 0.687805 0.687805
0.679962 0.679962 0.679962
0.687836 0.687836 0.687836
0.695679 0.695679 0.695679
0.706635 0.706635 0.706635
0.716064 0.716064 0.716064
0.710571 0.710571 0.710571
0.665863 0.665863 0.665863
0.675262 0.675262 0.675262
0.680756 0.680756 0.680756
0.681549 0.681549 0.681549
0.681549 0.681549 0.681549
0.685455 0.685455 0.685455
0.696442 0.696442 0.696442
0.697998 0.697998 0.697998
0.701935 0.701935 0.701935
0.705078 0.705078 0.705078
0.710571 0.710571 0.710571
0.713684 0.713684 0.713684
0.719208 0.719208 0.719208
0.719208 0.719208 0.719208
0.719208 0.719208 0.719208
0.723114 0.723114 0.723114
0.724670 0.724670 0.724670
0.729370 0.729370 0.729370
0.730164 0.730164 0.730164
0.737244 0.737244 0.737244
0.739563 0.739563 0.739563
0.737244 0.737244 0.737244
0.738800 0.738800 0.738800
0.742737 0.742737 0.742737
0.745850 0.745850 0.745850
0.744293 0.744293 0.744293
0.744293 0.744293 0.744293
0.748199 0.748199 0.748199
0.749786 0.749786 0.749786
0.751343 0.751343 0.751343
0.748199 0.748199 0.748199
0.751343 0.751343 0.751343
0.755280 0.755280 0.755280
0.752899 0.752899 0.752899
0.754486 0.754486 0.754486
0.759186 0.759186 0.759186
0.758392 0.758392 0.758392
0.762329 0.762329 0.762329
0.773315 0.773315 0.773315
0.793701 0.793701 0.793701
0.788208 0.788208 0.788208
0.772522 0.772522 0.772522
0.770172 0.770172 0.770172
0.768585 0.768585 0.768585
0.769379 0.769379 0.769379
0.775665 0.775665 0.775665
0.770172 0.770172 0.770172
0.771729 0.771729 0.771729
0.774109 0.774109 0.774109
0.775665 0.775665 0.775665
0.774872 0.774872 0.774872
0.775665 0.775665 0.775665
0.772522 0.772522 0.772522
0.776428 0.776428 0.776428
0.778809 0.778809 0.778809
0.781952 0.781952 0.781952
0.780365 0.780365 0.780365
0.778015 0.778015 0.778015
0.779602 0.779602 0.779602
0.779602 0.779602 0.779602
0.781952 0.781952 0.781952
0.782715 0.782715 0.782715
0.783508 0.783508 0.783508
0.781158 0.781158 0.781158
0.803101 0.803101 0.803101
0.803101 0.803101 0.803101
0.804688 0.804688 0.804688
0.803101 0.803101 0.803101
0.803101 0.803101 0.803101
0.807037 0.807037 0.807037
0.805481 0.805481 0.805481
0.805481 0.805481 0.805481
0.805481 0.805481 0.805481
0.808594 0.808594 0.808594
0.807037 0.807037 0.807037
0.805481 0.805481 0.805481
0.805481 0.805481 0.805481
0.807037 0.807037 0.807037
0.807037 0.807037 0.807037
0.807037 0.807037 0.807037
0.805481 0.805481 0.805481
0.805481 0.805481 0.805481
0.808594 0.808594 0.808594
0.809387 0.809387 0.809387
0.812531 0.812531 0.812531
0.812531 0.812531 0.812531
0.812531 0.812531 0.812531
0.812531 0.812531 0.812531
0.812531 0.812531 0.812531
0.814880 0.814880 0.814880
0.812531 0.812531 0.812531
0.812531 0.812531 0.812531
0.815674 0.815674 0.815674
0.816437 0.816437 0.816437
0.816437 0.816437 0.816437
0.819580 0.819580 0.819580
0.816437 0.816437 0.816437
0.816437 0.816437 0.816437
0.816437 0.816437 0.816437
0.815674 0.815674 0.815674
0.814087 0.814087 0.814087
0.814087 0.814087 0.814087
0.811737 0.811737 0.811737
0.808594 0.808594 0.808594
0.811737 0.811737 0.811737
0.810181 0.810181 0.810181
0.807037 0.807037 0.807037
0.804688 0.804688 0.804688
0.812531 0.812531 0.812531
0.834473 0.834473 0.834473
0.879974 0.879974 0.879974
0.870544 0.870544 0.870544
0.783478 0.783478 0.783478
0.611725 0.611725 0.611725
0.430542 0.430542 0.430542
0.327820 0.327820 0.327820
0.299591 0.299591 0.299591
0.269012 0.269012 0.269012
0.241547 0.241547 0.241547
0.240784 0.240784 0.240784
0.239197 0.239197 0.239197
0.235260 0.235260 0.235260
0.243103 0.243103 0.243103
0.289398 0.289398 0.289398
0.387390 0.387390 0.387390
0.443878 0.443878 0.443878
0.417999 0.417999 0.417999
0.450165 0.450165 0.450165
0.361542 0.361542 0.361542
0.331757 0.331757 0.331757
0.407806 0.407806 0.407806
0.640747 0.640747 0.640747
0.648590 0.648590 0.648590
0.533295 0.533295 0.533295
0.465057 0.465057 0.465057
0.403900 0.403900 0.403900
0.300385 0.300385 0.300385
0.225067 0.225067 0.225067
0.222748 0.222748 0.222748
0.237640 0.237640 0.237640
0.312927 0.312927 0.312927
0.402344 0.402344 0.402344
0.386658 0.386658 0.386658
0.360779 0.360779 0.360779
0.374878 0.374878 0.374878
0.347443 0.347443 0.347443
0.283142 0.283142 0.283142
0.233734 0.233734 0.233734
0.211761 0.211761 0.211761
0.210968 0.210968 0.210968
0.214905 0.214905 0.214905
0.222748 0.222748 0.222748
0.224304 0.224304 0.224304
0.218811 0.218811 0.218811
0.218811 0.218811 0.218811
0.220398 0.220398 0.220398
0.218811 0.218811 0.218811
0.212555 0.212555 0.212555
0.214111 0.214111 0.214111
0.210205 0.210205 0.210205
0.221954 0.221954 0.221954
0.225891 0.225891 0.225891
0.214905 0.214905 0.214905
0.208618 0.208618 0.208618
0.216461 0.216461 0.216461
0.218048 0.218048 0.218048
0.210205 0.210205 0.210205
0.212555 0.212555 0.212555
0.204712 0.204712 0.204712
0.208618 0.208618 0.208618
0.216461 0.216461 0.216461
0.219604 0.219604 0.219604
0.214905 0.214905 0.214905
0.225891 0.225891 0.225891
0.210205 0.210205 0.210205
0.210175 0.210175 0.210175
0.232941 0.232941 0.232941
0.363892 0.363892 0.363892
0.630554 0.630554 0.630554
0.750549 0.750549 0.750549
0.619568 0.619568 0.619568
0.408600 0.408600 0.408600
0.258026 0.258026 0.258026
0.221161 0.221161 0.221161
0.213318 0.213318 0.213318
0.209412 0.209412 0.209412
0.225098 0.225098 0.225098
0.225098 0.225098 0.225098
0.211761 0.211761 0.211761
0.210205 0.210205 0.210205
0.214905 0.214905 0.214905
0.203125 0.203125 0.203125
0.204712 0.204712 0.204712
0.212555 0.212555 0.212555
0.210205 0.210205 0.210205
0.206268 0.206268 0.206268
0.206268 0.206268 0.206268
0.211761 0.211761 0.211761
0.205475 0.205475 0.205475
0.200775 0.200775 0.200775
0.198425 0.198425 0.198425
0.199982 0.199982 0.199982
0.214111 0.214111 0.214111
0.210205 0.210205 0.210205
0.203125 0.203125 0.203125
0.203125 0.203125 0.203125
0.204712 0.204712 0.204712
0.195282 0.195282 0.195282
0.199219 0.199219 0.199219
0.210205 0.210205 0.210205
0.207062 0.207062 0.207062
0.199219 0.199219 0.199219
0.200775 0.200775 0.200775
0.206268 0.206268 0.206268
0.203125 0.203125 0.203125
0.197632 0.197632 0.197632
0.196869 0.196869 0.196869
0.200775 0.200775 0.200775
0.195282 0.195282 0.195282
0.195282 0.195282 0.195282
0.189026 0.189026 0.189026
0.194519 0.194519 0.194519
0.206268 0.206268 0.206268
0.194519 0.194519 0.194519
0.192932 0.192932 0.192932
0.200775 0.200775 0.200775
0.196869 0.196869 0.196869
0.200775 0.200775 0.200775
0.194519 0.194519 0.194519
0.196869 0.196869 0.196869
0.196869 0.196869 0.196869
0.194519 0.194519 0.194519
0.198425 0.198425 0.198425
0.194519 0.194519 0.194519
0.190582 0.190582 0.190582
0.196075 0.196075 0.196075
0.192169 0.192169 0.192169
0.192169 0.192169 0.192169
0.196075 0.196075 0.196075
0.192169 0.192169 0.192169
0.192169 0.192169 0.192169
0.192932 0.192932 0.192932
