luts/contrast.CUBE
#Created by: Adobe Photoshop Export Color Lookup Plugin
TITLE "RYI00596.JPG"
#LUT size
LUT_3D_SIZE 64
#data domain
DOMAIN_MIN 0.0 0.0 0.0
DOMAIN_MAX 1.0 1.0 1.0
#LUT data points
0.111450 0.111450 0.111450
0.116333 0.112335 0.111877
0.121796 0.113159 0.112244
0.127686 0.113953 0.112549
0.134552 0.114716 0.112823
0.142639 0.115509 0.113068
0.151428 0.116333 0.113434
0.161346 0.117157 0.113770
0.172913 0.117981 0.114075
0.185455 0.118835 0.114349
0.198578 0.119690 0.114624
0.212738 0.120544 0.114990
0.227753 0.121368 0.115265
0.243042 0.122253 0.115631
0.259308 0.123138 0.115875
0.275848 0.124023 0.116180
0.293030 0.124878 0.116486
0.311096 0.125854 0.116791
0.329285 0.126770 0.117126
0.348236 0.127716 0.117401
0.367706 0.128693 0.117737
0.387482 0.129700 0.118042
0.407684 0.130707 0.118378
0.428375 0.131744 0.118683
0.449280 0.132812 0.118958
0.470581 0.133820 0.119293
0.492126 0.134979 0.119690
0.514008 0.136078 0.119934
0.535767 0.137238 0.120239
0.557098 0.138397 0.120575
0.578278 0.139618 0.120911
0.599182 0.140839 0.121246
0.619690 0.142059 0.121582
0.639771 0.143372 0.121918
0.659515 0.144714 0.122223
0.678802 0.146027 0.122559
0.697601 0.147369 0.122894
0.715912 0.148834 0.123230
0.733795 0.150299 0.123566
0.750916 0.151733 0.123901
0.767578 0.153259 0.124298
0.783630 0.154724 0.124573
0.799103 0.156281 0.124908
0.813873 0.157898 0.125305
0.828186 0.159485 0.125671
0.841797 0.161102 0.126007
0.854706 0.162781 0.126373
0.867065 0.164429 0.126740
0.878723 0.166138 0.127075
0.889740 0.167847 0.127441
0.900208 0.169647 0.127777
0.909973 0.171417 0.128143
0.919159 0.173248 0.128540
0.927704 0.175079 0.128937
0.935699 0.176910 0.129303
0.943115 0.178772 0.129669
0.950012 0.180695 0.130066
0.956390 0.182617 0.130463
0.962311 0.184509 0.130829
0.967804 0.186493 0.131195
0.972870 0.188477 0.131622
0.977570 0.190460 0.131989
0.981873 0.192505 0.132385
0.985809 0.194550 0.132812
0.113190 0.115417 0.113068
0.116974 0.116821 0.112122
0.122070 0.117737 0.112549
0.128418 0.118713 0.112915
0.135406 0.119720 0.113312
0.143372 0.120483 0.113647
0.152100 0.121460 0.113861
0.162750 0.122253 0.114319
0.174744 0.123016 0.114746
0.187500 0.123901 0.115082
0.200775 0.124786 0.115417
0.215149 0.125732 0.115875
0.230682 0.126495 0.116302
0.246490 0.127411 0.116699
0.263397 0.128204 0.117157
0.279907 0.129272 0.117462
0.298523 0.130035 0.118073
0.317169 0.130920 0.118561
0.335510 0.131989 0.118896
0.355438 0.132904 0.119476
0.376160 0.133759 0.120056
0.395966 0.134827 0.120361
0.417755 0.135742 0.121033
0.439423 0.136658 0.121613
0.461151 0.137756 0.122101
0.483765 0.138733 0.122772
0.506012 0.139771 0.123230
0.527832 0.141022 0.123566
0.549347 0.142273 0.123901
0.570648 0.143585 0.124237
0.591553 0.144897 0.124573
0.612152 0.146271 0.124908
0.632568 0.147644 0.125244
0.652374 0.149078 0.125641
0.671906 0.150513 0.126007
0.690796 0.151978 0.126312
0.709320 0.153473 0.126709
0.727234 0.154968 0.127075
0.744690 0.156555 0.127441
0.761536 0.158081 0.127777
0.777802 0.159760 0.128143
0.793457 0.161407 0.128510
0.808594 0.162994 0.128876
0.823059 0.164703 0.129272
0.836914 0.166412 0.129669
0.850037 0.168152 0.130035
0.862640 0.169891 0.130402
0.874573 0.171661 0.130798
0.885834 0.173523 0.131195
0.896454 0.175293 0.131592
0.906433 0.177185 0.131989
0.915833 0.179047 0.132355
0.924713 0.180969 0.132812
0.932861 0.182892 0.133179
0.940460 0.184845 0.133606
0.947540 0.186829 0.134003
0.954102 0.188751 0.134430
0.960205 0.190796 0.134827
0.965851 0.192810 0.135284
0.971039 0.194885 0.135681
0.975922 0.196930 0.136108
0.980316 0.199005 0.136536
0.984406 0.201111 0.137024
0.988159 0.203217 0.137421
0.114807 0.119690 0.114746
0.117615 0.121216 0.113525
0.123138 0.122314 0.112762
0.128845 0.123138 0.113159
0.135895 0.124207 0.113525
0.144257 0.125336 0.113953
0.153473 0.126526 0.114410
0.164185 0.127777 0.114807
0.176208 0.128693 0.115173
0.188110 0.129791 0.115417
0.201569 0.130798 0.115814
0.216736 0.131622 0.116272
0.231903 0.132599 0.116638
0.248138 0.133606 0.117157
0.264130 0.134705 0.117462
0.281799 0.135651 0.117981
0.299774 0.136658 0.118408
0.318512 0.137665 0.118927
0.336853 0.138947 0.119232
0.356232 0.140045 0.119690
0.377075 0.140930 0.120331
0.398071 0.142059 0.120911
0.419128 0.143219 0.121429
0.440186 0.144470 0.121826
0.462158 0.145599 0.122406
0.485229 0.146576 0.123138
0.507446 0.147858 0.123596
0.530365 0.149017 0.124298
0.553802 0.149994 0.125092
0.575775 0.151306 0.125671
0.597565 0.152557 0.126312
0.619690 0.153656 0.127167
0.640533 0.154938 0.127777
0.661041 0.156250 0.128418
0.681946 0.157379 0.129303
0.701874 0.158569 0.130127
0.720764 0.160004 0.130798
0.738312 0.161652 0.131165
0.755493 0.163330 0.131592
0.771942 0.164978 0.131927
0.787872 0.166687 0.132355
0.803131 0.168396 0.132782
0.817841 0.170227 0.133179
0.831879 0.171967 0.133575
0.845337 0.173798 0.134003
0.858154 0.175629 0.134369
0.870270 0.177490 0.134796
0.881744 0.179352 0.135254
0.892639 0.181274 0.135681
0.902893 0.183228 0.136078
0.912506 0.185120 0.136536
0.921509 0.187103 0.136993
0.929901 0.189056 0.137390
0.937775 0.191132 0.137848
0.945007 0.193115 0.138275
0.951752 0.195160 0.138763
0.958008 0.197235 0.139221
0.963837 0.199310 0.139648
0.969177 0.201416 0.140106
0.974152 0.203552 0.140625
0.978729 0.205688 0.141052
0.982971 0.207825 0.141571
0.986816 0.210022 0.142059
0.990356 0.212219 0.142517
0.116547 0.123932 0.116302
0.119019 0.125122 0.115601
0.123352 0.128021 0.113556
0.129608 0.128510 0.113312
0.137146 0.128937 0.113739
0.144867 0.130280 0.114105
0.154480 0.131531 0.114563
0.164825 0.132935 0.114929
0.176422 0.134308 0.115265
0.189636 0.135742 0.115814
0.203064 0.137238 0.116150
0.217926 0.138458 0.116608
0.232880 0.139709 0.116913
0.248352 0.140930 0.117279
0.264801 0.142181 0.117706
0.282440 0.143250 0.118195
0.300659 0.144379 0.118713
0.319244 0.145599 0.119171
0.338928 0.146698 0.119781
0.358368 0.148010 0.120209
0.378296 0.149323 0.120605
0.398865 0.150574 0.121155
0.420013 0.151886 0.121674
0.442078 0.153076 0.122345
0.464294 0.154388 0.122894
0.486206 0.155792 0.123413
0.509186 0.157043 0.124054
0.531311 0.158539 0.124542
0.554199 0.159760 0.125244
0.576141 0.161194 0.125854
0.598969 0.162292 0.126709
0.620361 0.163696 0.127380
0.641266 0.165192 0.127960
0.662659 0.166351 0.128876
0.683228 0.167664 0.129761
0.703400 0.168823 0.130676
0.722198 0.170471 0.131348
0.741455 0.171631 0.132324
0.759430 0.173035 0.133240
0.776703 0.174469 0.134033
0.794037 0.175720 0.135223
0.810059 0.177002 0.136108
0.825623 0.178284 0.137207
0.840485 0.179626 0.138275
0.853485 0.181549 0.138733
0.865814 0.183533 0.139191
0.877625 0.185455 0.139618
0.888702 0.187408 0.140106
0.899200 0.189423 0.140594
0.909027 0.191406 0.141022
0.918274 0.193451 0.141510
0.926880 0.195557 0.142059
0.934967 0.197571 0.142487
0.942444 0.199677 0.142975
0.949341 0.201721 0.143463
0.955780 0.203857 0.143951
0.961731 0.206024 0.144470
0.967285 0.208221 0.144989
0.972382 0.210327 0.145477
0.977112 0.212616 0.145996
0.981476 0.214783 0.146545
0.985443 0.216980 0.147034
0.989105 0.219208 0.147583
0.992004 0.221985 0.148621
0.118195 0.128754 0.117920
0.120758 0.129272 0.117920
0.123901 0.132507 0.115540
0.130066 0.135437 0.113617
0.137146 0.135559 0.113739
0.145386 0.135895 0.114166
0.155121 0.137238 0.114563
0.165497 0.138733 0.114929
0.177246 0.140289 0.115204
0.189728 0.141846 0.115723
0.203430 0.143494 0.115936
0.218475 0.145111 0.116577
0.233154 0.146973 0.116974
0.248566 0.148834 0.117310
0.265045 0.150726 0.117737
0.282959 0.152100 0.118286
0.300629 0.153503 0.118683
0.319122 0.154938 0.119141
0.338104 0.156372 0.119507
0.357788 0.157806 0.120026
0.377869 0.159241 0.120483
0.398346 0.160767 0.121002
0.419373 0.162201 0.121460
0.440552 0.163788 0.121948
0.463287 0.165070 0.122589
0.485626 0.166534 0.123199
0.508423 0.167999 0.123810
0.530609 0.169586 0.124298
0.553436 0.170990 0.124969
0.575226 0.172546 0.125519
0.597626 0.173889 0.126282
0.619385 0.175354 0.127045
0.640350 0.176910 0.127655
0.661469 0.178284 0.128510
0.682037 0.179749 0.129364
0.702393 0.181061 0.130249
0.721069 0.182739 0.130920
0.740387 0.184021 0.131897
0.758118 0.185760 0.132660
0.775635 0.187164 0.133575
0.793030 0.188416 0.134705
0.809326 0.189819 0.135742
0.824707 0.191376 0.136658
0.839752 0.192688 0.137848
0.853760 0.194214 0.138885
0.867035 0.195618 0.139954
0.879944 0.196869 0.141296
0.892212 0.198090 0.142822
0.903168 0.199738 0.143890
0.913818 0.200867 0.145355
0.923767 0.202057 0.147003
0.932068 0.204254 0.147552
0.939758 0.206390 0.148102
0.946899 0.208588 0.148651
0.953522 0.210754 0.149200
0.959656 0.212921 0.149750
0.965332 0.215149 0.150299
0.970581 0.217377 0.150848
0.975433 0.219574 0.151398
0.979919 0.221893 0.151978
0.984039 0.224182 0.152496
0.987793 0.226379 0.153076
0.991241 0.228729 0.153656
0.992126 0.233856 0.157135
0.119965 0.133881 0.119476
0.122681 0.134216 0.119720
0.125305 0.137512 0.117462
0.130402 0.141296 0.115173
0.137604 0.143585 0.113983
0.146027 0.143616 0.114227
0.155243 0.144226 0.114441
0.166260 0.145447 0.114655
0.178284 0.147034 0.115143
0.190704 0.148834 0.115479
0.204468 0.150635 0.115967
0.218567 0.152496 0.116425
0.233765 0.154419 0.116913
0.250000 0.156342 0.117371
0.266449 0.158356 0.117737
0.282654 0.160583 0.118195
0.301147 0.162628 0.118439
0.319061 0.164856 0.119049
0.338257 0.166962 0.119476
0.357574 0.168610 0.119904
0.378021 0.170105 0.120483
0.397339 0.172028 0.120697
0.419281 0.173370 0.121368
0.440247 0.175201 0.121796
0.462372 0.176727 0.122314
0.484100 0.178528 0.122772
0.506531 0.180237 0.123260
0.529633 0.181671 0.123993
0.551697 0.183441 0.124451
0.573944 0.185089 0.125122
0.595062 0.186981 0.125580
0.616669 0.188629 0.126190
0.638062 0.190216 0.126892
0.658813 0.191803 0.127625
0.679016 0.193512 0.128265
0.698761 0.195129 0.129028
0.718323 0.196777 0.129791
0.737091 0.198395 0.130615
0.754822 0.200104 0.131287
0.772644 0.201691 0.132233
0.789337 0.203430 0.133026
0.805969 0.204803 0.134094
0.821899 0.206329 0.135162
0.836823 0.207794 0.136139
0.851288 0.209229 0.137299
0.864471 0.210968 0.138275
0.877869 0.212006 0.139771
0.889923 0.213593 0.140930
0.901306 0.215057 0.142273
0.911774 0.216583 0.143463
0.921936 0.217834 0.145020
0.931030 0.219208 0.146393
0.939819 0.220459 0.148102
0.947510 0.221985 0.149506
0.954956 0.223175 0.151337
0.961670 0.224487 0.153046
0.967773 0.225861 0.154724
0.973419 0.227142 0.156586
0.978302 0.229065 0.157776
0.982544 0.231384 0.158325
0.986450 0.233765 0.158997
0.990021 0.236084 0.159576
0.992188 0.239838 0.161652
0.992249 0.246094 0.166534
0.121674 0.139740 0.121094
0.124420 0.140076 0.121338
0.126953 0.142975 0.119568
0.131134 0.147125 0.117249
0.138123 0.151642 0.114929
0.146667 0.152924 0.114441
0.156036 0.153198 0.114594
0.166687 0.153748 0.114868
0.178650 0.154633 0.115265
0.191376 0.156616 0.115540
0.205261 0.158478 0.116150
0.219696 0.160522 0.116455
0.234467 0.162659 0.116821
0.250763 0.164734 0.117279
0.266907 0.166962 0.117615
0.284363 0.169159 0.117950
0.301819 0.171448 0.118530
0.319489 0.173859 0.119110
0.338409 0.176208 0.119568
0.358795 0.178406 0.119812
0.377533 0.181061 0.120331
0.398102 0.183472 0.120819
0.418579 0.185791 0.121216
0.440338 0.187439 0.121765
0.461884 0.189331 0.122192
0.483856 0.191162 0.122681
0.506409 0.192963 0.123230
0.528534 0.194794 0.123688
0.550751 0.196655 0.124207
0.572876 0.198395 0.124786
0.594635 0.200226 0.125397
0.615753 0.202148 0.125885
0.636475 0.204132 0.126404
0.657074 0.205902 0.127075
0.677307 0.207672 0.127686
0.696899 0.209473 0.128357
0.716125 0.211395 0.129028
0.734772 0.213074 0.129700
0.752869 0.214996 0.130463
0.770477 0.216736 0.131287
0.787292 0.218567 0.132019
0.803314 0.220367 0.132782
0.818665 0.222229 0.133514
0.833832 0.223846 0.134491
0.848114 0.225494 0.135468
0.861694 0.227173 0.136444
0.874603 0.228851 0.137512
0.886536 0.230591 0.138458
0.898071 0.232208 0.139648
0.908813 0.233734 0.140839
0.918945 0.235321 0.142090
0.928375 0.236877 0.143402
0.936920 0.238556 0.144684
0.945343 0.239685 0.146484
0.952606 0.241211 0.147858
0.959595 0.242584 0.149628
0.965973 0.243835 0.151398
0.971710 0.245392 0.152985
0.977020 0.246582 0.154816
0.981934 0.247803 0.156769
0.986481 0.248962 0.159027
0.990479 0.250183 0.161011
0.992249 0.253906 0.166290
0.992310 0.259857 0.173218
0.123444 0.146271 0.122742
0.126434 0.146362 0.122803
0.128937 0.148895 0.121765
0.132477 0.153595 0.119354
0.138397 0.158478 0.116943
0.147339 0.163513 0.114716
0.156769 0.163696 0.114807
0.167175 0.164062 0.114990
0.179413 0.164490 0.115295
0.192261 0.165070 0.115723
0.205933 0.167297 0.115997
0.220154 0.169434 0.116394
0.236115 0.171539 0.116730
0.251587 0.173798 0.117249
0.267731 0.176178 0.117737
0.285217 0.178528 0.117859
0.301819 0.181030 0.118530
0.320557 0.183441 0.118958
0.339142 0.186005 0.119354
0.358643 0.188507 0.119781
0.377747 0.191162 0.120331
0.399109 0.193604 0.120575
0.419891 0.196198 0.121002
0.440033 0.199066 0.121674
0.461884 0.201660 0.122162
0.484161 0.204346 0.122681
0.505707 0.206665 0.123016
0.528381 0.208466 0.123596
0.550293 0.210571 0.124054
0.572540 0.212341 0.124634
0.593597 0.214447 0.125061
0.614960 0.216400 0.125641
0.636017 0.218384 0.126221
0.656158 0.220398 0.126740
0.675842 0.222473 0.127228
0.695618 0.224365 0.127838
0.714844 0.226379 0.128510
0.733398 0.228271 0.129211
0.751404 0.230286 0.129852
0.768555 0.232239 0.130463
0.785278 0.234314 0.131134
0.801575 0.236115 0.131927
0.817078 0.237976 0.132721
0.832184 0.239746 0.133606
0.845825 0.242035 0.134216
0.859528 0.243774 0.135162
0.872131 0.245697 0.135956
0.884247 0.247681 0.136871
0.895630 0.249542 0.137756
0.906555 0.251190 0.138885
0.916504 0.253143 0.139832
0.925903 0.254822 0.140930
0.934509 0.256775 0.141968
0.942780 0.258270 0.143341
0.950134 0.260345 0.144409
0.957031 0.261902 0.145691
0.963562 0.263641 0.147217
0.969513 0.265076 0.148773
0.974823 0.266785 0.150085
0.979980 0.268036 0.152008
0.984436 0.269775 0.153503
0.988708 0.271118 0.155579
0.992126 0.272858 0.157959
0.992218 0.278687 0.165405
0.125305 0.153412 0.124329
0.128296 0.153809 0.124542
0.131134 0.155701 0.123657
0.134338 0.160553 0.121338
0.139282 0.165771 0.119049
0.146942 0.171417 0.116730
0.157684 0.175293 0.115082
0.168335 0.175415 0.115204
0.179688 0.175995 0.115387
0.193146 0.176392 0.115723
0.206909 0.177032 0.115967
0.221436 0.178925 0.116425
0.236755 0.181335 0.116638
0.252319 0.183685 0.117157
0.268829 0.186188 0.117462
0.285858 0.188568 0.117981
0.302917 0.191132 0.118469
0.321350 0.193726 0.118835
0.340179 0.196350 0.119232
0.359802 0.198883 0.119598
0.380127 0.201569 0.120026
0.399536 0.204346 0.120667
0.420227 0.207062 0.121033
0.439941 0.210083 0.121674
0.462982 0.212616 0.121826
0.484955 0.215424 0.122253
0.506134 0.218506 0.123077
0.528351 0.221222 0.123535
0.549866 0.224304 0.123932
0.572021 0.226959 0.124451
0.593414 0.229126 0.124969
0.614624 0.231140 0.125458
0.635193 0.233429 0.125916
0.655640 0.235474 0.126495
0.675629 0.237640 0.127075
0.695282 0.239624 0.127686
0.713867 0.241791 0.128143
0.732544 0.243835 0.128845
0.749939 0.246094 0.129303
0.767334 0.248138 0.129944
0.784241 0.250183 0.130707
0.800385 0.252167 0.131409
0.815704 0.254303 0.132019
0.830414 0.256470 0.132721
0.844452 0.258606 0.133453
0.857758 0.260773 0.134125
0.870789 0.262634 0.135040
0.882751 0.264801 0.135803
0.894135 0.266907 0.136627
0.904877 0.268921 0.137543
0.914825 0.270935 0.138397
0.924133 0.272888 0.139252
0.932922 0.275055 0.140289
0.940948 0.277039 0.141235
0.948547 0.278839 0.142365
0.955566 0.280670 0.143585
0.961945 0.282684 0.144714
0.967743 0.284668 0.145691
0.973236 0.286530 0.147003
0.978302 0.288422 0.148376
0.982880 0.290100 0.149658
0.987152 0.291809 0.151215
0.990997 0.293457 0.152802
0.992126 0.298309 0.158051
0.127319 0.161224 0.126007
0.130402 0.161652 0.126221
0.133575 0.162781 0.125854
0.136353 0.168182 0.123413
0.141174 0.173676 0.120941
0.147583 0.179504 0.118835
0.157684 0.185638 0.116425
0.169189 0.188324 0.115509
0.180725 0.188568 0.115662
0.193604 0.188843 0.115845
0.207672 0.189392 0.116089
0.222229 0.190094 0.116394
0.237213 0.191589 0.116791
0.253143 0.194122 0.117126
0.269775 0.196747 0.117401
0.287079 0.199188 0.117920
0.303894 0.201813 0.118408
0.322693 0.204407 0.118774
0.340851 0.207153 0.119293
0.360413 0.209900 0.119690
0.380371 0.212738 0.120056
0.400665 0.215485 0.120453
0.421387 0.218384 0.120819
0.441559 0.221344 0.121460
0.464264 0.224030 0.121674
0.485352 0.227051 0.122345
0.507263 0.230042 0.122742
0.529358 0.233002 0.123138
0.550385 0.236084 0.123993
0.572906 0.238892 0.124054
0.593170 0.242188 0.124878
0.615936 0.244904 0.125092
0.634979 0.248444 0.125885
0.655579 0.250885 0.126434
0.675140 0.253265 0.126892
0.694519 0.255554 0.127441
0.713287 0.257874 0.127930
0.731873 0.259918 0.128540
0.749908 0.262024 0.129211
0.766815 0.264374 0.129761
0.783356 0.266693 0.130341
0.799713 0.268768 0.131042
0.814850 0.270996 0.131622
0.829529 0.273254 0.132263
0.843597 0.275360 0.132935
0.857147 0.277527 0.133728
0.869629 0.280029 0.134338
0.881683 0.282104 0.135101
0.893036 0.284241 0.135864
0.903778 0.286560 0.136658
0.913666 0.288818 0.137390
0.923126 0.290924 0.138275
0.931763 0.293060 0.139099
0.940063 0.295105 0.140198
0.947479 0.297302 0.141022
0.954346 0.299561 0.141937
0.960907 0.301605 0.143066
0.966736 0.303802 0.144012
0.972260 0.305878 0.145111
0.977264 0.307739 0.146240
0.981934 0.309845 0.147430
0.986115 0.312042 0.148590
0.989990 0.314026 0.149872
0.992065 0.317657 0.153534
0.129303 0.169708 0.127686
0.132568 0.170135 0.127930
0.136017 0.170654 0.128174
0.138855 0.176117 0.125519
0.143219 0.182037 0.123016
0.149017 0.188019 0.120911
0.157623 0.194427 0.118591
0.169891 0.201050 0.116089
0.181824 0.202087 0.115875
0.194550 0.202301 0.115997
0.208344 0.202698 0.116211
0.222626 0.203491 0.116486
0.238556 0.203857 0.116791
0.254272 0.205170 0.117065
0.270752 0.207642 0.117523
0.288055 0.210419 0.117859
0.305145 0.213074 0.118317
0.323303 0.215698 0.118835
0.342834 0.218628 0.118958
0.361450 0.221436 0.119507
0.380920 0.224243 0.120117
0.401093 0.227142 0.120483
0.421875 0.230103 0.120880
0.442871 0.233093 0.121246
0.464630 0.236053 0.121674
0.486206 0.239044 0.122009
0.507385 0.242188 0.122742
0.529785 0.245178 0.123230
0.551331 0.248352 0.123596
0.573364 0.251373 0.124084
0.594604 0.254578 0.124512
0.614441 0.257935 0.125397
0.636505 0.260742 0.125519
0.655487 0.264221 0.126373
0.675018 0.267456 0.126831
0.694366 0.270813 0.127380
0.713226 0.273895 0.127869
0.731781 0.276367 0.128479
0.749390 0.278748 0.129028
0.766418 0.281250 0.129517
0.782928 0.283569 0.130066
0.799011 0.285767 0.130737
0.814270 0.288086 0.131348
0.828705 0.290680 0.131836
0.842926 0.292694 0.132568
0.856354 0.295044 0.133270
0.868927 0.297455 0.133820
0.880951 0.299835 0.134583
0.892303 0.302124 0.135284
0.903015 0.304565 0.136017
0.912903 0.306885 0.136749
0.922241 0.309143 0.137512
0.931091 0.311340 0.138397
0.939056 0.313873 0.139130
0.946655 0.316010 0.140045
0.953552 0.318390 0.140869
0.960052 0.320496 0.141846
0.966034 0.322754 0.142853
0.971466 0.325043 0.143707
0.976501 0.327393 0.144714
0.981171 0.329559 0.145782
0.985443 0.331818 0.146881
0.989288 0.334167 0.147980
0.992004 0.337158 0.150482
0.131409 0.178833 0.129486
0.134796 0.179352 0.129761
0.138611 0.179565 0.129852
0.141357 0.184540 0.127930
0.145264 0.190857 0.125336
0.150970 0.197113 0.123016
0.158936 0.204010 0.120453
0.169403 0.210815 0.118134
0.182861 0.216614 0.116180
0.195679 0.216766 0.116272
0.209259 0.216919 0.116455
0.223541 0.217377 0.116577
0.239166 0.218018 0.116852
0.255127 0.218689 0.117249
0.271820 0.219391 0.117493
0.289093 0.222137 0.117798
0.306335 0.224854 0.118286
0.324524 0.227509 0.118805
0.343445 0.230469 0.119110
0.363037 0.233429 0.119446
0.382202 0.236176 0.119965
0.402252 0.239319 0.120270
0.422394 0.242249 0.120941
0.443390 0.245392 0.121338
0.464996 0.248444 0.121704
0.487152 0.251495 0.122101
0.509369 0.254486 0.122559
0.531097 0.257782 0.122894
0.552063 0.260895 0.123688
0.573364 0.264221 0.124084
0.594696 0.267517 0.124512
0.616058 0.270538 0.125061
0.636292 0.273956 0.125427
0.656769 0.277191 0.125916
0.675262 0.280792 0.126862
0.695770 0.283813 0.126892
0.713165 0.287506 0.127808
0.731628 0.290741 0.128387
0.750366 0.293793 0.128357
0.766144 0.297791 0.129395
0.782654 0.300812 0.129913
0.798615 0.303284 0.130493
0.813904 0.305695 0.131134
0.828583 0.308136 0.131744
0.842529 0.310547 0.132324
0.855835 0.313080 0.132935
0.868591 0.315338 0.133636
0.880493 0.317902 0.134247
0.891724 0.320496 0.134918
0.902313 0.322906 0.135529
0.912476 0.325104 0.136322
0.921753 0.327728 0.137024
0.930481 0.330078 0.137756
0.938538 0.332642 0.138519
0.946106 0.334839 0.139343
0.952972 0.337341 0.140106
0.959412 0.339905 0.140930
0.965393 0.342255 0.141815
0.970917 0.344666 0.142731
0.975952 0.346985 0.143585
0.980621 0.349487 0.144623
0.984863 0.351929 0.145569
0.988770 0.354126 0.146606
0.991974 0.356964 0.148254
0.133575 0.188507 0.131256
0.137146 0.188965 0.131500
0.140900 0.189514 0.131775
0.144165 0.193604 0.130066
0.147919 0.200195 0.127533
0.153198 0.206787 0.125122
0.160431 0.213257 0.122803
0.170380 0.220245 0.120239
0.182861 0.227631 0.117828
0.196899 0.231842 0.116577
0.210571 0.232025 0.116699
0.224365 0.232422 0.116791
0.239746 0.232758 0.116974
0.255737 0.233582 0.117279
0.272400 0.234253 0.117584
0.289948 0.234924 0.117920
0.307739 0.237183 0.118256
0.326385 0.240082 0.118530
0.344940 0.242828 0.119019
0.363617 0.245697 0.119507
0.383636 0.248810 0.119904
0.404144 0.251831 0.120239
0.424042 0.254944 0.120819
0.445099 0.258026 0.121216
0.465790 0.261169 0.121826
0.487579 0.264313 0.122223
0.510681 0.267578 0.122253
0.531616 0.270691 0.122986
0.553589 0.274078 0.123413
0.573822 0.277466 0.124146
0.596436 0.280670 0.124207
0.616241 0.284088 0.125061
0.637939 0.287170 0.125092
0.656830 0.290802 0.125885
0.676514 0.294037 0.126312
0.695770 0.297577 0.126862
0.714355 0.300873 0.127289
0.731415 0.304810 0.128265
0.750397 0.307892 0.128296
0.766113 0.311768 0.129364
0.782593 0.315186 0.129822
0.798523 0.318665 0.130402
0.813782 0.322418 0.131012
0.828308 0.325745 0.131531
0.842316 0.328674 0.132141
0.855499 0.331390 0.132721
0.868164 0.333923 0.133362
0.880127 0.336426 0.133972
0.891418 0.338928 0.134583
0.902069 0.341522 0.135284
0.911896 0.344269 0.135895
0.921326 0.346558 0.136627
0.930054 0.349304 0.137299
0.938110 0.351837 0.138062
0.945618 0.354462 0.138794
0.952576 0.356812 0.139587
0.959076 0.359314 0.140411
0.964996 0.361725 0.141174
0.970428 0.364441 0.141968
0.975555 0.366791 0.142883
0.980255 0.369263 0.143799
0.984467 0.371887 0.144623
0.988403 0.374146 0.145599
0.991974 0.376862 0.146606
0.135956 0.198456 0.133118
0.139618 0.199097 0.133453
0.143738 0.199310 0.133514
0.147217 0.202820 0.132477
0.150848 0.209473 0.129791
0.155731 0.215942 0.127716
0.162628 0.223419 0.124878
0.171631 0.231049 0.122223
0.182953 0.238159 0.119934
0.197327 0.246033 0.117401
0.211609 0.247864 0.116974
0.225983 0.248016 0.117126
0.240845 0.248352 0.117249
0.256287 0.248962 0.117401
0.273254 0.249634 0.117737
0.290710 0.250275 0.117981
0.308563 0.251068 0.118378
0.327148 0.252747 0.118591
0.345490 0.255554 0.119110
0.365143 0.258636 0.119446
0.384338 0.261566 0.119965
0.404663 0.264709 0.120331
0.424561 0.267853 0.120911
0.445587 0.271210 0.121277
0.467224 0.274384 0.121674
0.489319 0.277527 0.122040
0.510071 0.280792 0.122650
0.532257 0.284119 0.123077
0.555359 0.287445 0.123138
0.575531 0.290802 0.123901
0.596893 0.294373 0.124298
0.617889 0.297668 0.124664
0.638306 0.301086 0.125122
0.658478 0.304382 0.125549
0.676636 0.308197 0.126373
0.695831 0.311615 0.126862
0.714569 0.315216 0.127319
0.732910 0.318512 0.127808
0.750519 0.322144 0.128296
0.767365 0.325653 0.128754
0.782501 0.329742 0.129791
0.799744 0.332977 0.129791
0.814972 0.336487 0.130371
0.828125 0.340607 0.131470
0.842102 0.344269 0.131989
0.856598 0.347137 0.131989
0.867920 0.351715 0.133179
0.879822 0.355225 0.133759
0.891113 0.357910 0.134369
0.901733 0.360443 0.135040
