luts/contrast.CUBE
#Created by: Adobe Photoshop Export Color Lookup Plugin
TITLE "RYI00596.JPG"
#LUT size
LUT_3D_SIZE 8
#data domain
DOMAIN_MIN 0.0 0.0 0.0
DOMAIN_MAX 1.0 1.0 1.0
#LUT data points
0.111450 0.111450 0.111450
0.185455 0.118835 0.114349
0.329285 0.126770 0.117126
0.514008 0.136078 0.119934
0.697601 0.147369 0.122894
0.841797 0.161102 0.126007
0.935699 0.176910 0.129303
0.985809 0.194550 0.132812
0.127319 0.161224 0.126007
0.193604 0.188843 0.115845
0.340851 0.207153 0.119293
0.529358 0.233002 0.123138
0.713287 0.257874 0.127930
0.857147 0.277527 0.133728
0.947479 0.297302 0.141022
0.992065 0.317657 0.153534
0.149445 0.254272 0.143219
0.202698 0.302704 0.128601
0.350189 0.338593 0.119476
0.538971 0.356842 0.122650
0.718903 0.390259 0.126709
0.857910 0.425537 0.131256
0.945557 0.462372 0.136780
0.990967 0.500275 0.143707
0.183594 0.370880 0.164642
0.235809 0.420563 0.155243
0.360229 0.512848 0.125458
0.548218 0.529358 0.123352
0.728058 0.542267 0.126373
0.862823 0.577454 0.130798
0.947968 0.612976 0.135559
0.991913 0.647797 0.141266
0.228607 0.504059 0.192810
0.282562 0.552887 0.190643
0.377197 0.639618 0.151825
0.563782 0.711487 0.126038
0.734863 0.714752 0.127533
0.868896 0.722046 0.130798
0.951172 0.747803 0.135101
0.993347 0.775818 0.140167
0.280670 0.638184 0.225281
0.337982 0.678223 0.232208
0.417297 0.752533 0.189270
0.567932 0.819580 0.147461
0.747192 0.854401 0.130402
0.873566 0.856750 0.132050
0.954102 0.861725 0.135620
0.993988 0.874939 0.145355
0.338715 0.755798 0.261292
0.398956 0.786469 0.276428
0.470032 0.844727 0.234253
0.592194 0.894501 0.184906
0.752930 0.934509 0.142700
0.881592 0.944458 0.135132
0.956573 0.945770 0.137024
0.994537 0.948212 0.162018
0.401733 0.850342 0.300323
0.461761 0.874908 0.318146
0.529938 0.914032 0.282837
0.630920 0.946777 0.231506
0.760773 0.972534 0.178284
0.890167 0.990295 0.138672
0.960693 0.990784 0.140320
0.994995 0.989716 0.222870
0.111450 0.138214 0.178528
0.158234 0.126190 0.163452
0.298737 0.128418 0.193939
0.496918 0.125916 0.180878
0.700287 0.123535 0.158875
0.843597 0.126709 0.155151
0.936798 0.130066 0.151642
0.986389 0.133728 0.147980
0.115173 0.155518 0.194916
0.200745 0.194336 0.189728
0.350433 0.213531 0.198059
0.540070 0.233215 0.207153
0.723236 0.247803 0.212646
0.863159 0.261169 0.217621
0.950653 0.269775 0.221436
0.992920 0.275970 0.227203
0.142365 0.287872 0.207703
0.235687 0.300659 0.225403
0.359406 0.345886 0.197113
0.547607 0.372345 0.205658
0.724792 0.407867 0.216034
0.862305 0.443237 0.225433
0.948517 0.470428 0.235199
0.992737 0.497742 0.246155
0.199066 0.391449 0.230103
0.280945 0.433319 0.262634
0.370056 0.501923 0.221680
0.558319 0.538239 0.203644
0.735291 0.559082 0.211090
0.867889 0.594818 0.220551
0.950104 0.630707 0.231262
0.992859 0.665710 0.242035
0.253174 0.540314 0.269989
0.331024 0.577393 0.300232
0.408203 0.631165 0.269775
0.571533 0.714600 0.208923
0.743317 0.722809 0.208221
0.874695 0.733246 0.214752
0.954468 0.761902 0.222748
0.994080 0.789459 0.237427
0.313965 0.681366 0.310425
0.385406 0.708099 0.336731
0.461975 0.747467 0.316956
0.583923 0.814880 0.253357
0.756165 0.860626 0.207306
0.879669 0.862976 0.210327
0.957428 0.868073 0.216644
0.994781 0.884888 0.242371
0.369324 0.790558 0.339722
0.442993 0.815277 0.371460
0.521729 0.842499 0.361938
0.618652 0.893005 0.296417
0.760559 0.933350 0.231567
0.888000 0.948395 0.206238
0.960175 0.949646 0.209167
0.995300 0.952118 0.269012
0.427460 0.875214 0.365753
0.502594 0.895172 0.401947
0.578949 0.915100 0.396637
0.661011 0.947906 0.333923
0.775238 0.972839 0.267731
0.894653 0.990601 0.206726
0.964600 0.992981 0.200226
0.995850 0.991119 0.373291
0.111450 0.166687 0.281067
0.139618 0.119232 0.302368
0.246460 0.145599 0.263641
0.417755 0.157776 0.339630
0.628174 0.153473 0.357117
0.804352 0.149414 0.345856
0.922607 0.144623 0.319336
0.983307 0.140930 0.287048
0.111450 0.233002 0.363037
0.170471 0.249023 0.366943
0.309143 0.233124 0.313843
0.502197 0.236176 0.356445
0.705902 0.229858 0.344482
0.861511 0.222351 0.319702
0.951660 0.221588 0.308563
0.992920 0.228790 0.314880
0.124329 0.238770 0.346222
0.209167 0.299835 0.353485
0.369324 0.353912 0.342102
0.557495 0.381256 0.354187
0.734528 0.408173 0.366394
0.868805 0.435211 0.379272
0.951904 0.459015 0.389496
0.994202 0.479492 0.397400
0.153198 0.481689 0.406769
0.271271 0.476898 0.369873
0.411926 0.491058 0.392944
0.567932 0.545105 0.353241
0.741638 0.575317 0.365173
0.871948 0.611938 0.378357
0.952789 0.647308 0.391937
0.994324 0.672791 0.405151
0.229065 0.580322 0.369537
0.352814 0.597351 0.403595
0.469635 0.636292 0.443268
0.577759 0.700439 0.385498
0.750305 0.728333 0.363586
0.878540 0.745972 0.374329
0.955994 0.774445 0.387482
0.994629 0.802246 0.407379
0.320221 0.682983 0.400452
0.416504 0.732727 0.457123
0.529755 0.761688 0.493927
0.614838 0.802826 0.451416
0.761078 0.862030 0.371307
0.883698 0.866455 0.372742
0.959534 0.873993 0.382324
0.995514 0.893066 0.415619
0.388947 0.802460 0.452576
0.486298 0.841431 0.512024
0.589050 0.859772 0.542938
0.665863 0.883575 0.516052
0.769043 0.925873 0.433685
0.891479 0.950073 0.375763
0.961975 0.951324 0.380432
0.996185 0.954071 0.448944
0.463837 0.892334 0.506134
0.559235 0.919220 0.565857
0.646057 0.928558 0.588867
0.718994 0.940247 0.577606
0.795074 0.966888 0.499969
0.893829 0.986694 0.415527
0.965942 0.993530 0.381805
0.996735 0.992157 0.571381
0.111450 0.186859 0.382996
0.111450 0.122345 0.505371
0.255737 0.155823 0.384399
0.362579 0.173248 0.394867
0.551056 0.200714 0.501404
0.743774 0.195618 0.550385
0.885437 0.188812 0.562988
0.965271 0.183380 0.554077
0.111450 0.440735 0.574463
0.149231 0.320557 0.591553
0.284119 0.221436 0.481659
0.438171 0.274902 0.456787
0.635010 0.294464 0.548553
0.810791 0.286896 0.577179
0.926910 0.278687 0.580750
0.981903 0.280243 0.578033
0.125397 0.261841 0.535522
0.194031 0.399048 0.562103
0.318451 0.413910 0.562653
0.513977 0.408264 0.513977
0.706848 0.407990 0.549500
0.859985 0.399872 0.529755
0.952515 0.391510 0.494934
0.994293 0.399170 0.489594
0.138885 0.350311 0.532104
0.222443 0.420074 0.552704
0.380432 0.499878 0.553925
0.579071 0.554993 0.536255
0.750031 0.584991 0.549957
0.878021 0.612915 0.563293
0.956329 0.639771 0.576721
0.995514 0.666199 0.591583
0.167419 0.683624 0.669952
0.272980 0.692078 0.628296
0.463531 0.674438 0.566559
0.617004 0.688507 0.591095
0.758545 0.733887 0.548920
0.882965 0.758942 0.562347
0.958282 0.787537 0.576599
0.995544 0.815125 0.596313
0.247040 0.766724 0.584839
0.367340 0.779510 0.589111
0.554077 0.777252 0.606995
0.671875 0.804413 0.642853
0.765686 0.853668 0.579346
0.888672 0.870239 0.560974
0.961670 0.882446 0.572754
0.996277 0.901489 0.605530
0.350861 0.835785 0.570801
0.480469 0.848846 0.608948
0.617920 0.874573 0.659241
0.722931 0.892059 0.689606
0.791351 0.919281 0.646179
0.896027 0.952026 0.566376
0.964325 0.953400 0.571869
0.996857 0.957794 0.638184
0.470123 0.892273 0.601654
0.564270 0.919220 0.657562
0.679535 0.940735 0.707977
0.770142 0.950226 0.732574
0.828186 0.963135 0.706329
0.899689 0.984100 0.630524
0.968048 0.994446 0.576324
0.997559 0.993225 0.748108
0.111450 0.211090 0.499847
0.111450 0.161804 0.666748
0.189056 0.127319 0.642395
0.374268 0.197266 0.506409
0.497772 0.207825 0.545746
0.685791 0.246582 0.660126
0.837860 0.248962 0.717316
0.941101 0.240814 0.745148
0.111450 0.503143 0.767792
0.131989 0.389160 0.787781
0.173645 0.185852 0.730835
0.449615 0.302063 0.576935
0.580933 0.319977 0.612396
0.752716 0.359558 0.712219
0.891998 0.350525 0.761414
0.963928 0.350708 0.779846
0.119812 0.507751 0.749847
0.173035 0.663849 0.775604
0.284210 0.510986 0.767151
0.486816 0.398193 0.668671
0.650482 0.462616 0.662628
0.810089 0.482330 0.732880
0.925385 0.472717 0.749725
0.983551 0.466248 0.744873
0.144836 0.300507 0.699280
0.218811 0.419647 0.729156
0.357483 0.600098 0.743805
0.514404 0.603363 0.743256
0.713257 0.613525 0.708405
0.861359 0.609253 0.731628
0.952972 0.600677 0.712158
0.995575 0.597687 0.685913
0.158539 0.481354 0.712097
0.241089 0.554443 0.736633
0.394012 0.630920 0.742004
0.590851 0.703735 0.740784
0.767334 0.742584 0.722748
0.888458 0.766724 0.734070
0.961426 0.788452 0.744843
0.996674 0.810577 0.759155
0.182678 0.803345 0.842346
0.278748 0.851868 0.855042
0.459045 0.846252 0.796478
0.674774 0.830078 0.746735
0.790924 0.845459 0.763306
0.894043 0.873810 0.733185
0.963837 0.890717 0.744904
0.996918 0.909912 0.768433
0.266357 0.898102 0.796051
0.378906 0.908661 0.794861
0.563965 0.905670 0.770874
0.744507 0.902924 0.782867
0.832672 0.917999 0.807526
0.898315 0.947906 0.754120
0.966888 0.955353 0.743164
0.997528 0.962524 0.792084
0.373535 0.938538 0.757050
0.492371 0.948151 0.776215
0.667633 0.947174 0.786194
0.793091 0.958282 0.822083
0.867920 0.966492 0.842010
0.912323 0.980927 0.806641
0.970398 0.995300 0.747772
0.998352 0.994385 0.875397
0.111450 0.238892 0.620392
0.111450 0.216034 0.793854
0.120697 0.111450 0.836639
0.353943 0.170166 0.726379
0.503601 0.233673 0.647217
0.635406 0.247650 0.689484
0.806061 0.290588 0.794556
0.910431 0.306549 0.843658
0.111450 0.557892 0.901428
0.118378 0.452576 0.918091
0.139496 0.237579 0.899506
0.375488 0.241425 0.805023
0.587372 0.351685 0.708954
0.713074 0.367554 0.751221
0.857147 0.416595 0.840454
0.939301 0.430450 0.876251
0.114502 0.775208 0.899994
0.166473 0.751587 0.908234
0.251007 0.600769 0.906555
0.329163 0.336426 0.865326
0.654388 0.499023 0.751007
0.769348 0.518555 0.789154
0.890259 0.557892 0.856720
0.965088 0.554199 0.881775
0.135864 0.539764 0.868988
0.197571 0.665710 0.888885
0.323120 0.819824 0.899139
0.473206 0.695770 0.892761
0.698608 0.611206 0.818604
0.823029 0.665405 0.828094
0.926056 0.678406 0.871521
0.982727 0.675171 0.878845
0.169189 0.378357 0.835236
0.248932 0.454773 0.857056
0.387054 0.615570 0.869263
0.565765 0.778229 0.877533
0.711182 0.766754 0.875610
0.864746 0.787994 0.857178
0.954346 0.781525 0.868195
0.995056 0.781677 0.854645
0.182678 0.617645 0.851776
0.265045 0.682098 0.872101
0.412262 0.747131 0.878784
0.602875 0.806885 0.879669
0.777039 0.858612 0.878204
0.899506 0.880157 0.863892
0.966797 0.895844 0.871490
0.997772 0.911591 0.883789
0.200073 0.881134 0.941528
0.291229 0.916962 0.950470
0.456940 0.947937 0.949432
0.667480 0.941711 0.909271
0.840759 0.931885 0.879822
0.911133 0.943481 0.888184
0.969635 0.957214 0.870880
0.998169 0.967194 0.898407
0.287933 0.970703 0.935760
0.393341 0.977234 0.936066
0.565918 0.977448 0.917847
0.754028 0.973083 0.896240
0.883606 0.972626 0.905334
0.935822 0.979218 0.918823
0.971771 0.994141 0.882263
0.999054 0.995728 0.950562
0.111450 0.268280 0.727966
0.111450 0.273560 0.884735
0.111450 0.132477 0.926483
0.257141 0.136963 0.897583
0.524475 0.237061 0.798828
0.634003 0.274170 0.769165
0.755920 0.291809 0.808990
0.895660 0.338531 0.893768
0.111450 0.587128 0.962097
0.111450 0.512177 0.979553
0.118683 0.303253 0.980804
0.243927 0.190918 0.940674
0.585480 0.327606 0.864532
0.713257 0.398315 0.823486
0.823517 0.416626 0.861389
0.923553 0.476898 0.918976
0.115479 0.836945 0.972626
0.163177 0.807709 0.977478
0.218872 0.676971 0.978851
0.267609 0.411346 0.968292
0.590302 0.426300 0.912567
0.767822 0.552216 0.853058
0.863770 0.573547 0.885437
0.943634 0.629089 0.931671
0.129364 0.785767 0.962891
0.179230 0.869446 0.973328
0.304565 0.893402 0.975189
0.431976 0.773102 0.972809
0.544952 0.535767 0.948425
0.820099 0.694519 0.883057
0.901978 0.714050 0.911499
0.965179 0.745605 0.944733
0.158905 0.579254 0.945709
0.226318 0.686279 0.958588
0.352753 0.816833 0.964935
0.524231 0.927032 0.969177
0.673950 0.839447 0.965546
0.857788 0.793152 0.920807
0.933685 0.827820 0.934479
0.982330 0.838196 0.952606
0.195679 0.509064 0.929474
0.276978 0.578766 0.943176
0.420227 0.651428 0.948395
0.595062 0.788208 0.953491
0.757996 0.903564 0.957397
0.864410 0.885162 0.953735
0.955750 0.907288 0.948517
0.994598 0.908264 0.951355
0.211365 0.738739 0.941132
0.292816 0.791443 0.953949
0.434967 0.842163 0.959045
0.618103 0.886810 0.960449
0.785217 0.923523 0.960327
0.905792 0.951935 0.959381
0.972290 0.960815 0.950592
0.998871 0.970612 0.959778
0.224243 0.938171 0.989990
0.305298 0.959503 0.996063
0.462830 0.980164 0.996307
0.662506 0.994080 0.993683
0.834290 0.990295 0.972626
0.943909 0.985199 0.959473
0.976807 0.992065 0.962311
0.999664 0.997467 0.986755
0.111450 0.300720 0.819366
0.111450 0.327820 0.943939
0.111450 0.180634 0.975739
0.153473 0.115387 0.981384
0.454895 0.187866 0.937103
0.668213 0.314850 0.862640
0.749176 0.318329 0.864929
0.852417 0.339813 0.897705
0.111450 0.617950 0.995117
0.121918 0.574493 1.000000
0.134705 0.420593 1.000000
0.152344 0.170563 0.997620
0.489136 0.265717 0.968628
0.741516 0.428040 0.911499
0.819794 0.445435 0.908875
0.892456 0.481232 0.924133
0.129669 0.861420 1.000000
0.204468 0.843842 1.000000
0.251251 0.746338 1.000000
0.269287 0.545563 1.000000
0.429230 0.354248 0.988312
0.769043 0.532806 0.947662
0.858734 0.603302 0.925781
0.925507 0.632446 0.944061
0.132690 0.936096 1.000000
0.209961 0.954315 1.000000
0.350311 0.921692 1.000000
0.452606 0.837738 1.000000
0.468140 0.612671 1.000000
0.781219 0.636719 0.974060
0.896912 0.739014 0.944672
0.951050 0.763519 0.960449
0.149200 0.805298 0.996552
0.218781 0.872955 1.000000
0.360596 0.941101 1.000000
0.547485 0.961334 1.000000
0.668365 0.895935 1.000000
0.755157 0.733765 0.991699
0.928772 0.846344 0.960999
0.970703 0.865479 0.973969
0.191162 0.623474 0.987518
0.262115 0.715820 0.994659
0.386871 0.828064 0.998352
0.559631 0.923584 1.000000
0.739044 0.981964 1.000000
0.835785 0.933929 1.000000
0.952118 0.915802 0.977844
0.984955 0.935486 0.984375
0.225861 0.640015 0.981476
0.306763 0.701233 0.989044
0.445374 0.762665 0.992310
0.623810 0.819458 0.993439
0.778748 0.908722 0.995300
0.893982 0.973053 0.996979
0.955292 0.958740 0.993988
0.994843 0.975861 0.990967
0.242950 0.837524 0.988373
0.324432 0.876892 0.994934
0.461884 0.912720 0.997803
0.636078 0.942749 0.998871
0.795258 0.966156 0.999084
0.910492 0.983765 0.998901
0.976471 0.996796 0.997925
1.000000 1.000000 1.000000
