luts/contrast.CUBE
#Created by: Adobe Photoshop Export Color Lookup Plugin
TITLE "RYI00596.JPG"
#LUT size
LUT_3D_SIZE 4
#data domain
DOMAIN_MIN 0.0 0.0 0.0
DOMAIN_MAX 1.0 1.0 1.0
#LUT data points
0.111450 0.111450 0.111450
0.387482 0.129700 0.118042
0.799103 0.156281 0.124908
0.985809 0.194550 0.132812
0.159546 0.291016 0.149872
0.412994 0.398712 0.120789
0.818970 0.463257 0.129486
0.991302 0.550690 0.142273
0.262604 0.594849 0.214050
0.446747 0.741882 0.161865
0.833527 0.815063 0.130493
0.993927 0.845581 0.142395
0.401733 0.850342 0.300323
0.559845 0.925568 0.266937
0.849792 0.985138 0.149902
0.994995 0.989716 0.222870
0.111450 0.174194 0.315063
0.282654 0.153931 0.304504
0.730377 0.164154 0.422668
0.978088 0.152588 0.375214
0.129150 0.273529 0.404449
0.436981 0.417755 0.403381
0.833099 0.485291 0.433807
0.994690 0.546265 0.462067
0.266510 0.677307 0.433807
0.559265 0.738708 0.528473
0.847412 0.827789 0.430237
0.995575 0.869507 0.473785
0.465271 0.892242 0.538971
0.689850 0.936584 0.640656
0.864014 0.980042 0.516876
0.997009 0.992523 0.634430
0.111450 0.229156 0.581024
0.210114 0.130341 0.745209
0.590912 0.233856 0.643707
0.920410 0.285797 0.817841
0.122681 0.610626 0.846588
0.330505 0.606934 0.862732
0.752319 0.551056 0.764709
0.978058 0.566010 0.846100
0.174011 0.573395 0.810699
0.467651 0.732666 0.840149
0.862366 0.840698 0.822845
0.997406 0.882965 0.847748
0.315704 0.961151 0.882965
0.663422 0.967590 0.865814
0.916443 0.975311 0.896698
0.998840 0.995270 0.930939
0.111450 0.300720 0.819366
0.111450 0.136139 0.980103
0.620483 0.270874 0.889709
0.852417 0.339813 0.897705
0.130402 0.905792 1.000000
0.313354 0.782227 1.000000
0.690643 0.507874 0.972015
0.934784 0.678955 0.949890
0.176178 0.685333 0.990601
0.427490 0.903229 1.000000
0.786652 0.922943 1.000000
0.981049 0.915588 0.981537
0.242950 0.837524 0.988373
0.518890 0.923523 0.998322
0.877808 0.978485 0.998993
1.000000 1.000000 1.000000
