luts/green.CUBE
#Created by: Adobe Photoshop Export Color Lookup Plugin
TITLE "green"
#LUT size
LUT_3D_SIZE 64
#data domain
DOMAIN_MIN 0.0 0.0 0.0
DOMAIN_MAX 1.0 1.0 1.0
#LUT data points
0.083221 0.094452 0.086639
0.095673 0.094757 0.085968
0.107666 0.095245 0.086090
0.120270 0.095642 0.085754
0.133698 0.095764 0.085602
0.146301 0.096558 0.085266
0.159760 0.097198 0.084686
0.174194 0.097656 0.084381
0.189209 0.098419 0.083649
0.204407 0.099274 0.082916
0.220490 0.099884 0.082672
0.236176 0.100800 0.082123
0.251831 0.101959 0.080750
0.267639 0.102722 0.080444
0.283051 0.103607 0.079529
0.297485 0.104797 0.078278
0.311523 0.105743 0.077393
0.325134 0.106598 0.076691
0.337738 0.107666 0.075714
0.349945 0.108673 0.074646
0.361847 0.109680 0.073517
0.373535 0.110565 0.072510
0.384583 0.111633 0.071503
0.395782 0.112518 0.070435
0.406921 0.113312 0.069580
0.417603 0.114532 0.067902
0.428711 0.115326 0.067322
0.439392 0.116608 0.065765
0.450623 0.117676 0.064362
0.462250 0.118652 0.062988
0.473694 0.119843 0.061584
0.485260 0.121124 0.059967
0.496979 0.122284 0.058716
0.508850 0.123566 0.056824
0.520935 0.124756 0.055359
0.532867 0.126038 0.053680
0.544769 0.127350 0.052185
0.556824 0.128662 0.050293
0.568817 0.129852 0.048706
0.580566 0.131226 0.046906
0.592377 0.132568 0.045135
0.603943 0.133942 0.043182
0.615295 0.135376 0.041534
0.626770 0.136658 0.039642
0.638000 0.137878 0.038055
0.648834 0.139282 0.035889
0.659454 0.140625 0.034058
0.670288 0.141846 0.032471
0.680878 0.143066 0.030670
0.691315 0.144501 0.028625
0.701965 0.145844 0.026581
0.712555 0.147186 0.024719
0.723511 0.148529 0.022888
0.734375 0.149963 0.020996
0.745728 0.151398 0.018616
0.757233 0.152893 0.016632
0.769012 0.154480 0.014313
0.781311 0.156067 0.011993
0.793732 0.157806 0.009430
0.806732 0.159485 0.006866
0.819824 0.161194 0.004211
0.829773 0.168030 0.012604
0.835938 0.180115 0.033539
0.841278 0.192200 0.056824
0.083008 0.107788 0.088257
0.094971 0.106415 0.088684
0.106842 0.108765 0.088623
0.120819 0.109253 0.087738
0.134064 0.109741 0.087067
0.147766 0.109985 0.086700
0.161743 0.110413 0.086151
0.175751 0.111084 0.085815
0.190308 0.111938 0.085358
0.205994 0.112640 0.084747
0.221771 0.113403 0.084076
0.237488 0.114258 0.083527
0.253571 0.115143 0.082855
0.269470 0.115906 0.082245
0.284332 0.117126 0.081024
0.299438 0.117859 0.080170
0.313599 0.118805 0.079407
0.327271 0.119598 0.078796
0.339905 0.120544 0.077789
0.352203 0.121552 0.076813
0.364227 0.122406 0.075928
0.375732 0.123474 0.074738
0.387146 0.124298 0.074097
0.398407 0.125153 0.073029
0.409637 0.125946 0.072266
0.420532 0.126770 0.071228
0.431641 0.127899 0.069763
0.442780 0.128784 0.068604
0.453857 0.129883 0.067566
0.465424 0.130798 0.066589
0.477081 0.131897 0.065063
0.488861 0.132996 0.063538
0.500427 0.134308 0.062134
0.512665 0.135437 0.060608
0.524567 0.136597 0.059021
0.536591 0.137787 0.057434
0.548676 0.139160 0.055634
0.560883 0.140259 0.054321
0.572845 0.141541 0.052338
0.584717 0.142914 0.050629
0.596619 0.144226 0.048920
0.608307 0.145325 0.047607
0.619720 0.146729 0.045593
0.631195 0.147888 0.044098
0.642609 0.149200 0.042267
0.653320 0.150604 0.040466
0.664368 0.151703 0.038635
0.675079 0.153046 0.036896
0.685577 0.154327 0.035034
0.696014 0.155640 0.033447
0.706818 0.156769 0.031616
0.717621 0.158051 0.029907
0.728333 0.159607 0.027832
0.739716 0.160889 0.025970
0.750824 0.162201 0.023865
0.762482 0.163757 0.021545
0.774536 0.165253 0.019592
0.786713 0.166931 0.017059
0.799255 0.168427 0.014679
0.812103 0.170135 0.012390
0.825348 0.171814 0.009949
0.835052 0.178680 0.017395
0.840759 0.190582 0.038147
0.845490 0.202362 0.061035
0.083405 0.120880 0.090027
0.095642 0.119720 0.090149
0.105835 0.118958 0.091309
0.118195 0.121002 0.091980
0.132019 0.122894 0.091400
0.146057 0.124176 0.089905
0.161163 0.124634 0.088745
0.176453 0.125000 0.087585
0.191956 0.125488 0.086853
0.207306 0.126282 0.086212
0.223053 0.127014 0.085938
0.239258 0.127716 0.085144
0.255402 0.128510 0.084320
0.270996 0.129395 0.083801
0.286285 0.130402 0.082947
0.301422 0.131104 0.082153
0.315399 0.132141 0.081360
0.328857 0.133026 0.080658
0.341797 0.133820 0.079803
0.354492 0.134613 0.078796
0.366516 0.135406 0.078278
0.378052 0.136414 0.077118
0.389557 0.137207 0.076538
0.400848 0.138000 0.075500
0.412109 0.138763 0.074341
0.423187 0.139679 0.073456
0.434235 0.140656 0.072388
0.445282 0.141663 0.071228
0.456848 0.142395 0.070587
0.468384 0.143402 0.069183
0.479950 0.144470 0.067902
0.491852 0.145569 0.066528
0.503998 0.146515 0.065247
0.515808 0.147766 0.063843
0.528046 0.148865 0.062531
0.540161 0.150085 0.060547
0.552246 0.151245 0.059296
0.564270 0.152618 0.057373
0.576508 0.153534 0.056091
0.588440 0.154907 0.054443
0.600220 0.156189 0.052704
0.612305 0.157318 0.051270
0.623810 0.158661 0.049286
0.635223 0.159912 0.047821
0.646576 0.161041 0.045898
0.657745 0.162262 0.044586
0.668427 0.163452 0.042816
0.679199 0.164642 0.041199
0.689941 0.165863 0.039551
0.700745 0.166962 0.037903
0.711548 0.168274 0.036011
0.722260 0.169495 0.034363
0.733093 0.170837 0.032318
0.744324 0.172211 0.030762
0.755768 0.173492 0.028534
0.767456 0.175018 0.026276
0.779358 0.176422 0.024231
0.791718 0.178040 0.021851
0.804382 0.179504 0.019562
0.817505 0.181152 0.017120
0.830658 0.182648 0.015076
0.840210 0.189331 0.022766
0.845398 0.201141 0.042664
0.849579 0.213196 0.064697
0.082825 0.134796 0.091644
0.094421 0.134125 0.090210
0.107452 0.131683 0.092926
0.117371 0.131439 0.093994
0.129364 0.133301 0.095215
0.143555 0.136108 0.094299
0.158600 0.137878 0.093018
0.174072 0.139130 0.091736
0.189911 0.140045 0.090790
0.206940 0.140503 0.089478
0.223572 0.141296 0.087616
0.240204 0.141815 0.086517
0.256653 0.142426 0.086121
0.272095 0.143433 0.085266
0.287964 0.144043 0.084686
0.302704 0.145081 0.083710
0.316986 0.145844 0.083160
0.330719 0.146576 0.082520
0.343750 0.147308 0.081909
0.356201 0.148193 0.081055
0.368561 0.148895 0.080292
0.380371 0.149658 0.079407
0.391724 0.150543 0.078369
0.403076 0.151306 0.077820
0.414246 0.152161 0.076630
0.425537 0.152893 0.075897
0.436676 0.153748 0.074982
0.447937 0.154602 0.073944
0.459229 0.155670 0.072632
0.470947 0.156525 0.071808
0.482880 0.157440 0.070404
0.494751 0.158386 0.069611
0.506775 0.159393 0.068146
0.518890 0.160553 0.066620
0.531158 0.161560 0.065308
0.543274 0.162689 0.063782
0.555481 0.163818 0.062195
0.567780 0.165009 0.060608
0.579956 0.166077 0.059204
0.592102 0.167206 0.057831
0.603973 0.168488 0.056152
0.615936 0.169739 0.054565
0.627533 0.170776 0.053192
0.639130 0.172089 0.051422
0.650391 0.173248 0.049957
0.661713 0.174316 0.048248
0.672516 0.175568 0.046631
0.683350 0.176697 0.045074
0.694183 0.177887 0.043488
0.704865 0.178986 0.041748
0.715820 0.180115 0.040070
0.726654 0.181335 0.038513
0.737671 0.182526 0.036774
0.748810 0.183868 0.035095
0.760284 0.185181 0.032806
0.772034 0.186676 0.031128
0.784058 0.188141 0.028687
0.796600 0.189453 0.026642
0.809326 0.190918 0.024414
0.822357 0.192627 0.022308
0.835663 0.194153 0.019928
0.845032 0.200592 0.027344
0.849426 0.212402 0.046600
0.853516 0.224060 0.068329
0.082703 0.148804 0.093628
0.092346 0.149017 0.090210
0.107758 0.146240 0.093079
0.119415 0.143524 0.096252
0.129852 0.144073 0.096283
0.141724 0.145966 0.097992
0.156036 0.149078 0.097626
0.171875 0.151306 0.096802
0.187805 0.153351 0.095062
0.204651 0.154755 0.093597
0.221741 0.155640 0.092377
0.239044 0.156494 0.090607
0.255951 0.157257 0.089447
0.273163 0.157745 0.087738
0.289459 0.158295 0.086334
0.304657 0.158936 0.085571
0.318542 0.160034 0.084839
0.332581 0.160553 0.084442
0.345490 0.161469 0.083344
0.358215 0.162140 0.082672
0.370331 0.162964 0.081696
0.382263 0.163696 0.081024
0.393799 0.164398 0.080475
0.405151 0.165192 0.079773
0.416443 0.165985 0.078400
0.427582 0.166779 0.078033
0.438965 0.167511 0.076813
0.450073 0.168396 0.076172
0.461823 0.169189 0.075256
0.473450 0.170074 0.073883
0.485199 0.171051 0.072906
0.497406 0.171906 0.071869
0.509521 0.172943 0.070465
0.521576 0.173950 0.069336
0.534119 0.174835 0.068359
0.546143 0.176056 0.066681
0.558594 0.177002 0.065369
0.570740 0.178284 0.063568
0.583069 0.179291 0.061981
0.595245 0.180328 0.060608
0.607300 0.181488 0.059540
0.619293 0.182556 0.058075
0.630951 0.183807 0.056244
0.642822 0.184753 0.055298
0.654175 0.186005 0.053345
0.665283 0.187164 0.052002
0.676483 0.188171 0.050293
0.687408 0.189331 0.048828
0.698212 0.190460 0.047241
0.708984 0.191589 0.045593
0.719635 0.192719 0.044037
0.730743 0.193939 0.042267
0.741791 0.195068 0.040527
0.753113 0.196289 0.039093
0.764587 0.197632 0.036835
0.776520 0.198975 0.034943
0.788574 0.200104 0.033051
0.801208 0.201508 0.031036
0.813904 0.203033 0.028809
0.827087 0.204529 0.026428
0.840454 0.206055 0.024139
0.849487 0.212677 0.031464
0.853546 0.223999 0.050659
0.857269 0.235535 0.071777
0.081970 0.163513 0.095764
0.090881 0.163605 0.091309
0.106964 0.161469 0.093079
0.120087 0.159149 0.096039
0.131195 0.156952 0.098633
0.142120 0.157349 0.099091
0.154297 0.159485 0.100433
0.168427 0.162628 0.100708
0.185242 0.165466 0.099670
0.201996 0.167755 0.098480
0.219116 0.169586 0.097290
0.237091 0.170685 0.095703
0.253754 0.172058 0.094147
0.270966 0.172974 0.092438
0.287964 0.173553 0.090912
0.303558 0.174377 0.089661
0.319092 0.174835 0.088043
0.334229 0.175110 0.085999
0.347168 0.176025 0.085266
0.359711 0.176788 0.084595
0.372437 0.177307 0.083740
0.384155 0.178131 0.082855
0.395813 0.178864 0.082397
0.407227 0.179565 0.081421
0.418610 0.180176 0.080933
0.429871 0.181000 0.079773
0.441162 0.181854 0.079041
0.452667 0.182434 0.078247
0.464050 0.183380 0.077026
0.475891 0.184113 0.076324
0.487915 0.184967 0.075043
0.499756 0.186005 0.074158
0.512085 0.186859 0.072998
0.524384 0.187927 0.071625
0.536743 0.188782 0.070526
0.549194 0.189789 0.069244
0.561371 0.190948 0.067688
0.573822 0.191895 0.066620
0.586151 0.192841 0.065033
0.598480 0.193970 0.063843
0.610626 0.194946 0.062469
0.622559 0.196198 0.060883
0.634521 0.197144 0.059479
0.646088 0.198242 0.058136
0.657715 0.199341 0.056488
0.668823 0.200439 0.055145
0.680145 0.201508 0.053558
0.691010 0.202545 0.052490
0.701996 0.203613 0.050720
0.712738 0.204590 0.049042
0.723694 0.205811 0.047272
0.734619 0.206940 0.045837
0.745789 0.208099 0.044678
0.757233 0.209320 0.042358
0.768738 0.210419 0.041199
0.780579 0.211792 0.039124
0.792847 0.213043 0.037018
0.805389 0.214417 0.035339
0.818359 0.215729 0.032990
0.831573 0.217316 0.030670
0.845062 0.218719 0.028931
0.854004 0.225067 0.035614
0.857635 0.236206 0.054077
0.860809 0.247375 0.074890
0.081970 0.178558 0.097534
0.089172 0.178894 0.092590
0.104156 0.177887 0.093903
0.119415 0.175140 0.096466
0.132599 0.172302 0.099365
0.143768 0.170746 0.101196
0.154755 0.171387 0.101685
0.167877 0.173340 0.103149
0.182190 0.176025 0.104370
0.199097 0.179718 0.103180
0.216339 0.182465 0.101898
0.234100 0.184631 0.100494
0.251923 0.186218 0.098785
0.268677 0.187592 0.097900
0.285522 0.188812 0.096252
0.301910 0.189697 0.094574
0.317169 0.190613 0.092896
0.332184 0.191162 0.091431
0.346130 0.191833 0.089691
0.359802 0.192383 0.088379
0.373016 0.192841 0.086456
0.385468 0.193481 0.085297
0.397797 0.194000 0.084137
0.409241 0.194672 0.083191
0.420654 0.195251 0.082672
0.431915 0.195953 0.082092
0.443237 0.196838 0.081238
0.454681 0.197510 0.080017
0.466278 0.198273 0.079468
0.478058 0.199188 0.078247
0.490204 0.199799 0.077515
0.502350 0.200745 0.076508
0.514526 0.201691 0.075165
0.526794 0.202667 0.074188
0.539337 0.203583 0.072784
0.551819 0.204468 0.071686
0.564270 0.205292 0.070374
0.576721 0.206329 0.068878
0.588959 0.207428 0.067657
0.601318 0.208466 0.066437
0.613464 0.209412 0.065094
0.625671 0.210510 0.063812
0.637573 0.211578 0.062286
0.649231 0.212646 0.061035
0.660889 0.213623 0.059540
0.672272 0.214478 0.058441
0.683502 0.215546 0.056793
0.694641 0.216492 0.055603
0.705475 0.217590 0.054077
0.716522 0.218628 0.052673
0.727448 0.219666 0.050995
0.738586 0.220734 0.049683
0.749634 0.221832 0.047943
0.761108 0.223022 0.046143
0.772766 0.224152 0.044617
0.784760 0.225342 0.042786
0.797028 0.226532 0.041168
0.809723 0.228058 0.039093
0.822662 0.229370 0.037201
0.835968 0.230713 0.035034
0.849548 0.232239 0.032928
0.858215 0.238220 0.039703
0.861603 0.249115 0.057709
0.864258 0.260071 0.078186
0.081055 0.194794 0.099670
0.087280 0.194977 0.093567
0.101898 0.194702 0.093628
0.118073 0.191956 0.096710
0.133087 0.188873 0.099640
0.145386 0.186066 0.102570
0.157013 0.185059 0.103943
0.168152 0.185852 0.104431
0.181885 0.188019 0.106171
0.196136 0.190521 0.107574
0.213501 0.194489 0.106506
0.231171 0.197693 0.105316
0.248962 0.200073 0.103912
0.266205 0.202087 0.102448
0.283142 0.203796 0.100769
0.299774 0.204956 0.099579
0.314789 0.206299 0.098297
0.329681 0.207123 0.097229
0.343903 0.208099 0.095276
0.357910 0.208740 0.093536
0.371002 0.209473 0.092102
0.383514 0.210144 0.091156
0.396301 0.210632 0.089691
0.408691 0.211151 0.087921
0.420746 0.211731 0.086334
0.432770 0.212158 0.085297
0.445099 0.212585 0.083099
0.456848 0.213287 0.082092
0.468506 0.214050 0.081085
0.480255 0.214874 0.080292
0.492493 0.215515 0.079651
0.504578 0.216553 0.078033
0.516815 0.217377 0.077301
0.529266 0.218201 0.076569
0.541901 0.218994 0.075195
0.554291 0.219971 0.073914
0.566772 0.220917 0.072693
0.579346 0.221771 0.071411
0.591827 0.222687 0.070404
0.604248 0.223694 0.069275
0.616333 0.224792 0.067841
0.628662 0.225647 0.066223
0.640717 0.226562 0.065369
0.652405 0.227753 0.063751
0.664215 0.228638 0.062347
0.675598 0.229553 0.061279
0.686829 0.230591 0.059540
0.697845 0.231537 0.058258
0.708832 0.232483 0.057404
0.719940 0.233521 0.056030
0.730896 0.234467 0.054382
0.742157 0.235504 0.052856
0.753510 0.236450 0.051422
0.765015 0.237762 0.049591
0.776672 0.238800 0.048065
0.788788 0.240021 0.046356
0.800934 0.241180 0.044647
0.813629 0.242523 0.042664
0.826813 0.243835 0.040955
0.840088 0.245026 0.038757
0.853882 0.246521 0.036987
0.862366 0.252502 0.043335
0.865356 0.262909 0.060791
0.867889 0.273438 0.081390
0.079407 0.212036 0.102051
0.084869 0.212067 0.094849
0.099670 0.211914 0.094330
0.116577 0.209290 0.097015
0.132233 0.206543 0.099762
0.145782 0.203766 0.103058
0.158081 0.200684 0.106232
0.170166 0.200470 0.106903
0.182251 0.201202 0.107300
0.196320 0.203430 0.109009
0.211212 0.205597 0.110687
0.228088 0.209595 0.110352
0.245911 0.212952 0.109222
0.263153 0.216003 0.107544
0.280304 0.218140 0.106537
0.296570 0.220184 0.104797
0.312073 0.221680 0.103790
0.327240 0.223053 0.102051
0.341675 0.223969 0.100952
0.355377 0.225189 0.099213
0.368378 0.226166 0.098206
0.381256 0.226959 0.096985
0.394043 0.227509 0.095612
0.406555 0.228149 0.094116
0.419037 0.228821 0.092468
0.431030 0.229462 0.091278
0.443329 0.230103 0.089142
0.454926 0.230927 0.088623
0.468628 0.231018 0.085480
0.480408 0.231903 0.084900
0.493195 0.232513 0.083099
0.506866 0.232849 0.080231
0.519043 0.233826 0.079407
0.531616 0.234650 0.078308
0.544281 0.235413 0.077423
0.556915 0.236298 0.075958
0.569458 0.237213 0.074799
0.581879 0.238129 0.073792
0.594452 0.239075 0.072876
0.606842 0.239899 0.071350
0.619202 0.240875 0.070190
0.631531 0.241699 0.069061
0.643646 0.242798 0.067749
0.655579 0.243683 0.066345
0.667297 0.244598 0.065338
0.678894 0.245483 0.063995
0.690002 0.246490 0.062744
0.701233 0.247375 0.061157
0.712250 0.248291 0.060333
0.723389 0.249268 0.058990
0.734619 0.250183 0.057648
0.745575 0.251282 0.056183
0.757080 0.252197 0.054443
0.768646 0.253296 0.052734
0.780426 0.254395 0.051392
0.792542 0.255493 0.049805
0.804840 0.256714 0.048126
0.817657 0.257874 0.046326
0.830872 0.259064 0.044281
0.844238 0.260529 0.042450
0.857849 0.261658 0.041168
0.866425 0.267517 0.046967
0.869110 0.277557 0.064331
0.871338 0.287628 0.083984
0.077240 0.230255 0.104828
0.082336 0.229858 0.096069
0.097015 0.229706 0.095825
0.113373 0.228027 0.097229
0.130219 0.224884 0.100220
0.145477 0.221863 0.103394
0.159729 0.218750 0.106354
0.171967 0.215729 0.109558
0.184387 0.216309 0.109772
0.197021 0.216919 0.110138
0.211487 0.219299 0.111908
0.226135 0.221588 0.113922
0.242767 0.225128 0.114014
0.260193 0.228851 0.112946
0.277161 0.231995 0.111572
0.293579 0.234528 0.110474
0.309479 0.236603 0.109039
0.324463 0.238373 0.107697
0.338928 0.239960 0.106384
0.352753 0.241241 0.105011
0.366486 0.242340 0.103455
0.379181 0.243317 0.102570
0.391510 0.244476 0.101410
0.404175 0.245300 0.100098
0.416443 0.246216 0.098450
0.428864 0.246887 0.096802
0.441406 0.247559 0.095215
0.453552 0.248352 0.094116
0.466461 0.249023 0.091980
0.478912 0.249756 0.090485
0.491608 0.250458 0.089417
0.504639 0.251282 0.087769
0.518524 0.251617 0.084869
0.531647 0.252441 0.083069
0.545105 0.253021 0.081238
0.558472 0.253754 0.079193
0.572021 0.254272 0.077240
0.584473 0.255249 0.075836
0.597107 0.256134 0.074493
0.609680 0.256927 0.073547
0.622070 0.257904 0.072418
0.634338 0.258759 0.071289
0.646393 0.259491 0.070374
0.658478 0.260468 0.069122
0.670288 0.261414 0.067780
0.681854 0.262146 0.066467
0.693176 0.263092 0.065399
0.704346 0.264069 0.064178
0.715576 0.264893 0.063110
0.726471 0.265839 0.061615
0.737915 0.266754 0.060455
0.748993 0.267700 0.059082
0.760468 0.268738 0.057312
0.772186 0.269653 0.056244
0.783997 0.270660 0.054596
0.796112 0.271729 0.052917
0.808655 0.272888 0.051483
0.821411 0.274048 0.049683
0.834747 0.275299 0.047668
0.848236 0.276550 0.046112
0.861877 0.277649 0.045319
0.870453 0.283142 0.050598
0.872742 0.292938 0.067780
0.874695 0.302643 0.087372
0.075134 0.248779 0.107635
0.078339 0.248688 0.098022
0.094543 0.247803 0.097168
0.110352 0.246918 0.097504
0.128113 0.243927 0.099915
0.144379 0.240936 0.103058
0.159180 0.237976 0.106293
0.173431 0.234497 0.109711
0.186340 0.231934 0.112488
0.198975 0.232574 0.112885
0.212128 0.233154 0.113281
0.226715 0.235504 0.114960
0.241516 0.237915 0.116638
0.256470 0.240784 0.118103
0.274109 0.244934 0.116608
0.290466 0.248169 0.115448
0.306610 0.250946 0.113922
0.321381 0.253082 0.113159
0.335785 0.255066 0.111938
0.350037 0.256836 0.110474
0.363525 0.258240 0.109222
0.376678 0.259674 0.107941
0.389069 0.260925 0.106964
0.401520 0.261993 0.106018
0.413849 0.263000 0.104553
0.426117 0.264038 0.103302
0.438629 0.264893 0.102020
0.451233 0.265717 0.100281
0.464050 0.266693 0.098358
0.476624 0.267487 0.097168
0.489868 0.268219 0.095184
0.502930 0.269043 0.093628
0.516693 0.269745 0.091370
0.529846 0.270477 0.089844
0.543213 0.271332 0.088074
0.556458 0.272217 0.086060
0.570068 0.272766 0.084137
0.584290 0.273346 0.081207
0.596954 0.274200 0.080109
0.610413 0.274933 0.078033
0.623749 0.275543 0.076019
0.636963 0.276062 0.073761
0.649139 0.277069 0.072479
0.661163 0.277893 0.071259
0.673126 0.278687 0.070068
0.684692 0.279602 0.069092
0.696136 0.280334 0.067810
0.707367 0.281281 0.066620
0.718536 0.282196 0.065460
0.729767 0.283051 0.064301
0.741028 0.283844 0.062988
0.752319 0.284760 0.061859
0.763763 0.285889 0.059967
0.775452 0.286682 0.059052
0.787476 0.287720 0.057434
0.799622 0.288605 0.055969
0.812164 0.289856 0.054047
0.825073 0.290924 0.052795
0.838409 0.292084 0.050873
0.851990 0.293152 0.049652
0.865662 0.294098 0.049286
0.874084 0.299622 0.053711
0.876099 0.308807 0.070526
0.877869 0.318115 0.089783
0.072449 0.267822 0.110718
0.074310 0.267700 0.100006
0.091309 0.266602 0.098724
0.106659 0.266266 0.098145
0.125153 0.263031 0.100616
0.142670 0.259735 0.103455
0.158905 0.256683 0.106262
0.173920 0.253479 0.109924
0.188049 0.249908 0.113556
0.201202 0.248230 0.115570
0.214111 0.248932 0.115875
0.227417 0.249573 0.116180
0.241974 0.251953 0.118103
0.256470 0.254364 0.119904
0.270691 0.256683 0.121429
0.286743 0.260498 0.121063
0.302521 0.263916 0.120056
0.318298 0.266846 0.118683
0.333008 0.269531 0.117004
0.346619 0.271454 0.116547
0.360291 0.273529 0.114929
0.373566 0.275055 0.113983
0.386353 0.276672 0.112640
0.398804 0.277954 0.111755
0.411499 0.279358 0.109924
0.423889 0.280518 0.108826
0.436279 0.281738 0.107513
0.448792 0.282684 0.106232
0.461731 0.283752 0.104401
0.474030 0.284973 0.103516
0.487457 0.285797 0.101868
0.500122 0.286835 0.100708
0.513916 0.287689 0.098572
0.527161 0.288635 0.097290
0.541077 0.289307 0.094696
0.554474 0.290283 0.093048
0.568665 0.291077 0.090393
0.582306 0.291809 0.088379
0.595673 0.292755 0.085968
0.609161 0.293427 0.084167
0.621399 0.294525 0.083466
0.635864 0.294769 0.080139
0.648926 0.295532 0.077820
0.660919 0.296295 0.076752
0.673737 0.296844 0.074799
0.686340 0.297668 0.072205
0.698883 0.297913 0.069946
0.710175 0.298828 0.068848
0.721375 0.299652 0.067780
0.732666 0.300507 0.066681
0.743927 0.301514 0.065247
0.755341 0.302399 0.063751
0.766876 0.303192 0.062592
0.778595 0.303955 0.061707
0.790588 0.305023 0.060120
0.802917 0.305939 0.058655
0.815430 0.307037 0.056915
0.828369 0.308044 0.055664
0.841919 0.309174 0.053925
0.855347 0.310181 0.053223
0.869141 0.311188 0.052979
0.877533 0.316376 0.056732
0.879425 0.325226 0.072815
0.880890 0.333832 0.092163
0.070343 0.286621 0.113403
0.070251 0.286865 0.101593
0.086945 0.285828 0.100464
0.103058 0.285187 0.099731
0.121704 0.282532 0.100708
0.140015 0.279419 0.103455
0.157288 0.275848 0.106689
0.173889 0.272675 0.109589
0.188965 0.269501 0.113129
0.203094 0.265503 0.117310
0.216064 0.264893 0.118500
0.229584 0.265350 0.118713
0.242828 0.266022 0.119019
0.257385 0.268311 0.120819
0.271484 0.270691 0.122559
0.285034 0.273041 0.124268
0.299347 0.276184 0.124847
0.314941 0.279633 0.123566
0.329559 0.282715 0.122589
0.343414 0.285309 0.121613
0.357178 0.287598 0.120667
0.370575 0.289917 0.118927
0.383514 0.291656 0.117950
0.395874 0.293182 0.117340
0.408508 0.294922 0.115845
0.420563 0.296387 0.114990
0.433075 0.297699 0.113892
0.446136 0.299225 0.111786
0.458893 0.300354 0.110626
0.471344 0.301605 0.109619
0.484497 0.302765 0.108276
0.497986 0.303864 0.106415
0.511658 0.304962 0.104431
0.525635 0.306000 0.102234
0.538788 0.307098 0.101227
0.553009 0.307892 0.098663
0.566376 0.308899 0.096863
0.579834 0.309784 0.095337
0.593292 0.310669 0.093750
0.606567 0.311584 0.091827
0.621002 0.312408 0.088348
0.633179 0.313507 0.087677
0.646393 0.314148 0.085693
0.660339 0.314545 0.082428
0.672241 0.315582 0.081299
0.684723 0.316315 0.079315
0.697205 0.316956 0.076874
0.709656 0.317505 0.074463
0.720978 0.318237 0.073639
0.733307 0.318787 0.071350
0.745667 0.319427 0.068756
0.758087 0.319855 0.066040
0.769836 0.320679 0.065063
0.781647 0.321625 0.063751
0.793549 0.322540 0.062531
0.805908 0.323517 0.060791
0.818604 0.324585 0.059509
0.831665 0.325470 0.058136
0.845032 0.326538 0.056885
0.858459 0.327576 0.056641
0.872345 0.328400 0.056427
0.880798 0.333618 0.058960
0.882568 0.341705 0.075439
0.883789 0.349823 0.094086
0.066315 0.306213 0.116791
0.066681 0.305817 0.103760
0.082275 0.305145 0.102325
0.099304 0.304016 0.101440
0.117004 0.302399 0.101135
0.137054 0.298645 0.103333
0.155212 0.295105 0.106598
0.172638 0.291473 0.109955
0.189148 0.288116 0.113251
0.204193 0.284485 0.117157
0.218292 0.280762 0.120880
0.231445 0.281097 0.121521
0.244690 0.281738 0.121826
0.257721 0.282471 0.121918
0.272003 0.284790 0.123627
0.285583 0.287018 0.125610
0.299133 0.289001 0.127319
0.311493 0.291077 0.128998
0.325806 0.294800 0.127838
0.339569 0.297760 0.127319
0.353638 0.300934 0.125854
0.367188 0.303345 0.124634
0.379913 0.305573 0.123901
0.392548 0.307678 0.122803
0.405273 0.309540 0.121765
0.418030 0.311432 0.120148
0.430328 0.312958 0.119385
0.442657 0.314514 0.118073
0.456085 0.316101 0.116302
0.468384 0.317413 0.115967
0.482330 0.318970 0.113495
0.495697 0.320312 0.111969
0.508667 0.321533 0.111023
0.522339 0.322784 0.109253
0.536346 0.323822 0.107422
0.549622 0.325165 0.105927
0.563873 0.326202 0.103790
0.578094 0.327118 0.101379
0.590515 0.328278 0.100830
0.604828 0.329193 0.098114
0.618164 0.330292 0.096191
0.632385 0.330872 0.093140
0.645447 0.331879 0.090942
0.657623 0.332886 0.090057
0.671326 0.333496 0.086639
0.683014 0.334564 0.085999
0.695404 0.335388 0.083588
0.707703 0.335846 0.081635
0.720154 0.336456 0.079285
0.731354 0.337463 0.078644
