luts/green.CUBE
#Created by: Adobe Photoshop Export Color Lookup Plugin
TITLE "green"
#LUT size
LUT_3D_SIZE 8
#data domain
DOMAIN_MIN 0.0 0.0 0.0
DOMAIN_MAX 1.0 1.0 1.0
#LUT data points
0.083221 0.094452 0.086639
0.204407 0.099274 0.082916
0.337738 0.107666 0.075714
0.439392 0.116608 0.065765
0.544769 0.127350 0.052185
0.648834 0.139282 0.035889
0.745728 0.151398 0.018616
0.841278 0.192200 0.056824
0.077240 0.230255 0.104828
0.197021 0.216919 0.110138
0.338928 0.239960 0.106384
0.453552 0.248352 0.094116
0.572021 0.254272 0.077240
0.681854 0.262146 0.066467
0.783997 0.270660 0.054596
0.874695 0.302643 0.087372
0.060822 0.389313 0.126465
0.201385 0.371033 0.116394
0.326599 0.356537 0.135040
0.428528 0.375610 0.142303
0.551605 0.397430 0.130676
0.672882 0.411591 0.115448
0.785889 0.421692 0.097107
0.897064 0.437592 0.102936
0.069855 0.505432 0.131897
0.178864 0.502838 0.115265
0.339996 0.466797 0.147675
0.428497 0.466461 0.153107
0.530548 0.483246 0.165741
0.653503 0.510101 0.154572
0.769012 0.528351 0.139282
0.906647 0.544891 0.112579
0.079651 0.627838 0.134186
0.111633 0.660156 0.122620
0.340790 0.600830 0.142822
0.442749 0.577454 0.169830
0.535889 0.582062 0.170624
0.638000 0.598907 0.183411
0.745880 0.622131 0.181366
0.884674 0.649384 0.161346
0.089874 0.750916 0.132477
0.118042 0.779266 0.118042
0.326935 0.740845 0.127930
0.451355 0.711182 0.162659
0.550323 0.693329 0.186432
0.643311 0.698059 0.186829
0.739594 0.713837 0.198914
0.861237 0.738220 0.203278
0.100281 0.867340 0.125244
0.123108 0.890320 0.123108
0.296051 0.876404 0.127991
0.448029 0.839417 0.146759
0.562408 0.810730 0.186737
0.657196 0.802734 0.200684
0.744690 0.807312 0.200653
0.858887 0.825989 0.214996
0.117340 0.982483 0.170837
0.143250 1.000000 0.143250
0.276764 1.000000 0.212646
0.428802 0.995880 0.139923
0.566559 0.963837 0.161072
0.673065 0.935028 0.206879
0.761353 0.931732 0.215576
0.865173 0.937225 0.214905
0.085754 0.118622 0.201996
0.201630 0.104950 0.202759
0.334167 0.110931 0.199371
0.437500 0.115112 0.188507
0.542603 0.122314 0.173065
0.645538 0.131561 0.156067
0.740662 0.141937 0.139465
0.835999 0.181366 0.166321
0.088654 0.223145 0.196625
0.210175 0.231079 0.216187
0.349335 0.235718 0.213043
0.455933 0.240997 0.209412
0.566711 0.247375 0.203949
0.675842 0.255127 0.196594
0.777527 0.263214 0.188171
0.874268 0.301056 0.217621
0.063965 0.385956 0.233124
0.207306 0.383667 0.235931
0.339325 0.370453 0.243378
0.448792 0.390228 0.243927
0.571045 0.401581 0.233582
0.690735 0.407806 0.222321
0.800842 0.412506 0.211029
0.896454 0.436890 0.239319
0.071869 0.504242 0.253143
0.196808 0.507355 0.253571
0.348358 0.487762 0.252014
0.440979 0.480042 0.263977
0.549194 0.500214 0.271118
0.672485 0.520569 0.261658
0.787567 0.532196 0.250244
0.908539 0.544983 0.250824
0.080170 0.628571 0.271118
0.169769 0.644440 0.277954
0.336914 0.621704 0.253174
0.454620 0.596588 0.278076
0.547760 0.595245 0.284851
0.650055 0.612000 0.297821
0.765411 0.636658 0.290405
0.902893 0.657074 0.277313
0.089325 0.750458 0.278870
0.129913 0.787354 0.306519
0.310028 0.760254 0.254761
0.454407 0.730682 0.277405
0.562042 0.706085 0.303558
0.654877 0.710754 0.304993
0.751221 0.726471 0.317200
0.880981 0.754242 0.315247
0.097992 0.865204 0.285126
0.138672 0.902100 0.312500
0.268005 0.896637 0.261078
0.441711 0.859619 0.275055
0.570099 0.831421 0.302429
0.668427 0.814972 0.322083
0.755676 0.819397 0.323395
0.869995 0.838013 0.337708
0.115479 0.980743 0.318207
0.188324 1.000000 0.370209
0.279297 1.000000 0.341309
0.426483 1.000000 0.292816
0.565063 0.982391 0.298584
0.681915 0.954132 0.328400
0.771790 0.943207 0.342987
0.875366 0.948486 0.344421
0.087708 0.146576 0.332977
0.178528 0.107056 0.329865
0.330750 0.120361 0.331482
0.430389 0.129578 0.330231
0.536530 0.136169 0.322449
0.641510 0.143402 0.309631
0.738617 0.150787 0.293121
0.837646 0.184021 0.300995
0.087189 0.273346 0.346344
0.212921 0.258545 0.347717
0.345367 0.242706 0.348663
0.451080 0.246979 0.349365
0.563812 0.248566 0.343109
0.674133 0.252136 0.333069
0.776947 0.255859 0.321106
0.873291 0.292175 0.336670
0.076752 0.377380 0.328796
0.218323 0.376587 0.340546
0.354095 0.386688 0.363556
0.464233 0.389862 0.361298
0.578094 0.394287 0.358429
0.690674 0.399567 0.354736
0.795471 0.405243 0.350281
0.897949 0.436859 0.373291
0.077271 0.493561 0.337738
0.210846 0.498474 0.362152
0.353607 0.505737 0.378815
0.455688 0.496094 0.385132
0.573029 0.515015 0.383575
0.695282 0.522736 0.373779
0.807922 0.526306 0.364136
0.910187 0.546967 0.386536
0.085541 0.618042 0.362671
0.184082 0.637390 0.400116
0.348999 0.632751 0.395569
0.462006 0.621338 0.392853
0.562347 0.611206 0.407349
0.673035 0.632050 0.412781
0.789001 0.649231 0.404541
0.920349 0.661560 0.398010
0.093719 0.742859 0.384613
0.132141 0.788116 0.445892
0.339142 0.762329 0.413727
0.447784 0.754913 0.394745
0.575470 0.729370 0.420837
0.669312 0.726410 0.429047
0.765594 0.742126 0.441315
0.903839 0.770050 0.432129
0.101562 0.859802 0.404053
0.140289 0.903992 0.460175
0.322906 0.887390 0.433136
0.424194 0.883148 0.397217
0.574646 0.855408 0.421143
0.682709 0.830536 0.447296
0.769989 0.834869 0.449097
0.884155 0.853546 0.463531
0.116638 0.982117 0.438721
0.194885 1.000000 0.503510
0.348419 1.000000 0.486755
0.428864 1.000000 0.436279
0.566620 1.000000 0.433350
0.690643 0.978058 0.448761
0.785889 0.958496 0.470337
0.889374 0.963684 0.472229
0.089325 0.168579 0.435455
0.152374 0.108765 0.428680
0.324585 0.123199 0.431305
0.429962 0.133972 0.430603
0.532532 0.145721 0.428345
0.637421 0.153351 0.421356
0.734497 0.161469 0.410004
0.838928 0.186615 0.406250
0.084839 0.299042 0.452271
0.214996 0.280243 0.450806
0.330719 0.244354 0.449188
0.449280 0.253204 0.451752
0.556824 0.260986 0.452637
0.668060 0.263916 0.448608
0.771454 0.267334 0.440155
0.874664 0.294647 0.441650
0.075195 0.437561 0.466980
0.220459 0.420319 0.462311
0.356384 0.408142 0.467072
0.461243 0.395294 0.467987
0.574951 0.397675 0.468292
0.689514 0.398193 0.462250
0.795441 0.400177 0.454590
0.898041 0.429382 0.465851
0.079498 0.493439 0.427429
0.220032 0.492981 0.439880
0.361938 0.500366 0.460907
0.467102 0.508972 0.479370
0.583130 0.512177 0.476959
0.697601 0.516296 0.474335
0.804199 0.520874 0.471344
0.911560 0.547180 0.489685
0.089905 0.609222 0.425781
0.207245 0.621124 0.457397
0.357635 0.627625 0.484497
0.467041 0.633850 0.495361
0.573883 0.623901 0.502106
0.691162 0.643097 0.501099
0.807037 0.650726 0.491821
0.921936 0.664490 0.502106
0.098358 0.733276 0.451782
0.147522 0.774811 0.511414
0.343964 0.761353 0.515991
0.463623 0.760468 0.511871
0.581146 0.749054 0.510101
0.680847 0.739014 0.524445
0.784210 0.758423 0.530426
0.921509 0.778717 0.521393
0.106232 0.850250 0.474274
0.144379 0.896393 0.537140
0.324432 0.889435 0.544952
0.457306 0.881073 0.528137
0.569702 0.874023 0.511902
0.693665 0.848450 0.538666
0.781403 0.847382 0.545105
0.898254 0.867859 0.557343
0.117554 0.983154 0.502289
0.200165 1.000000 0.579987
0.354736 1.000000 0.588501
0.477814 1.000000 0.569000
0.567108 1.000000 0.539917
0.693268 0.997070 0.540131
0.797485 0.973755 0.564697
0.900787 0.976105 0.569244
0.089905 0.192291 0.543457
0.125519 0.111176 0.531830
0.297668 0.124634 0.535339
0.429932 0.137787 0.535065
0.532593 0.149445 0.533142
0.634094 0.162018 0.529877
0.729767 0.172607 0.524200
0.839569 0.189941 0.515717
0.080383 0.325653 0.564240
0.216888 0.303223 0.558868
0.303986 0.245483 0.554016
0.441498 0.255524 0.557159
0.556885 0.265289 0.558777
0.662445 0.275055 0.559143
0.764465 0.280212 0.556427
0.875916 0.297516 0.551636
0.078491 0.465057 0.576324
0.219208 0.447418 0.573486
0.358582 0.430878 0.575562
0.443054 0.396698 0.573730
0.572021 0.405365 0.577087
0.682312 0.410980 0.578979
0.788696 0.412811 0.576263
0.899628 0.431946 0.575592
0.088501 0.564056 0.580261
0.220337 0.552338 0.581299
0.364197 0.541260 0.584625
0.469696 0.531433 0.588196
0.580048 0.517822 0.589142
0.694092 0.520233 0.589783
0.802582 0.520294 0.584747
0.912354 0.541565 0.589264
0.091583 0.611389 0.526978
0.213715 0.618835 0.547546
0.367401 0.621033 0.563904
0.475616 0.628326 0.581573
0.585999 0.637421 0.601044
0.702423 0.640472 0.598694
0.810425 0.644135 0.596283
0.923492 0.664734 0.609833
0.102020 0.727264 0.525452
0.191254 0.748840 0.560242
0.362518 0.746552 0.580048
0.472870 0.754822 0.604614
0.586121 0.762329 0.617065
0.692932 0.752441 0.623840
0.803009 0.770782 0.623383
0.931854 0.782257 0.621521
0.110535 0.841705 0.540955
0.148987 0.887207 0.606873
0.345276 0.874084 0.614410
0.462677 0.879578 0.633240
0.583954 0.880890 0.632385
0.700500 0.869202 0.632202
0.793488 0.860718 0.644958
0.919098 0.884277 0.649414
0.120117 0.979706 0.569458
0.204987 1.000000 0.641449
0.360291 1.000000 0.664917
0.484314 1.000000 0.676117
0.607727 1.000000 0.671661
0.706390 1.000000 0.659515
0.807556 0.993927 0.659180
0.912842 0.989288 0.669678
0.089569 0.216461 0.651489
0.106171 0.114563 0.634430
0.270355 0.126343 0.638855
0.403503 0.139191 0.639282
0.532288 0.153473 0.637390
0.634094 0.165771 0.634552
0.728699 0.178162 0.630646
0.840118 0.193420 0.624786
0.077667 0.351196 0.674194
0.218262 0.326508 0.666992
0.276947 0.246948 0.658478
0.415039 0.256622 0.662109
0.557404 0.268433 0.664276
0.663177 0.278320 0.664764
0.761505 0.288177 0.664398
0.876862 0.300751 0.661194
0.081665 0.490875 0.685455
0.218750 0.473328 0.683777
0.360931 0.453674 0.683990
0.416168 0.397949 0.679047
0.562592 0.407349 0.683014
0.681519 0.416290 0.685608
0.782440 0.424438 0.687256
0.901031 0.434753 0.685608
0.091919 0.591949 0.689575
0.216980 0.582428 0.693726
0.364227 0.567047 0.695312
0.472015 0.554169 0.696869
0.562317 0.519318 0.695160
0.691376 0.527679 0.698547
0.795288 0.533112 0.700806
0.914001 0.544220 0.699677
0.102081 0.697266 0.694458
0.209076 0.694336 0.705414
0.370728 0.676117 0.701111
0.478516 0.669800 0.705750
0.588623 0.659882 0.710022
0.699188 0.646210 0.710968
0.806915 0.648102 0.711792
0.924591 0.661102 0.712067
0.103729 0.729492 0.626648
0.193298 0.750854 0.661316
0.369354 0.743439 0.668304
0.481873 0.748779 0.684479
0.594849 0.756683 0.703308
0.705078 0.765961 0.722870
0.814667 0.768768 0.720673
0.933563 0.783569 0.729095
0.113586 0.838531 0.625305
0.152649 0.881470 0.681732
0.365936 0.858093 0.673004
0.480591 0.864716 0.697113
0.592987 0.875214 0.724213
0.705383 0.883362 0.737915
0.805664 0.874146 0.744354
0.937866 0.894104 0.741882
0.124634 0.970551 0.634796
0.196167 1.000000 0.702515
0.361786 1.000000 0.723053
0.488953 1.000000 0.740753
0.614655 1.000000 0.766998
0.735870 1.000000 0.779480
0.830200 1.000000 0.780884
0.926575 1.000000 0.779541
0.090057 0.238800 0.752899
0.087219 0.118256 0.730621
0.243347 0.128845 0.735229
0.377716 0.140961 0.736694
0.515442 0.155548 0.735474
0.633575 0.169708 0.732391
0.728485 0.181854 0.728882
0.840179 0.196930 0.723755
0.076080 0.374359 0.777039
0.219727 0.348328 0.768585
0.255585 0.248962 0.756439
0.389526 0.258026 0.760193
0.532532 0.269470 0.762848
0.663879 0.281433 0.763794
0.762207 0.291260 0.763489
0.877747 0.303680 0.761902
0.084381 0.514343 0.787842
0.216888 0.497375 0.788239
0.362762 0.475220 0.785828
0.393494 0.399200 0.777954
0.537750 0.408356 0.781952
0.682343 0.418976 0.785309
0.783478 0.427246 0.786957
0.902222 0.437531 0.788147
0.094849 0.617035 0.792572
0.213379 0.609070 0.799408
0.364349 0.590546 0.798981
0.474213 0.575531 0.798920
0.537170 0.520294 0.794342
0.683899 0.529663 0.798340
0.795044 0.537537 0.801025
0.915466 0.546814 0.803284
0.105652 0.721436 0.796204
0.201721 0.725037 0.813049
0.369934 0.703247 0.805939
0.478851 0.694122 0.809937
0.590851 0.681183 0.812317
0.683075 0.647583 0.810822
0.804321 0.655182 0.814026
0.926178 0.663544 0.815826
0.115417 0.829193 0.802338
0.157471 0.854187 0.841248
0.371887 0.811218 0.813690
0.485657 0.802612 0.815826
0.597534 0.796661 0.821106
0.707428 0.787109 0.825378
0.811615 0.774170 0.826263
0.934875 0.781799 0.827454
0.115143 0.840576 0.720459
0.154266 0.883575 0.776794
0.367523 0.860138 0.768036
0.485565 0.863068 0.781982
0.601318 0.869751 0.799896
0.713470 0.878113 0.819000
0.817047 0.886902 0.837463
0.941711 0.896118 0.840912
0.126801 0.969940 0.718750
0.192139 1.000000 0.773224
0.356537 0.999207 0.776367
0.482788 0.999786 0.792267
0.615234 1.000000 0.821442
0.743622 1.000000 0.855316
0.855957 1.000000 0.882477
0.951019 1.000000 0.905396
0.089813 0.265686 0.873474
0.082947 0.140717 0.848907
0.210266 0.132477 0.848755
0.345642 0.143738 0.851196
0.484863 0.157654 0.851044
0.621521 0.173370 0.848419
0.727905 0.186493 0.845062
0.839935 0.201355 0.840332
0.073395 0.402313 0.899109
0.220734 0.374603 0.889130
0.234619 0.252136 0.872467
0.359161 0.259827 0.876160
0.502533 0.271027 0.879272
0.644073 0.283569 0.880768
0.762451 0.295258 0.880646
0.878204 0.307617 0.879364
0.087341 0.540985 0.909515
0.216858 0.523926 0.909821
0.364868 0.500946 0.906586
0.373718 0.401581 0.895111
0.507751 0.409729 0.898926
0.652679 0.420074 0.902588
0.784821 0.430542 0.904999
0.903473 0.440918 0.906342
0.098419 0.645630 0.914032
0.208984 0.640015 0.924225
0.365875 0.616669 0.920288
0.476532 0.601044 0.919891
0.509460 0.521820 0.911865
0.654419 0.530762 0.915894
0.791107 0.540344 0.919312
0.916931 0.549988 0.921875
0.109344 0.752045 0.918243
0.190857 0.761200 0.941071
0.369354 0.733154 0.929413
0.478912 0.721832 0.933319
0.593414 0.706543 0.933502
0.653320 0.648743 0.928711
0.791779 0.657318 0.932465
0.927887 0.666565 0.935913
0.119995 0.855743 0.922028
0.157349 0.884827 0.963745
0.369476 0.844727 0.938751
0.485992 0.834198 0.939453
0.598602 0.825317 0.944305
0.710205 0.812378 0.946838
0.790222 0.775665 0.944763
0.936737 0.784668 0.948700
0.128967 0.958374 0.928436
0.166534 0.985138 0.969360
0.366760 0.948334 0.947968
0.490356 0.934326 0.945312
0.605682 0.927673 0.949646
0.716736 0.921692 0.955170
0.819916 0.911987 0.959137
0.943512 0.896667 0.960205
0.128693 0.972382 0.831726
0.201050 1.000000 0.880035
0.361938 1.000000 0.888458
0.487000 1.000000 0.898926
0.617126 1.000000 0.913788
0.746277 1.000000 0.931396
0.866089 1.000000 0.952545
1.000000 1.000000 1.000000
