luts/green.CUBE
#Created by: Adobe Photoshop Export Color Lookup Plugin
TITLE "green"
#LUT size
LUT_3D_SIZE 4
#data domain
DOMAIN_MIN 0.0 0.0 0.0
DOMAIN_MAX 1.0 1.0 1.0
#LUT data points
0.083221 0.094452 0.086639
0.373535 0.110565 0.072510
0.615295 0.135376 0.041534
0.841278 0.192200 0.056824
0.063995 0.429779 0.128693
0.362000 0.394928 0.141296
0.627594 0.442993 0.134186
0.901794 0.474731 0.105438
0.086517 0.711151 0.133423
0.377960 0.685181 0.144897
0.608582 0.660675 0.181824
0.868774 0.711182 0.190338
0.117340 0.982483 0.170837
0.336639 1.000000 0.177856
0.641327 0.944916 0.192535
0.865173 0.937225 0.214905
0.088562 0.154083 0.368805
0.365448 0.125031 0.366211
0.606537 0.144196 0.353210
0.837982 0.184998 0.337891
0.071930 0.420319 0.365601
0.393463 0.429321 0.403931
0.657074 0.438354 0.397797
0.903046 0.475098 0.414246
0.092743 0.699097 0.401642
0.386749 0.719452 0.441772
0.638824 0.693665 0.455414
0.916718 0.739624 0.451447
0.116974 0.982452 0.461151
0.394806 1.000000 0.512024
0.652100 0.992584 0.472626
0.893402 0.967957 0.506287
0.090393 0.208313 0.616577
0.325714 0.130035 0.605927
0.601379 0.160492 0.601868
0.840027 0.192230 0.589478
0.084381 0.518036 0.651581
0.398956 0.481323 0.653595
0.649902 0.451416 0.655304
0.905426 0.471802 0.655365
0.099823 0.691437 0.594513
0.408630 0.705505 0.640015
0.666748 0.724457 0.683624
0.930450 0.745178 0.690704
0.122772 0.974792 0.614105
0.407593 1.000000 0.709381
0.694672 1.000000 0.744415
0.921051 0.998322 0.737366
0.089813 0.265686 0.873474
0.257874 0.136139 0.849854
0.577667 0.168091 0.849457
0.839935 0.201355 0.840332
0.091583 0.578186 0.910583
0.403809 0.535828 0.911285
0.606842 0.455109 0.906250
0.908478 0.478699 0.912048
0.116699 0.822510 0.920532
0.411591 0.804749 0.935272
0.672546 0.778259 0.942566
0.934052 0.746490 0.944672
0.128693 0.972382 0.831726
0.405975 0.999908 0.891479
0.704681 1.000000 0.925323
1.000000 1.000000 1.000000
