luts/pink.CUBE
#Created by: Adobe Photoshop Export Color Lookup Plugin
TITLE "Untitled Session02649.JPG"
#LUT size
LUT_3D_SIZE 64
#data domain
DOMAIN_MIN 0.0 0.0 0.0
DOMAIN_MAX 1.0 1.0 1.0
#LUT data points
0.162170 0.105652 0.083252
0.171570 0.105621 0.082855
0.181122 0.105682 0.082458
0.190948 0.105682 0.082001
0.201416 0.105713 0.081512
0.212555 0.105713 0.080994
0.224609 0.105713 0.080353
0.237640 0.105774 0.079620
0.251678 0.105804 0.078827
0.266602 0.105835 0.077911
0.282074 0.105896 0.076904
0.297821 0.105927 0.075775
0.313873 0.105927 0.074585
0.330017 0.105957 0.073273
0.346741 0.105988 0.071899
0.363953 0.106018 0.070496
0.381378 0.106049 0.069000
0.398956 0.106079 0.067474
0.416779 0.106049 0.065887
0.434631 0.106079 0.064270
0.452515 0.106049 0.062592
0.470337 0.106110 0.060974
0.488129 0.106110 0.059265
0.505829 0.106110 0.057617
0.523224 0.106079 0.055908
0.540161 0.106049 0.054199
0.556793 0.106049 0.052490
0.573059 0.106049 0.050751
0.588989 0.106049 0.049011
0.604645 0.106018 0.047272
0.619995 0.105988 0.045502
0.635071 0.105988 0.043732
0.649902 0.105896 0.041962
0.664520 0.105896 0.040192
0.678955 0.105865 0.038422
0.693207 0.105804 0.036652
0.707214 0.105774 0.034821
0.721100 0.105774 0.033051
0.734863 0.105743 0.031250
0.748505 0.105652 0.029449
0.761963 0.105652 0.027618
0.775360 0.105621 0.025818
0.788696 0.105591 0.024048
0.801910 0.105499 0.022247
0.815186 0.105499 0.020477
0.828369 0.105438 0.018677
0.841522 0.105347 0.016876
0.854828 0.105316 0.015106
0.868256 0.105286 0.013367
0.881805 0.105255 0.011597
0.895691 0.105164 0.009827
0.909821 0.105103 0.008057
0.924500 0.105072 0.006256
0.939941 0.105011 0.004547
0.956299 0.104980 0.002747
0.974121 0.104919 0.001007
0.993774 0.105316 0.000000
1.000000 0.112976 0.011719
1.000000 0.123108 0.028168
1.000000 0.132935 0.044373
1.000000 0.142456 0.060303
1.000000 0.151642 0.075806
1.000000 0.160614 0.091003
1.000000 0.169464 0.105774
0.159729 0.112854 0.082947
0.173859 0.111298 0.081726
0.183258 0.110229 0.081268
0.191772 0.111511 0.081665
0.201294 0.112640 0.081757
0.212433 0.112610 0.081207
0.224457 0.112640 0.080566
0.237488 0.112640 0.079865
0.251526 0.112671 0.079071
0.266418 0.112701 0.078125
0.281891 0.112671 0.077148
0.297638 0.112732 0.076019
0.313660 0.112732 0.074799
0.329865 0.112732 0.073517
0.346558 0.112762 0.072144
0.363739 0.112732 0.070709
0.381165 0.112762 0.069214
0.398773 0.112762 0.067657
0.416534 0.112732 0.066071
0.434418 0.112732 0.064453
0.452271 0.112732 0.062805
0.470123 0.112701 0.061127
0.487915 0.112701 0.059448
0.505646 0.112640 0.057800
0.523010 0.112579 0.056061
0.539948 0.112579 0.054382
0.556580 0.112579 0.052643
0.572845 0.112518 0.050903
0.588806 0.112427 0.049164
0.604401 0.112427 0.047424
0.619843 0.112366 0.045654
0.634888 0.112335 0.043884
0.649719 0.112244 0.042084
0.664337 0.112305 0.040314
0.678802 0.112183 0.038544
0.693024 0.112183 0.036774
0.707062 0.112000 0.034912
0.720947 0.112000 0.033142
0.734711 0.111969 0.031342
0.748352 0.111908 0.029510
0.761810 0.111847 0.027710
0.775238 0.111755 0.025909
0.788574 0.111694 0.024139
0.801788 0.111603 0.022308
0.815033 0.111664 0.020538
0.828278 0.111572 0.018738
0.841461 0.111420 0.016937
0.854736 0.111481 0.015167
0.868164 0.111359 0.013397
0.881744 0.111237 0.011627
0.895569 0.111237 0.009827
0.909790 0.111084 0.008087
0.924500 0.111115 0.006287
0.939880 0.110962 0.004547
0.956299 0.110992 0.002777
0.974121 0.110840 0.001038
0.993713 0.111267 0.000000
1.000000 0.118500 0.011719
1.000000 0.128448 0.028229
1.000000 0.138062 0.044464
1.000000 0.147156 0.060425
1.000000 0.156219 0.075958
1.000000 0.165039 0.091187
1.000000 0.173492 0.105988
0.157288 0.120209 0.082642
0.171936 0.120758 0.080719
0.185547 0.117035 0.080078
0.196289 0.114258 0.078949
0.205292 0.115173 0.079224
0.214874 0.116608 0.079651
0.225220 0.118439 0.080200
0.237335 0.119629 0.080109
0.251343 0.119629 0.079346
0.266266 0.119629 0.078400
0.281708 0.119629 0.077362
0.297424 0.119629 0.076263
0.313477 0.119629 0.075012
0.329620 0.119598 0.073730
0.346344 0.119598 0.072357
0.363556 0.119537 0.070923
0.380981 0.119537 0.069427
0.398529 0.119476 0.067902
0.416321 0.119446 0.066284
0.434204 0.119446 0.064667
0.452087 0.119415 0.062988
0.469879 0.119324 0.061340
0.487640 0.119354 0.059662
0.505371 0.119293 0.057953
0.522766 0.119202 0.056274
0.539734 0.119202 0.054535
0.556366 0.119080 0.052826
0.572601 0.119080 0.051056
0.588593 0.119019 0.049316
0.604187 0.118958 0.047577
0.619598 0.118896 0.045807
0.634644 0.118835 0.044037
0.649536 0.118713 0.042236
0.664154 0.118683 0.040436
0.678589 0.118622 0.038666
0.692841 0.118530 0.036865
0.706879 0.118408 0.035034
0.720825 0.118439 0.033264
0.734558 0.118225 0.031433
0.748199 0.118164 0.029602
0.761688 0.118103 0.027802
0.775085 0.117981 0.026001
0.788422 0.118042 0.024200
0.801666 0.117920 0.022369
0.814911 0.117767 0.020599
0.828186 0.117767 0.018799
0.841370 0.117554 0.016998
0.854675 0.117554 0.015198
0.868073 0.117554 0.013428
0.881653 0.117493 0.011688
0.895538 0.117432 0.009888
0.909668 0.117157 0.008118
0.924469 0.117065 0.006317
0.939819 0.117004 0.004547
0.956238 0.116913 0.002777
0.974121 0.117035 0.001038
0.993713 0.117340 0.000000
1.000000 0.124420 0.011780
1.000000 0.133911 0.028320
1.000000 0.143097 0.044586
1.000000 0.152039 0.060577
1.000000 0.160858 0.076172
1.000000 0.169403 0.091400
1.000000 0.177734 0.106201
0.154602 0.127808 0.082275
0.165405 0.128021 0.079773
0.188446 0.129181 0.078827
0.197510 0.122986 0.078308
0.209778 0.118591 0.076385
0.219269 0.119324 0.076752
0.229492 0.120636 0.077240
0.240662 0.122498 0.077759
0.252747 0.124756 0.078339
0.266052 0.126831 0.078644
0.281494 0.126831 0.077637
0.297241 0.126831 0.076508
0.313263 0.126770 0.075317
0.329437 0.126740 0.073975
0.346130 0.126709 0.072632
0.363312 0.126678 0.071198
0.380737 0.126648 0.069641
0.398285 0.126587 0.068085
0.416077 0.126465 0.066498
0.433960 0.126465 0.064880
0.451843 0.126404 0.063202
0.469666 0.126312 0.061554
0.487396 0.126251 0.059845
0.505127 0.126160 0.058167
0.522491 0.126099 0.056458
0.539520 0.126038 0.054749
0.556122 0.125916 0.053009
0.572388 0.125916 0.051270
0.588348 0.125854 0.049500
0.604004 0.125671 0.047760
0.619385 0.125641 0.045959
0.634491 0.125580 0.044159
0.649323 0.125458 0.042389
0.663940 0.125366 0.040588
0.678406 0.125214 0.038788
0.692657 0.125183 0.036987
0.706726 0.125122 0.035156
0.720673 0.125000 0.033356
0.734406 0.124847 0.031555
0.748047 0.124786 0.029694
0.761505 0.124664 0.027893
0.774933 0.124573 0.026062
0.788269 0.124481 0.024292
0.801544 0.124481 0.022461
0.814850 0.124237 0.020660
0.828064 0.124207 0.018829
0.841248 0.124146 0.017029
0.854584 0.124054 0.015259
0.867981 0.123932 0.013489
0.881561 0.123810 0.011719
0.895447 0.123688 0.009918
0.909637 0.123718 0.008118
0.924408 0.123535 0.006348
0.939758 0.123322 0.004578
0.956238 0.123352 0.002777
0.974060 0.123322 0.001038
0.993713 0.123535 0.000000
1.000000 0.130432 0.011810
1.000000 0.139648 0.028381
1.000000 0.148438 0.044708
1.000000 0.157166 0.060730
1.000000 0.165680 0.076324
1.000000 0.174042 0.091583
1.000000 0.182281 0.106445
0.151642 0.135986 0.081879
0.159271 0.135925 0.078674
0.180481 0.136963 0.077789
0.205322 0.138092 0.076752
0.210144 0.129395 0.076416
0.223663 0.123718 0.073792
0.233978 0.123993 0.074036
0.244904 0.125244 0.074554
0.256927 0.127106 0.075073
0.269470 0.129486 0.075806
0.282867 0.132233 0.076447
0.296997 0.134491 0.076813
0.313019 0.134430 0.075592
0.329224 0.134369 0.074280
0.345886 0.134338 0.072876
0.363098 0.134277 0.071442
0.380463 0.134186 0.069946
0.398010 0.134155 0.068359
0.415833 0.134064 0.066742
0.433716 0.133972 0.065125
0.451569 0.133820 0.063477
0.469391 0.133759 0.061798
0.487122 0.133698 0.060120
0.504852 0.133606 0.058411
0.522247 0.133575 0.056671
0.539246 0.133362 0.054962
0.555878 0.133270 0.053192
0.572113 0.133209 0.051453
0.588104 0.133057 0.049683
0.603760 0.132935 0.047913
0.619141 0.132843 0.046143
0.634247 0.132782 0.044312
0.649109 0.132660 0.042542
0.663727 0.132538 0.040741
0.678192 0.132355 0.038940
0.692444 0.132263 0.037109
0.706512 0.132202 0.035309
0.720459 0.132019 0.033508
0.734192 0.132050 0.031677
0.747833 0.131866 0.029816
0.761353 0.131775 0.028015
0.774780 0.131653 0.026154
0.788177 0.131561 0.024384
0.801422 0.131348 0.022552
0.814667 0.131287 0.020721
0.827942 0.131226 0.018890
0.841125 0.131073 0.017090
0.854431 0.130920 0.015320
0.867889 0.130798 0.013519
0.881470 0.130798 0.011749
0.895386 0.130524 0.009949
0.909576 0.130524 0.008148
0.924347 0.130402 0.006348
0.939728 0.130341 0.004578
0.956177 0.130249 0.002777
0.974060 0.130127 0.001038
0.993713 0.130402 0.000000
1.000000 0.136963 0.011841
1.000000 0.145721 0.028473
1.000000 0.154266 0.044830
1.000000 0.162811 0.060913
1.000000 0.170990 0.076538
1.000000 0.179230 0.091827
1.000000 0.187134 0.106659
0.148376 0.144745 0.081482
0.154236 0.144714 0.077209
0.172577 0.145416 0.076630
0.196136 0.146423 0.075653
0.221771 0.147491 0.074646
0.223389 0.136353 0.074249
0.237915 0.130096 0.071259
0.249664 0.129059 0.070953
0.261353 0.130310 0.071442
0.273682 0.132172 0.072205
0.286804 0.134644 0.072906
0.300323 0.137482 0.073669
0.314087 0.140625 0.074524
0.328979 0.142578 0.074585
0.345642 0.142548 0.073181
0.362793 0.142456 0.071747
0.380188 0.142334 0.070221
0.397766 0.142273 0.068665
0.415558 0.142151 0.067017
0.433380 0.142029 0.065430
0.451263 0.141876 0.063751
0.469055 0.141785 0.062042
0.486847 0.141693 0.060364
0.504547 0.141602 0.058624
0.521973 0.141510 0.056885
0.538940 0.141357 0.055176
0.555573 0.141174 0.053436
0.571838 0.141083 0.051666
0.587799 0.140991 0.049896
0.603516 0.140808 0.048126
0.618896 0.140656 0.046326
0.634003 0.140533 0.044525
0.648865 0.140381 0.042694
0.663483 0.140289 0.040924
0.677979 0.140137 0.039124
0.692230 0.140106 0.037262
0.706299 0.139862 0.035431
0.720245 0.139740 0.033600
0.734009 0.139679 0.031799
0.747650 0.139496 0.029938
0.761169 0.139343 0.028107
0.774628 0.139252 0.026276
0.788025 0.139130 0.024475
0.801270 0.138885 0.022644
0.814545 0.138855 0.020813
0.827820 0.138733 0.018982
0.840973 0.138550 0.017151
0.854340 0.138397 0.015350
0.867798 0.138367 0.013580
0.881378 0.138123 0.011810
0.895294 0.138000 0.009979
0.909485 0.137939 0.008179
0.924255 0.137756 0.006378
0.939728 0.137604 0.004608
0.956116 0.137573 0.002808
0.974060 0.137421 0.001038
0.993713 0.137756 0.000000
1.000000 0.143921 0.011871
1.000000 0.152435 0.028564
1.000000 0.160736 0.044983
1.000000 0.168915 0.061096
1.000000 0.176910 0.076752
1.000000 0.184845 0.092072
1.000000 0.192657 0.106964
0.144714 0.154388 0.080994
0.148621 0.154358 0.075531
0.164185 0.154510 0.075348
0.187042 0.155609 0.074310
0.212494 0.156738 0.073090
0.237213 0.157196 0.072235
0.237579 0.143951 0.071747
0.253113 0.136963 0.068298
0.266266 0.134735 0.067413
0.278595 0.135956 0.067932
0.291321 0.137848 0.068695
0.304626 0.140228 0.069397
0.318298 0.143066 0.070251
0.332275 0.146210 0.071106
0.346436 0.149628 0.072388
0.362488 0.151459 0.072083
0.379852 0.151276 0.070557
0.397461 0.151184 0.069000
0.415222 0.151001 0.067383
0.433075 0.150970 0.065735
0.450897 0.150818 0.064026
0.468689 0.150635 0.062317
0.486481 0.150543 0.060638
0.504181 0.150391 0.058929
0.521576 0.150177 0.057159
0.538574 0.150024 0.055420
0.555206 0.149902 0.053680
0.571533 0.149719 0.051910
0.587494 0.149597 0.050140
0.603180 0.149414 0.048370
0.618561 0.149261 0.046539
0.633667 0.149109 0.044739
0.648590 0.149017 0.042908
0.663239 0.148834 0.041077
0.677704 0.148712 0.039276
0.691986 0.148529 0.037445
0.706055 0.148438 0.035583
0.720001 0.148254 0.033783
0.733795 0.148102 0.031921
0.747437 0.147888 0.030060
0.760986 0.147766 0.028229
0.774445 0.147552 0.026398
0.787811 0.147461 0.024567
0.801086 0.147278 0.022705
0.814362 0.147217 0.020905
0.827637 0.146912 0.019073
0.840851 0.146759 0.017242
0.854218 0.146729 0.015442
0.867645 0.146515 0.013641
0.881287 0.146423 0.011841
0.895203 0.146271 0.010010
0.909424 0.146118 0.008240
0.924194 0.145874 0.006409
0.939606 0.145844 0.004639
0.956116 0.145813 0.002808
0.973999 0.145508 0.001038
0.993713 0.145752 0.000000
1.000000 0.151733 0.011932
1.000000 0.159821 0.028656
1.000000 0.167908 0.045166
1.000000 0.175629 0.061279
1.000000 0.183319 0.077026
1.000000 0.191101 0.092346
1.000000 0.198639 0.107269
0.140472 0.164917 0.080414
0.141968 0.164978 0.073578
0.156036 0.164795 0.073730
0.177277 0.165710 0.072754
0.202026 0.166718 0.071655
0.229218 0.167908 0.070343
0.252289 0.166931 0.069366
0.252686 0.152344 0.068848
0.269196 0.144623 0.064880
0.283691 0.141052 0.063263
0.296204 0.142212 0.064026
0.309387 0.144012 0.064575
0.322845 0.146393 0.065460
0.336731 0.149139 0.066345
0.351196 0.152191 0.067230
0.365723 0.155487 0.068481
0.380859 0.158966 0.069458
0.397064 0.161072 0.069336
0.414856 0.160889 0.067749
0.432678 0.160736 0.066071
0.450500 0.160522 0.064362
0.468323 0.160400 0.062653
0.486084 0.160278 0.060974
0.503815 0.160065 0.059235
0.521210 0.159882 0.057465
0.538177 0.159729 0.055725
0.554840 0.159485 0.053955
0.571136 0.159363 0.052185
0.587158 0.159180 0.050385
0.602844 0.159058 0.048584
0.618225 0.158844 0.046783
0.633362 0.158691 0.044983
0.648254 0.158478 0.043121
0.662903 0.158264 0.041290
0.677429 0.158173 0.039490
0.691711 0.157928 0.037628
0.705780 0.157806 0.035767
0.719757 0.157623 0.033936
0.733521 0.157471 0.032104
0.747192 0.157196 0.030212
0.760742 0.157104 0.028381
0.774200 0.156830 0.026520
0.787628 0.156647 0.024719
0.800873 0.156525 0.022858
0.814209 0.156342 0.021027
0.827484 0.156281 0.019135
0.840698 0.156097 0.017303
0.854034 0.155884 0.015503
0.867523 0.155670 0.013702
0.881165 0.155548 0.011902
0.895111 0.155396 0.010071
0.909332 0.155151 0.008270
0.924103 0.155090 0.006439
0.939545 0.154846 0.004639
0.956055 0.154755 0.002808
0.973999 0.154602 0.001038
0.993713 0.154755 0.000000
1.000000 0.160522 0.011993
1.000000 0.168182 0.028809
1.000000 0.175842 0.045349
1.000000 0.183228 0.061554
1.000000 0.190704 0.077271
1.000000 0.198181 0.092682
1.000000 0.205597 0.107635
0.135620 0.176544 0.079803
0.135620 0.176575 0.072052
0.148682 0.176453 0.071503
0.166595 0.176727 0.071167
0.190979 0.177734 0.069916
0.217651 0.178925 0.068512
0.246979 0.180145 0.066956
0.268219 0.177521 0.066071
0.268707 0.161499 0.065460
0.286163 0.153137 0.060974
0.301758 0.147980 0.058472
0.314575 0.149048 0.059174
0.327942 0.150848 0.060028
0.341614 0.153076 0.061035
0.356476 0.155670 0.061432
0.371002 0.158630 0.062622
0.385986 0.161774 0.063599
0.401031 0.165131 0.064850
0.416748 0.168396 0.065430
0.432220 0.171509 0.066467
0.450104 0.171295 0.064728
0.467865 0.171082 0.063019
0.485657 0.170929 0.061340
0.503326 0.170746 0.059570
0.520752 0.170502 0.057800
0.537781 0.170288 0.056061
0.554474 0.170105 0.054260
0.570709 0.169952 0.052490
0.586731 0.169708 0.050659
0.602417 0.169525 0.048889
0.617859 0.169312 0.047058
0.632996 0.169098 0.045227
0.647919 0.168945 0.043396
0.662567 0.168701 0.041534
0.677063 0.168579 0.039703
0.691345 0.168274 0.037842
0.705475 0.168091 0.035980
0.719452 0.167908 0.034149
0.733276 0.167725 0.032257
0.746918 0.167480 0.030396
0.760468 0.167389 0.028534
0.773987 0.167206 0.026642
0.787384 0.166962 0.024841
0.800659 0.166718 0.022980
0.813995 0.166626 0.021118
0.827271 0.166412 0.019257
0.840515 0.166168 0.017395
0.853882 0.165985 0.015594
0.867371 0.165955 0.013794
0.881012 0.165649 0.011963
0.894958 0.165466 0.010101
0.909241 0.165283 0.008331
0.924042 0.165192 0.006470
0.939484 0.164886 0.004669
0.955994 0.164764 0.002838
0.973907 0.164581 0.001038
0.993713 0.164856 0.000000
1.000000 0.170105 0.012054
1.000000 0.177460 0.028961
1.000000 0.184753 0.045532
1.000000 0.191742 0.061798
1.000000 0.199066 0.077606
1.000000 0.206207 0.093048
1.000000 0.213440 0.108002
0.130035 0.189148 0.079071
0.130066 0.189209 0.071259
0.140259 0.189117 0.068939
0.155212 0.188934 0.069092
0.178955 0.189850 0.067871
0.205444 0.190918 0.066528
0.234283 0.192047 0.065002
0.265564 0.193359 0.063202
0.284973 0.188934 0.062225
0.285583 0.171539 0.061584
0.303619 0.162476 0.056519
0.320526 0.155670 0.052795
0.333710 0.156555 0.053619
0.347534 0.158112 0.054413
0.361877 0.160187 0.055298
0.376465 0.162781 0.056335
0.391479 0.165497 0.057281
0.406647 0.168488 0.058228
0.422211 0.171570 0.059052
0.437744 0.174744 0.059937
0.452911 0.178101 0.061432
0.468353 0.181305 0.062286
0.485107 0.182587 0.061737
0.502808 0.182343 0.059967
0.520264 0.182098 0.058197
0.537262 0.181946 0.056427
0.553955 0.181732 0.054626
0.570251 0.181458 0.052856
0.586273 0.181274 0.051025
0.601990 0.181000 0.049194
0.617401 0.180786 0.047363
0.632568 0.180573 0.045502
0.647461 0.180420 0.043671
0.662140 0.180115 0.041809
0.676697 0.179871 0.039978
0.690979 0.179688 0.038086
0.705139 0.179474 0.036194
0.719116 0.179230 0.034363
0.732910 0.179108 0.032471
0.746582 0.178864 0.030609
0.760162 0.178589 0.028717
0.773682 0.178406 0.026855
0.787109 0.178162 0.024994
0.800446 0.178040 0.023102
0.813721 0.177887 0.021240
0.827057 0.177582 0.019379
0.840302 0.177399 0.017517
0.853699 0.177277 0.015686
0.867218 0.177094 0.013855
0.880890 0.176880 0.012054
0.894806 0.176727 0.010193
0.909088 0.176544 0.008362
0.923950 0.176300 0.006500
0.939392 0.176025 0.004700
0.955933 0.175842 0.002869
0.973907 0.175598 0.001068
0.993713 0.175873 0.000000
1.000000 0.180786 0.012115
1.000000 0.187744 0.029083
1.000000 0.194580 0.045776
1.000000 0.201447 0.062103
1.000000 0.208282 0.077972
1.000000 0.215363 0.093445
1.000000 0.222260 0.108459
0.123840 0.202637 0.078217
0.123871 0.202667 0.070374
0.130798 0.202637 0.066040
0.146027 0.202423 0.066162
0.165771 0.202820 0.065613
0.192261 0.203888 0.064178
0.221161 0.204834 0.062744
0.252319 0.206085 0.060913
0.285522 0.207550 0.058624
0.302277 0.200867 0.057800
0.302917 0.182159 0.057159
0.321503 0.172729 0.051575
0.340027 0.163849 0.046448
0.353943 0.164581 0.047180
0.368256 0.165894 0.047943
0.382721 0.167816 0.049011
0.397461 0.170166 0.050171
0.412964 0.172699 0.050751
0.428375 0.175415 0.051666
0.443665 0.178375 0.052887
0.459717 0.181213 0.053192
0.474304 0.184540 0.055115
0.489899 0.187500 0.055878
0.505676 0.190460 0.056427
0.520874 0.193420 0.057251
0.536713 0.194397 0.056854
0.553406 0.194122 0.055054
0.569702 0.193939 0.053253
0.585785 0.193634 0.051392
0.601501 0.193390 0.049561
0.616943 0.193268 0.047729
0.632080 0.192963 0.045868
0.647034 0.192657 0.044006
0.661713 0.192474 0.042084
0.676239 0.192291 0.040253
0.690582 0.192017 0.038361
0.704712 0.191772 0.036469
0.718689 0.191559 0.034607
0.732544 0.191254 0.032715
0.746246 0.191071 0.030792
0.759857 0.190857 0.028931
0.773376 0.190552 0.027039
0.786804 0.190399 0.025177
0.800140 0.190155 0.023285
0.813477 0.189941 0.021393
0.826813 0.189728 0.019501
0.840118 0.189484 0.017639
0.853485 0.189301 0.015808
0.867035 0.189178 0.013977
0.880707 0.188843 0.012115
0.894684 0.188751 0.010254
0.908936 0.188599 0.008423
0.923798 0.188354 0.006531
0.939331 0.188080 0.004730
0.955872 0.187958 0.002869
0.973846 0.187805 0.001068
0.993713 0.187836 0.000000
1.000000 0.192596 0.012177
1.000000 0.198914 0.029266
1.000000 0.205444 0.046021
1.000000 0.211975 0.062408
1.000000 0.218750 0.078369
1.000000 0.225372 0.093872
1.000000 0.232147 0.108948
0.117065 0.216858 0.077332
0.117096 0.216949 0.069336
0.120331 0.216949 0.062805
0.135956 0.216736 0.062958
0.152405 0.216522 0.063080
0.178375 0.217346 0.061890
0.207367 0.218506 0.060150
0.238739 0.219727 0.058228
0.271881 0.221130 0.056000
0.306641 0.222504 0.053589
0.319977 0.213104 0.052856
0.320770 0.193359 0.052216
0.340118 0.183472 0.046082
0.360382 0.172791 0.039581
0.374817 0.172913 0.040131
0.389465 0.174133 0.040894
0.404327 0.175873 0.041809
0.419525 0.177887 0.042725
0.435242 0.180176 0.043243
0.450348 0.182892 0.044678
0.466095 0.185455 0.045349
0.481689 0.188171 0.046082
0.497314 0.191010 0.046783
0.511902 0.193970 0.048645
0.527405 0.196777 0.048981
0.541718 0.199768 0.050385
0.556641 0.202423 0.050598
0.570465 0.205353 0.051941
0.585236 0.206879 0.051788
0.600952 0.206604 0.049988
0.616394 0.206329 0.048096
0.631561 0.206116 0.046234
0.646545 0.205902 0.044312
0.661255 0.205536 0.042450
0.675812 0.205383 0.040588
0.690125 0.205048 0.038666
0.704285 0.204865 0.036743
0.718292 0.204651 0.034882
0.732178 0.204315 0.032959
0.745911 0.204102 0.031036
0.759491 0.203827 0.029114
0.773041 0.203552 0.027222
0.786469 0.203461 0.025330
0.799835 0.203247 0.023468
0.813232 0.202972 0.021545
0.826538 0.202606 0.019653
0.839844 0.202484 0.017761
0.853271 0.202209 0.015900
0.866821 0.202057 0.014069
0.880524 0.201813 0.012177
0.894501 0.201599 0.010315
0.908783 0.201324 0.008453
0.923676 0.201172 0.006592
0.939209 0.200958 0.004761
0.955811 0.200836 0.002899
0.973846 0.200653 0.001068
0.993622 0.200684 0.000000
1.000000 0.205017 0.012268
1.000000 0.211182 0.029449
1.000000 0.217407 0.046295
1.000000 0.223663 0.062775
1.000000 0.229919 0.078796
1.000000 0.236420 0.094391
1.000000 0.242981 0.109497
0.109833 0.231903 0.076385
0.109833 0.231934 0.068298
0.109833 0.232056 0.059845
0.124878 0.231842 0.059479
0.141785 0.231598 0.059601
0.163208 0.231964 0.058929
0.192780 0.232910 0.057465
0.224457 0.234192 0.055359
0.257996 0.235596 0.053070
0.292725 0.236816 0.050751
0.329132 0.238434 0.047821
0.338440 0.225769 0.047272
0.339233 0.204956 0.046692
0.359558 0.194794 0.040131
0.380371 0.183960 0.033142
0.396729 0.181702 0.031860
0.411499 0.182648 0.032928
0.426727 0.184143 0.033630
0.442078 0.186066 0.034698
0.457825 0.188080 0.035309
0.472870 0.190521 0.036804
0.488525 0.192932 0.037445
0.503723 0.195526 0.038757
0.519104 0.198151 0.039398
0.534393 0.200684 0.039825
0.549011 0.203339 0.040680
0.563080 0.206146 0.041962
0.577179 0.208832 0.042816
0.590820 0.211670 0.044037
0.604584 0.214417 0.044617
0.618011 0.217041 0.045471
0.631042 0.219910 0.046600
0.646027 0.219757 0.044678
0.660706 0.219513 0.042786
0.675293 0.219238 0.040894
0.689667 0.219025 0.038971
0.703827 0.218658 0.037018
0.717896 0.218475 0.035156
0.731781 0.218140 0.033203
0.745483 0.217926 0.031250
0.759094 0.217743 0.029358
0.772705 0.217438 0.027435
0.786133 0.217224 0.025543
0.799500 0.217041 0.023621
0.812897 0.216858 0.021729
0.826263 0.216492 0.019806
0.839569 0.216278 0.017914
0.853058 0.216034 0.016022
0.866577 0.215820 0.014160
0.880341 0.215637 0.012268
0.894348 0.215393 0.010376
0.908630 0.215179 0.008545
0.923584 0.214935 0.006653
0.939087 0.214752 0.004791
0.955688 0.214508 0.002930
0.973785 0.214417 0.001068
0.993622 0.214478 0.000000
1.000000 0.218567 0.012360
1.000000 0.224243 0.029633
1.000000 0.230164 0.046600
1.000000 0.236115 0.063141
1.000000 0.242279 0.079254
1.000000 0.248291 0.094879
1.000000 0.254517 0.110016
0.101990 0.247711 0.075317
0.101990 0.247772 0.067169
0.102020 0.247864 0.058624
0.112976 0.247711 0.055664
0.130280 0.247528 0.055817
0.148621 0.247253 0.055969
0.177246 0.248138 0.054443
0.209595 0.249390 0.052429
0.243652 0.250916 0.049927
0.278961 0.252258 0.047424
0.314972 0.253845 0.044373
0.351715 0.255157 0.041595
0.357727 0.238770 0.041199
0.358643 0.216980 0.040680
0.379425 0.206482 0.033600
0.400879 0.195526 0.026215
0.418884 0.190613 0.023346
0.434265 0.191437 0.023956
0.449585 0.192688 0.024963
0.465210 0.194244 0.025696
0.480927 0.196167 0.026367
0.496338 0.198273 0.027374
0.511505 0.200500 0.028625
0.526794 0.202850 0.029236
0.541901 0.205231 0.029755
0.556244 0.207764 0.030762
0.570618 0.210205 0.031494
0.584412 0.212860 0.032623
0.598389 0.215485 0.033295
0.611694 0.218079 0.034302
0.624756 0.220795 0.035675
0.638031 0.223389 0.036346
0.650879 0.226166 0.037292
0.663422 0.228729 0.038513
0.676453 0.231354 0.038849
0.689148 0.233734 0.039307
0.703369 0.233490 0.037354
0.717407 0.233246 0.035431
0.731323 0.232971 0.033508
0.745087 0.232605 0.031525
0.758728 0.232452 0.029572
0.772308 0.232239 0.027649
0.785797 0.231964 0.025757
0.799194 0.231659 0.023834
0.812561 0.231506 0.021881
0.825958 0.231171 0.019958
0.839264 0.230988 0.018066
0.852783 0.230713 0.016144
0.866364 0.230469 0.014282
