luts/pink.CUBE
#Created by: Adobe Photoshop Export Color Lookup Plugin
TITLE "Untitled Session02649.JPG"
#LUT size
LUT_3D_SIZE 4
#data domain
DOMAIN_MIN 0.0 0.0 0.0
DOMAIN_MAX 1.0 1.0 1.0
#LUT data points
0.162170 0.105652 0.083252
0.470337 0.106110 0.060974
0.788696 0.105591 0.024048
1.000000 0.169464 0.105774
0.028900 0.392395 0.064301
0.511780 0.315857 0.000000
0.800629 0.295288 0.000000
1.000000 0.358185 0.114807
0.000000 0.738464 0.103119
0.426086 0.733490 0.000000
0.795959 0.549835 0.000000
1.000000 0.472504 0.119720
0.145691 1.000000 0.215973
0.363800 1.000000 0.122986
0.859680 1.000000 0.133209
1.000000 0.723572 0.128662
0.161285 0.104309 0.310181
0.443390 0.100525 0.320160
0.767212 0.054352 0.291992
1.000000 0.091095 0.276611
0.111084 0.352509 0.335754
0.433899 0.322723 0.340332
0.759369 0.316681 0.322601
1.000000 0.356171 0.366455
0.000000 0.736908 0.376526
0.340363 0.740173 0.334106
0.837250 0.634338 0.262939
1.000000 0.569946 0.381836
0.144806 1.000000 0.442932
0.413025 1.000000 0.439026
0.767365 1.000000 0.396027
1.000000 0.789459 0.394592
0.160187 0.102570 0.651184
0.441162 0.098541 0.658508
0.733856 0.093048 0.667969
1.000000 0.088684 0.667389
0.114960 0.338562 0.690033
0.431641 0.319061 0.672729
0.727966 0.309509 0.681244
1.000000 0.301880 0.666534
0.043945 0.710114 0.695801
0.389038 0.676910 0.696411
0.720520 0.632874 0.697510
1.000000 0.656616 0.705017
0.144043 1.000000 0.660065
0.411346 1.000000 0.702759
0.714844 1.000000 0.734222
1.000000 0.887665 0.712402
0.159210 0.101074 1.000000
0.439331 0.096954 1.000000
0.732666 0.091431 1.000000
1.000000 0.087036 1.000000
0.153961 0.329651 1.000000
0.429871 0.316223 1.000000
0.726837 0.306702 1.000000
1.000000 0.298645 1.000000
0.147003 0.698761 1.000000
0.417786 0.665375 1.000000
0.719452 0.630615 1.000000
1.000000 0.624481 1.000000
0.143219 1.000000 0.913818
0.410004 1.000000 0.937286
0.714111 1.000000 0.969727
1.000000 1.000000 1.000000
