luts/pink.CUBE
#Created by: Adobe Photoshop Export Color Lookup Plugin
TITLE "Untitled Session02649.JPG"
#LUT size
LUT_3D_SIZE 8
#data domain
DOMAIN_MIN 0.0 0.0 0.0
DOMAIN_MAX 1.0 1.0 1.0
#LUT data points
0.162170 0.105652 0.083252
0.266602 0.105835 0.077911
0.416779 0.106049 0.065887
0.573059 0.106049 0.050751
0.707214 0.105774 0.034821
0.828369 0.105438 0.018677
0.956299 0.104980 0.002747
1.000000 0.169464 0.105774
0.130035 0.189148 0.079071
0.285583 0.171539 0.061584
0.422211 0.171570 0.059052
0.570251 0.181458 0.052856
0.705139 0.179474 0.036194
0.827057 0.177582 0.019379
0.955933 0.175842 0.002869
1.000000 0.222260 0.108459
0.057526 0.335907 0.068878
0.203003 0.337250 0.028961
0.462585 0.282532 0.002838
0.605530 0.243927 0.000000
0.726196 0.261963 0.000000
0.837891 0.281342 0.000000
0.957855 0.300232 0.000000
1.000000 0.336365 0.113831
0.000000 0.500000 0.066681
0.088593 0.499329 0.000000
0.442505 0.490173 0.000000
0.600250 0.380280 0.000000
0.724396 0.324432 0.000000
0.836884 0.341400 0.000000
0.957520 0.358917 0.000000
1.000000 0.390961 0.116302
0.000000 0.644745 0.088989
0.042847 0.644775 0.000000
0.365112 0.639496 0.000000
0.666168 0.632263 0.000000
0.720520 0.480865 0.000000
0.835724 0.417999 0.000000
0.957275 0.416779 0.000000
1.000000 0.440491 0.118408
0.000000 0.785492 0.109833
0.007507 0.785797 0.000000
0.309387 0.783051 0.000000
0.599304 0.778687 0.000000
0.831024 0.764435 0.000000
0.833374 0.583008 0.000000
0.956787 0.526855 0.000000
1.000000 0.488251 0.120300
0.000000 0.941803 0.128937
0.000000 0.941925 0.016541
0.264374 0.941223 0.000000
0.547668 0.939941 0.000000
0.801666 0.938751 0.000000
0.955627 0.851959 0.000000
0.956177 0.679352 0.000000
1.000000 0.601715 0.124512
0.145691 1.000000 0.215973
0.145874 1.000000 0.143768
0.288483 1.000000 0.121338
0.516449 1.000000 0.126251
0.726044 1.000000 0.130676
0.933746 1.000000 0.134369
1.000000 0.861877 0.132599
1.000000 0.723572 0.128662
0.161926 0.105316 0.143982
0.257965 0.104401 0.145935
0.413361 0.082153 0.126038
0.574310 0.056152 0.088989
0.708740 0.036316 0.056091
0.829620 0.018433 0.022369
0.956665 0.015991 0.002655
1.000000 0.111511 0.102997
0.149231 0.178772 0.149261
0.256165 0.171265 0.149994
0.407562 0.169861 0.141632
0.564117 0.168121 0.131287
0.699341 0.166351 0.120300
0.820923 0.164612 0.109100
0.947327 0.163086 0.097839
1.000000 0.216339 0.180298
0.066345 0.331146 0.164062
0.203796 0.318268 0.145813
0.438446 0.282227 0.111755
0.592560 0.260284 0.099182
0.709320 0.280975 0.109619
0.818146 0.300842 0.116486
0.946442 0.298859 0.104156
1.000000 0.329987 0.188141
0.000000 0.498962 0.170105
0.136353 0.492828 0.139160
0.395813 0.502777 0.074799
0.626495 0.407501 0.049103
0.780487 0.341644 0.000000
0.896851 0.352570 0.005310
1.000000 0.372620 0.056946
1.000000 0.412689 0.193573
0.000000 0.644043 0.184631
0.065979 0.678345 0.130371
0.300140 0.683807 0.037628
0.671814 0.704102 0.000000
0.776764 0.532440 0.000000
0.899658 0.432312 0.000000
1.000000 0.436157 0.058350
1.000000 0.463623 0.196686
0.000000 0.785095 0.200623
0.000000 0.867126 0.120605
0.209412 0.866364 0.000000
0.573486 0.863007 0.000000
0.884216 0.859924 0.000000
0.897858 0.636993 0.000000
1.000000 0.544830 0.060516
1.000000 0.513306 0.199493
0.000000 0.941681 0.216278
0.072784 1.000000 0.174408
0.214996 1.000000 0.059265
0.507996 1.000000 0.062408
0.785492 1.000000 0.065369
1.000000 0.915436 0.066376
1.000000 0.713043 0.063568
1.000000 0.616608 0.205017
0.145416 1.000000 0.277802
0.233490 1.000000 0.273987
0.294342 1.000000 0.199799
0.492340 1.000000 0.206055
0.703705 1.000000 0.212585
0.904755 1.000000 0.218048
1.000000 0.882721 0.216736
1.000000 0.740021 0.211090
0.161469 0.104614 0.263428
0.257233 0.103668 0.265839
0.395386 0.101593 0.271179
0.549835 0.085205 0.267029
0.691833 0.058441 0.242828
0.818115 0.033478 0.215118
0.949524 0.009888 0.186951
1.000000 0.091461 0.220551
0.154053 0.172607 0.271393
0.255371 0.170135 0.270844
0.393127 0.166992 0.276306
0.550659 0.148773 0.265869
0.693481 0.124573 0.236053
0.820770 0.102081 0.204865
0.947723 0.086487 0.182373
1.000000 0.152008 0.230408
0.121674 0.304840 0.283356
0.233948 0.297333 0.284485
0.388184 0.281555 0.287048
0.545197 0.278717 0.279266
0.682617 0.276123 0.271790
0.805328 0.273804 0.264740
0.929474 0.271790 0.258057
1.000000 0.316803 0.315643
0.048340 0.473572 0.298462
0.169556 0.470062 0.303162
0.344391 0.450745 0.285004
0.578766 0.406799 0.252960
0.717346 0.377533 0.241821
0.826202 0.396545 0.251617
0.940765 0.417480 0.259857
1.000000 0.454468 0.326324
0.000000 0.642883 0.321014
0.081787 0.667725 0.319672
0.303589 0.635559 0.281982
0.553223 0.651825 0.232391
0.747223 0.543457 0.217773
0.902222 0.464203 0.182098
1.000000 0.477783 0.226868
1.000000 0.515076 0.330475
0.000000 0.784393 0.343658
0.000000 0.866516 0.327820
0.265442 0.819550 0.278839
0.461975 0.833221 0.213837
0.819244 0.877472 0.188843
0.915985 0.679504 0.177399
1.000000 0.564972 0.232025
1.000000 0.566376 0.333771
0.000000 0.941406 0.366547
0.072479 1.000000 0.347748
0.264587 1.000000 0.299255
0.410614 1.000000 0.233307
0.708832 1.000000 0.243164
1.000000 0.995300 0.250580
1.000000 0.747375 0.241730
1.000000 0.648376 0.338867
0.144958 1.000000 0.404785
0.232788 1.000000 0.401001
0.366119 1.000000 0.393188
0.446869 1.000000 0.336426
0.657043 1.000000 0.344116
0.850189 1.000000 0.350647
1.000000 0.930939 0.352356
1.000000 0.775574 0.345917
0.160950 0.103790 0.404846
0.256470 0.102814 0.407410
0.394409 0.100739 0.412903
0.536896 0.098267 0.419098
0.662842 0.093842 0.423737
0.789215 0.070038 0.410339
0.911896 0.049469 0.391357
1.000000 0.090363 0.387482
0.159729 0.170349 0.409912
0.254608 0.168854 0.412567
0.392029 0.165649 0.418121
0.534485 0.161987 0.424408
0.664429 0.153259 0.426392
0.791718 0.131653 0.409302
0.916107 0.112976 0.387329
1.000000 0.150482 0.389191
0.114868 0.303772 0.445129
0.233337 0.291718 0.437225
0.387146 0.279907 0.429199
0.529388 0.275391 0.435333
0.666962 0.260101 0.427246
0.795990 0.239288 0.399933
0.923798 0.221619 0.371826
1.000000 0.261902 0.392029
0.090515 0.450470 0.441406
0.208496 0.442169 0.442444
0.367249 0.424866 0.444641
0.523956 0.406036 0.446930
0.664032 0.403778 0.438049
0.787903 0.401611 0.430237
0.910278 0.399506 0.423462
1.000000 0.437744 0.468719
0.046539 0.617310 0.438782
0.167084 0.613129 0.446716
0.326691 0.607330 0.460419
0.482758 0.587463 0.443146
0.695099 0.542694 0.411652
0.823547 0.510681 0.400787
0.937866 0.531219 0.410400
1.000000 0.574188 0.478271
0.000000 0.783783 0.464355
0.089294 0.806366 0.472992
0.278900 0.801025 0.477997
0.445679 0.767670 0.440216
0.675659 0.786743 0.394135
0.854248 0.678864 0.381104
1.000000 0.601166 0.376831
1.000000 0.626678 0.481689
0.000000 0.941223 0.484741
0.072235 1.000000 0.490906
0.263489 1.000000 0.495605
0.412964 0.981659 0.437561
0.599579 1.000000 0.382935
0.907532 1.000000 0.393280
1.000000 0.787445 0.387482
1.000000 0.684753 0.485291
0.144562 1.000000 0.509674
0.232147 1.000000 0.521545
0.365234 1.000000 0.541870
0.506592 1.000000 0.532043
0.604340 1.000000 0.486511
0.794525 1.000000 0.493530
0.997589 1.000000 0.498749
1.000000 0.817474 0.492493
0.160461 0.103058 0.555328
0.255676 0.102051 0.557648
0.393494 0.099915 0.562531
0.535950 0.097412 0.568054
0.660339 0.095093 0.573151
0.769287 0.092896 0.577698
0.882172 0.080505 0.574982
1.000000 0.089325 0.558929
0.159210 0.169128 0.559906
0.253815 0.167664 0.562256
0.391113 0.164429 0.567200
0.533478 0.160706 0.572662
0.658386 0.157257 0.577698
0.767914 0.154114 0.582092
0.884430 0.139740 0.575653
1.000000 0.148987 0.559814
0.127594 0.292084 0.587250
0.241394 0.284332 0.579041
0.386169 0.278351 0.576874
0.528381 0.273865 0.582123
0.654419 0.269714 0.586884
0.768005 0.263245 0.588684
0.890961 0.245178 0.573761
1.000000 0.260101 0.561432
0.068359 0.469879 0.630707
0.195862 0.452698 0.622253
0.365509 0.420837 0.603821
0.523102 0.404572 0.591827
0.650269 0.400513 0.596161
0.773071 0.385529 0.587921
0.899109 0.365936 0.562134
1.000000 0.390350 0.563263
0.061646 0.607727 0.600952
0.184235 0.599243 0.601379
0.348236 0.581360 0.602386
0.504333 0.561157 0.603607
0.646332 0.541992 0.604828
0.771362 0.540192 0.596100
0.892731 0.538605 0.588348
1.000000 0.569977 0.617737
0.035736 0.762054 0.585754
0.162506 0.753448 0.586304
0.322937 0.745850 0.600952
0.466949 0.738983 0.615997
0.611877 0.720337 0.600037
0.801880 0.678253 0.570160
0.933807 0.648315 0.559753
1.000000 0.685455 0.623596
0.000000 0.941071 0.600433
0.100433 0.963562 0.611481
0.280914 0.959259 0.624115
0.424622 0.952972 0.629578
0.580353 0.911102 0.595734
0.786499 0.939606 0.551331
0.975220 0.816284 0.539276
1.000000 0.736023 0.625916
0.144226 1.000000 0.603333
0.231659 1.000000 0.614746
0.364624 1.000000 0.638367
0.505768 1.000000 0.663910
0.636658 1.000000 0.658661
0.744751 1.000000 0.628601
0.934143 1.000000 0.633026
1.000000 0.859558 0.630646
0.160004 0.102325 0.696991
0.254974 0.101349 0.698608
0.392578 0.099152 0.702087
0.535034 0.096649 0.705963
0.659637 0.094269 0.709595
0.768768 0.092133 0.712738
0.871948 0.090210 0.715637
1.000000 0.088379 0.718109
0.158722 0.168060 0.700195
0.253143 0.166534 0.701904
0.390259 0.163269 0.705383
0.532623 0.159546 0.709259
0.657623 0.156128 0.712738
0.767395 0.152985 0.715851
0.871124 0.150177 0.718628
1.000000 0.147675 0.717896
0.137085 0.286072 0.718903
0.247681 0.280914 0.709869
0.385345 0.276978 0.712158
0.527557 0.272461 0.715851
0.653717 0.268372 0.719147
0.764618 0.264709 0.722015
0.869537 0.261505 0.724457
1.000000 0.258423 0.716370
0.080444 0.448212 0.758179
0.204742 0.434387 0.748871
0.370758 0.411774 0.729553
0.522247 0.403229 0.722626
0.649628 0.399139 0.725708
0.761658 0.395294 0.728546
0.870819 0.388885 0.729614
1.000000 0.388580 0.715302
0.036041 0.645813 0.788330
0.163940 0.631714 0.782288
0.338654 0.596741 0.765442
0.502441 0.557648 0.744446
0.645691 0.540649 0.731934
0.758789 0.536957 0.734772
0.876801 0.522125 0.726868
1.000000 0.530731 0.714386
0.035614 0.761200 0.740265
0.161896 0.752533 0.740234
0.330902 0.734375 0.740204
0.486298 0.714111 0.740204
0.630341 0.695068 0.740204
0.756256 0.677704 0.740234
0.877075 0.677307 0.731323
1.000000 0.699219 0.745667
0.012604 0.929901 0.724854
0.141876 0.918854 0.724945
0.316193 0.896576 0.724976
0.463715 0.884033 0.736145
0.599640 0.877563 0.748596
0.726349 0.858765 0.733490
0.910919 0.815826 0.706268
1.000000 0.794983 0.748535
0.143982 1.000000 0.686829
0.231232 1.000000 0.697723
0.364136 1.000000 0.720520
0.505280 1.000000 0.745331
0.636108 1.000000 0.768005
0.752167 1.000000 0.769958
0.878906 1.000000 0.751007
1.000000 0.901825 0.750977
0.159607 0.101654 0.831482
0.254333 0.100677 0.832397
0.391907 0.098450 0.834412
0.534210 0.095947 0.836639
0.659058 0.093536 0.838684
0.768402 0.091400 0.840515
0.871674 0.089478 0.842133
1.000000 0.087677 0.843536
0.158325 0.167053 0.833313
0.252472 0.165527 0.834290
0.389526 0.162262 0.836304
0.531738 0.158539 0.838531
0.657135 0.155060 0.840515
0.767029 0.151947 0.842285
0.870880 0.149170 0.843872
1.000000 0.146637 0.845154
0.145782 0.282623 0.844269
0.248413 0.279785 0.838226
0.384583 0.275726 0.840179
0.526794 0.271240 0.842285
0.653198 0.267120 0.844177
0.764160 0.263550 0.845795
0.869324 0.260284 0.847260
1.000000 0.257080 0.848602
0.088257 0.435455 0.885895
0.211975 0.424286 0.872620
0.374481 0.407318 0.850372
0.521545 0.402008 0.846191
0.649017 0.397888 0.847992
0.761230 0.394012 0.849640
0.867493 0.390411 0.851135
1.000000 0.387024 0.852570
0.033356 0.628693 0.925201
0.166473 0.611359 0.912537
0.343628 0.577271 0.886261
0.507141 0.548126 0.860840
0.645050 0.539459 0.851624
0.758392 0.535736 0.853271
0.865845 0.532349 0.854736
1.000000 0.529236 0.852936
0.012695 0.817963 0.941406
0.142761 0.802490 0.932556
0.318146 0.770416 0.915222
0.476807 0.730896 0.893860
0.628815 0.692322 0.870087
0.755859 0.676849 0.856445
0.864380 0.674530 0.857819
1.000000 0.672455 0.848816
0.012543 0.929626 0.868622
0.141418 0.918518 0.867828
0.315399 0.896240 0.866241
0.470306 0.872559 0.864594
0.615906 0.851196 0.863007
0.743073 0.832214 0.861603
0.863220 0.815460 0.860352
1.000000 0.829041 0.861664
0.143555 1.000000 0.794769
0.230713 1.000000 0.800232
0.363586 1.000000 0.811737
0.504761 1.000000 0.824402
0.635803 1.000000 0.843536
0.751862 1.000000 0.864624
0.862213 1.000000 0.873749
1.000000 0.945709 0.862946
0.159210 0.101074 1.000000
0.253754 0.100006 1.000000
0.391174 0.097809 1.000000
0.533478 0.095245 1.000000
0.658325 0.092896 1.000000
0.767914 0.090759 1.000000
0.871399 0.088806 1.000000
1.000000 0.087036 1.000000
0.157928 0.166138 1.000000
0.251892 0.164612 1.000000
0.388794 0.161316 1.000000
0.531067 0.157562 1.000000
0.656403 0.154083 1.000000
0.766571 0.150970 1.000000
0.870605 0.148254 1.000000
1.000000 0.145752 1.000000
0.155151 0.280548 1.000000
0.247803 0.278595 1.000000
0.383911 0.274536 1.000000
0.526062 0.270081 1.000000
0.652618 0.266022 1.000000
0.763855 0.262421 1.000000
0.869019 0.259094 1.000000
1.000000 0.255890 1.000000
0.151764 0.429688 1.000000
0.243011 0.421753 1.000000
0.378693 0.405243 1.000000
0.520874 0.400909 1.000000
0.648407 0.396698 1.000000
0.760834 0.392761 1.000000
0.867279 0.389191 1.000000
1.000000 0.385803 1.000000
0.148834 0.592560 1.000000
0.238678 0.583984 1.000000
0.373566 0.566193 1.000000
0.515808 0.545624 1.000000
0.644531 0.538269 1.000000
0.757965 0.534546 1.000000
0.865601 0.531189 1.000000
1.000000 0.528076 1.000000
0.146118 0.751740 1.000000
0.234680 0.743042 1.000000
0.368744 0.724762 1.000000
0.510712 0.704376 1.000000
0.640778 0.685394 1.000000
0.755432 0.676056 1.000000
0.864166 0.673706 1.000000
1.000000 0.671570 1.000000
0.143982 0.901520 1.000000
0.231415 0.894409 1.000000
0.364746 0.879883 1.000000
0.506348 0.864075 1.000000
0.637360 0.846161 1.000000
0.753204 0.827209 1.000000
0.863007 0.815033 1.000000
1.000000 0.813934 1.000000
0.143219 1.000000 0.913818
0.230164 1.000000 0.919830
0.362946 1.000000 0.932434
0.504150 1.000000 0.946869
0.635376 1.000000 0.960724
0.751617 1.000000 0.973999
0.862061 1.000000 0.986816
1.000000 1.000000 1.000000
