luts/purple.CUBE
#Created by: Adobe Photoshop Export Color Lookup Plugin
TITLE "Untitled Session02649.JPG"
#LUT size
LUT_3D_SIZE 4
#data domain
DOMAIN_MIN 0.0 0.0 0.0
DOMAIN_MAX 1.0 1.0 1.0
#LUT data points
0.157745 0.147095 0.197784
0.427490 0.142212 0.197052
0.700531 0.135162 0.195953
1.000000 0.129181 0.195099
0.167328 0.393463 0.196259
0.440491 0.385864 0.195404
0.708740 0.376007 0.194275
1.000000 0.368286 0.193451
0.179352 0.660767 0.194092
0.455505 0.656128 0.193268
0.718231 0.649750 0.192169
1.000000 0.644440 0.191223
0.187775 1.000000 0.192383
0.466675 1.000000 0.191498
0.725372 1.000000 0.190369
1.000000 1.000000 0.189484
0.159424 0.145355 0.474396
0.429932 0.140289 0.473328
0.702118 0.133087 0.471893
1.000000 0.127136 0.470703
0.169128 0.390686 0.472260
0.442810 0.383087 0.471130
0.710175 0.373260 0.469635
1.000000 0.365509 0.468506
0.180878 0.659088 0.469360
0.457520 0.654388 0.468262
0.719543 0.647919 0.466736
1.000000 0.642578 0.465515
0.189240 1.000000 0.467010
0.468597 1.000000 0.465851
0.726532 1.000000 0.464325
1.000000 1.000000 0.463257
0.161713 0.143036 0.725830
0.433105 0.137665 0.725067
0.704132 0.130371 0.724091
1.000000 0.124390 0.723267
0.171478 0.387115 0.724304
0.445801 0.379456 0.723541
0.711914 0.369751 0.722565
1.000000 0.361786 0.721771
0.182800 0.656891 0.722382
0.460175 0.652069 0.721619
0.721252 0.645447 0.720581
1.000000 0.640198 0.719757
0.191162 1.000000 0.720795
0.471039 1.000000 0.719971
0.727997 1.000000 0.718994
1.000000 1.000000 0.718353
0.163605 0.141022 1.000000
0.435608 0.135590 1.000000
0.705780 0.128143 1.000000
1.000000 0.122253 1.000000
0.173340 0.384186 1.000000
0.448059 0.376556 1.000000
0.713318 0.366913 1.000000
1.000000 0.358734 1.000000
0.184387 0.655090 1.000000
0.462250 0.650146 1.000000
0.722595 0.643524 1.000000
1.000000 0.638275 1.000000
0.192657 1.000000 1.000000
0.472900 1.000000 1.000000
0.729004 1.000000 1.000000
1.000000 1.000000 1.000000
