luts/purple.CUBE
#Created by: Adobe Photoshop Export Color Lookup Plugin
TITLE "Untitled Session02649.JPG"
#LUT size
LUT_3D_SIZE 8
#data domain
DOMAIN_MIN 0.0 0.0 0.0
DOMAIN_MAX 1.0 1.0 1.0
#LUT data points
0.157745 0.147095 0.197784
0.246582 0.145905 0.197601
0.381836 0.143250 0.197205
0.511902 0.140137 0.196747
0.627533 0.137085 0.196259
0.736481 0.134247 0.195801
0.847961 0.131653 0.195465
1.000000 0.129181 0.195099
0.160065 0.227844 0.197449
0.249786 0.226135 0.197235
0.385284 0.222443 0.196808
0.514984 0.218170 0.196320
0.630127 0.214020 0.195831
0.738464 0.210236 0.195404
0.849213 0.206848 0.195038
1.000000 0.203583 0.194672
0.165314 0.351135 0.196594
0.256744 0.349213 0.196381
0.392548 0.345062 0.195892
0.521423 0.340393 0.195435
0.635406 0.335999 0.194946
0.742432 0.332001 0.194489
0.851715 0.328461 0.194122
1.000000 0.325226 0.193787
0.171173 0.473053 0.195587
0.264374 0.471252 0.195374
0.400360 0.467499 0.194916
0.528168 0.463379 0.194366
0.640839 0.459595 0.193970
0.746490 0.456268 0.193512
0.854279 0.453156 0.193146
1.000000 0.450134 0.192780
0.176361 0.586151 0.194641
0.271118 0.584686 0.194427
0.407104 0.581696 0.194000
0.533905 0.578461 0.193512
0.645569 0.575317 0.193024
0.750153 0.572357 0.192596
0.856659 0.569672 0.192200
1.000000 0.567108 0.191833
0.180695 0.698547 0.193848
0.276672 0.697449 0.193634
0.412659 0.695221 0.193176
0.539001 0.692596 0.192657
0.649841 0.690063 0.192200
0.753448 0.687744 0.191742
0.858795 0.685669 0.191345
1.000000 0.683685 0.190948
0.184326 0.820068 0.193085
0.281464 0.819336 0.192871
0.417725 0.817780 0.192413
0.543518 0.816010 0.191895
0.653656 0.814392 0.191406
0.756317 0.812927 0.190918
0.860596 0.811584 0.190521
1.000000 0.810394 0.190186
0.187775 1.000000 0.192383
0.286011 1.000000 0.192169
0.422394 1.000000 0.191681
0.547638 1.000000 0.191132
0.657013 1.000000 0.190643
0.758850 1.000000 0.190216
0.862152 1.000000 0.189850
1.000000 1.000000 0.189484
0.158173 0.146667 0.297760
0.247162 0.145447 0.297485
0.382507 0.142761 0.296936
0.512482 0.139587 0.296326
0.628021 0.136536 0.295715
0.736847 0.133698 0.295135
0.848236 0.131104 0.294617
1.000000 0.128723 0.294159
0.160553 0.227234 0.297241
0.250397 0.225525 0.296967
0.385925 0.221771 0.296417
0.515564 0.217438 0.295776
0.630585 0.213348 0.295135
0.738831 0.209503 0.294586
0.849487 0.206085 0.294067
1.000000 0.202881 0.293579
0.165802 0.350433 0.296143
0.257355 0.348511 0.295868
0.393219 0.344330 0.295227
0.521973 0.339630 0.294556
0.635895 0.335236 0.293945
0.742798 0.331268 0.293365
0.851929 0.327759 0.292877
1.000000 0.324524 0.292450
0.171631 0.472382 0.294830
0.264984 0.470581 0.294556
0.400970 0.466858 0.293945
0.528687 0.462738 0.293243
0.641266 0.458984 0.292633
0.746796 0.455627 0.292114
0.854492 0.452484 0.291626
1.000000 0.449524 0.291138
0.176788 0.585632 0.293579
0.271667 0.584198 0.293304
0.407623 0.581177 0.292725
0.534393 0.577911 0.292084
0.645966 0.574768 0.291473
0.750488 0.571808 0.290894
0.856873 0.569092 0.290375
1.000000 0.566528 0.289856
0.181061 0.698120 0.292511
0.277161 0.697083 0.292236
0.413239 0.694794 0.291656
0.539459 0.692139 0.290985
0.650299 0.689636 0.290314
0.753784 0.687317 0.289734
0.858978 0.685211 0.289185
1.000000 0.683258 0.288696
0.184692 0.819763 0.291534
0.281982 0.819061 0.291229
0.418274 0.817505 0.290619
0.544006 0.815765 0.289948
0.654022 0.814117 0.289276
0.756653 0.812622 0.288696
0.860748 0.811310 0.288177
1.000000 0.810120 0.287689
0.188171 1.000000 0.290588
0.286499 1.000000 0.290283
0.422882 1.000000 0.289642
0.548096 1.000000 0.288971
0.657379 1.000000 0.288330
0.759155 1.000000 0.287720
0.862305 1.000000 0.287262
1.000000 1.000000 0.286835
0.159088 0.145752 0.431458
0.248413 0.144501 0.431213
0.383820 0.141724 0.430634
0.513641 0.138519 0.429962
0.629028 0.135437 0.429291
0.737640 0.132568 0.428711
0.848724 0.130005 0.428192
1.000000 0.127533 0.427673
0.161530 0.225891 0.430908
0.251678 0.224152 0.430664
0.387299 0.220367 0.430084
0.516754 0.215973 0.429352
0.631622 0.211853 0.428711
0.739594 0.208038 0.428131
0.849976 0.204590 0.427582
1.000000 0.201385 0.427094
0.166779 0.348938 0.429779
0.258636 0.346985 0.429443
0.394531 0.342804 0.428833
0.523163 0.338074 0.428131
0.636810 0.333679 0.427460
0.743500 0.329712 0.426910
0.852386 0.326233 0.426361
1.000000 0.323029 0.425873
0.172577 0.471039 0.428375
0.266235 0.469269 0.428070
0.402222 0.465515 0.427429
0.529785 0.461365 0.426758
0.642120 0.457642 0.426117
0.747467 0.454254 0.425568
0.854889 0.451111 0.425018
1.000000 0.448059 0.424530
0.177673 0.584503 0.427094
0.272797 0.583069 0.426788
0.408752 0.580078 0.426178
0.535400 0.576813 0.425507
0.646820 0.573639 0.424866
0.751129 0.570618 0.424255
0.857300 0.567902 0.423706
1.000000 0.565338 0.423187
0.181885 0.697327 0.425964
0.278229 0.696259 0.425659
0.414337 0.693939 0.425049
0.540497 0.691284 0.424347
0.651093 0.688721 0.423676
0.754425 0.686371 0.423065
0.859375 0.684296 0.422485
1.000000 0.682343 0.421997
0.185516 0.819244 0.424957
0.283051 0.818512 0.424652
0.419373 0.816956 0.423981
0.544983 0.815186 0.423248
0.654846 0.813538 0.422577
0.757233 0.812073 0.421967
0.861115 0.810730 0.421448
1.000000 0.809570 0.420929
0.188965 1.000000 0.423920
0.287567 1.000000 0.423645
0.423981 1.000000 0.422974
0.549011 1.000000 0.422241
0.658142 1.000000 0.421600
0.759674 1.000000 0.420990
0.862671 1.000000 0.420502
1.000000 1.000000 0.420044
0.160126 0.144684 0.552765
0.249847 0.143402 0.552490
0.385315 0.140594 0.551971
0.515015 0.137360 0.551392
0.630127 0.134216 0.550751
0.738464 0.131317 0.550232
0.849243 0.128754 0.549744
1.000000 0.126282 0.549255
0.162598 0.224426 0.552277
0.253113 0.222626 0.552002
0.388794 0.218781 0.551483
0.518158 0.214386 0.550812
0.632721 0.210205 0.550232
0.740417 0.206390 0.549713
0.850464 0.202942 0.549194
1.000000 0.199768 0.548767
0.167877 0.347290 0.551178
0.260101 0.345276 0.550903
0.395996 0.341095 0.550323
0.524414 0.336365 0.549683
0.637848 0.331940 0.549072
0.744263 0.328033 0.548584
0.852844 0.324585 0.548096
1.000000 0.321350 0.547668
0.173615 0.469513 0.549927
0.267578 0.467682 0.549683
0.403595 0.463989 0.549042
0.530945 0.459900 0.548462
0.643066 0.456207 0.547882
0.748199 0.452759 0.547363
0.855377 0.449554 0.546875
1.000000 0.446472 0.546387
0.178650 0.583252 0.548767
0.274017 0.581818 0.548492
0.409973 0.578918 0.547913
0.536499 0.575562 0.547333
0.647766 0.572327 0.546722
0.751892 0.569305 0.546143
0.857758 0.566559 0.545685
1.000000 0.563965 0.545197
0.182770 0.696442 0.547729
0.279419 0.695343 0.547485
0.415588 0.692963 0.546906
0.541595 0.690277 0.546234
0.652039 0.687714 0.545624
0.755157 0.685364 0.545074
0.859833 0.683289 0.544586
1.000000 0.681366 0.544128
0.186432 0.818573 0.546783
0.284241 0.817871 0.546509
0.420593 0.816315 0.545929
0.546082 0.814514 0.545258
0.655731 0.812897 0.544647
0.757904 0.811432 0.544098
0.861572 0.810150 0.543640
1.000000 0.808960 0.543182
0.189850 1.000000 0.545898
0.288727 1.000000 0.545593
0.425171 1.000000 0.544983
0.550079 1.000000 0.544342
0.658966 1.000000 0.543762
0.760284 1.000000 0.543213
0.863007 1.000000 0.542786
1.000000 1.000000 0.542419
0.161133 0.143646 0.658966
0.251160 0.142365 0.658752
0.386749 0.139496 0.658295
0.516266 0.136169 0.657776
0.631195 0.133026 0.657257
0.739288 0.130157 0.656799
0.849731 0.127563 0.656372
1.000000 0.125122 0.656006
0.163605 0.223022 0.658539
0.254456 0.221191 0.658325
0.390198 0.217285 0.657867
0.519379 0.212860 0.657288
0.633728 0.208649 0.656799
0.741180 0.204834 0.656311
0.850952 0.201416 0.655945
1.000000 0.198242 0.655548
0.168884 0.345673 0.657593
0.261414 0.343689 0.657349
0.397339 0.339478 0.656891
0.525604 0.334747 0.656342
0.638794 0.330353 0.655853
0.744965 0.326447 0.655396
0.853271 0.323029 0.654999
1.000000 0.319763 0.654633
0.174591 0.468079 0.656525
0.268829 0.466309 0.656311
0.404846 0.462585 0.655823
0.531982 0.458557 0.655304
0.643921 0.454834 0.654816
0.748871 0.451324 0.654358
0.855835 0.448059 0.653961
1.000000 0.444946 0.653534
0.179535 0.582123 0.655548
0.275177 0.580719 0.655334
0.411102 0.577789 0.654846
0.537567 0.574402 0.654327
0.648682 0.571136 0.653809
0.752563 0.568085 0.653320
0.858154 0.565338 0.652924
1.000000 0.562744 0.652496
0.183624 0.695557 0.654663
0.280518 0.694427 0.654449
0.416779 0.692047 0.653992
0.542664 0.689331 0.653412
0.652893 0.686768 0.652893
0.755798 0.684448 0.652405
0.860229 0.682343 0.652008
1.000000 0.680420 0.651611
0.187256 0.818024 0.653870
0.285370 0.817291 0.653625
0.421722 0.815704 0.653137
0.547089 0.813934 0.652557
0.656555 0.812286 0.652069
0.758484 0.810852 0.651611
0.861908 0.809570 0.651184
1.000000 0.808411 0.650818
0.190674 1.000000 0.653076
0.289795 1.000000 0.652863
0.426239 1.000000 0.652344
0.550995 1.000000 0.651794
0.659698 1.000000 0.651306
0.760834 1.000000 0.650848
0.863342 1.000000 0.650513
1.000000 1.000000 0.650208
0.162018 0.142700 0.758759
0.252350 0.141357 0.758575
0.388031 0.138489 0.758240
0.517395 0.135162 0.757812
0.632111 0.132019 0.757416
0.739990 0.129089 0.757080
0.850189 0.126495 0.756744
1.000000 0.124054 0.756409
0.164551 0.221710 0.758423
0.255676 0.219879 0.758240
0.391479 0.215942 0.757874
0.520477 0.211487 0.757446
0.634644 0.207245 0.757080
0.741852 0.203430 0.756714
0.851349 0.200012 0.756378
1.000000 0.196869 0.756104
0.169830 0.344269 0.757660
0.262604 0.342255 0.757507
0.398560 0.338013 0.757141
0.526642 0.333252 0.756714
0.639618 0.328918 0.756317
0.745605 0.325043 0.755951
0.853699 0.321594 0.755676
1.000000 0.318268 0.755402
0.175446 0.466797 0.756866
0.269958 0.464996 0.756653
0.405945 0.461304 0.756287
0.532928 0.457336 0.755890
0.644745 0.453552 0.755524
0.749512 0.449982 0.755188
0.856232 0.446747 0.754852
1.000000 0.443604 0.754517
0.180298 0.581116 0.756073
0.276154 0.579742 0.755920
0.412170 0.576752 0.755554
0.538513 0.573334 0.755157
0.649445 0.570007 0.754761
0.753174 0.566956 0.754395
0.858582 0.564209 0.754028
1.000000 0.561584 0.753723
0.184357 0.694733 0.755432
0.281525 0.693634 0.755249
0.417786 0.691223 0.754852
0.543579 0.688507 0.754425
0.653687 0.685913 0.753998
0.756378 0.683594 0.753632
0.860596 0.681519 0.753326
1.000000 0.679596 0.753052
0.188019 0.817505 0.754791
0.286346 0.816711 0.754608
0.422760 0.815125 0.754211
0.547974 0.813385 0.753754
0.657257 0.811768 0.753387
0.759033 0.810303 0.753052
0.862274 0.809052 0.752686
1.000000 0.807922 0.752441
0.191406 1.000000 0.754181
0.290741 1.000000 0.753998
0.427216 1.000000 0.753571
0.551849 1.000000 0.753174
0.660370 1.000000 0.752808
0.761322 1.000000 0.752502
0.863617 1.000000 0.752197
1.000000 1.000000 0.751984
0.162872 0.141846 0.861145
0.253418 0.140503 0.861053
0.389130 0.137573 0.860809
0.518433 0.134186 0.860535
0.632965 0.131012 0.860321
0.740631 0.128113 0.860077
0.850586 0.125549 0.859863
1.000000 0.123108 0.859680
0.165344 0.220520 0.860962
0.256775 0.218658 0.860840
0.392609 0.214722 0.860596
0.521484 0.210205 0.860321
0.635437 0.205994 0.860077
0.742493 0.202179 0.859833
0.851746 0.198792 0.859619
1.000000 0.195679 0.859436
0.170624 0.342987 0.860474
0.263672 0.340942 0.860382
0.399628 0.336670 0.860107
0.527588 0.331970 0.859833
0.640381 0.327637 0.859589
0.746155 0.323822 0.859344
0.854065 0.320343 0.859131
1.000000 0.316925 0.858948
0.176208 0.465668 0.859924
0.270935 0.463867 0.859833
0.406921 0.460175 0.859589
0.533752 0.456238 0.859314
0.645447 0.452362 0.859039
0.750061 0.448792 0.858826
0.856598 0.445496 0.858612
1.000000 0.442322 0.858429
0.181000 0.580200 0.859436
0.277069 0.578796 0.859314
0.413086 0.575836 0.859070
0.539398 0.572327 0.858826
0.650177 0.569031 0.858551
0.753723 0.565948 0.858337
0.858887 0.563202 0.858093
1.000000 0.560577 0.857880
0.185028 0.694031 0.858978
0.282410 0.692871 0.858887
0.418732 0.690460 0.858643
0.544403 0.687714 0.858368
0.654358 0.685150 0.858093
0.756897 0.682831 0.857849
0.860901 0.680756 0.857635
1.000000 0.678894 0.857452
0.188721 0.817017 0.858582
0.287231 0.816254 0.858490
0.423645 0.814636 0.858246
0.548767 0.812927 0.857941
0.657928 0.811279 0.857666
0.759521 0.809845 0.857452
0.862549 0.808594 0.857239
1.000000 0.807495 0.857086
0.192078 1.000000 0.858215
0.291626 1.000000 0.858063
0.428040 1.000000 0.857819
0.552582 1.000000 0.857544
0.660950 1.000000 0.857300
0.761719 1.000000 0.857086
0.863831 1.000000 0.856903
1.000000 1.000000 0.856781
0.163605 0.141022 1.000000
0.254486 0.139648 1.000000
0.390198 0.136688 1.000000
0.519348 0.133331 1.000000
0.633728 0.130127 1.000000
0.741180 0.127258 1.000000
0.850952 0.124634 1.000000
1.000000 0.122253 1.000000
0.166168 0.219421 1.000000
0.257812 0.217529 1.000000
0.393677 0.213531 1.000000
0.522369 0.209015 1.000000
0.636200 0.204834 1.000000
0.743042 0.201019 1.000000
0.852112 0.197632 1.000000
1.000000 0.194519 1.000000
0.171387 0.341766 1.000000
0.264648 0.339752 1.000000
0.400635 0.335449 1.000000
0.528442 0.330750 1.000000
0.641052 0.326447 1.000000
0.746643 0.322632 1.000000
0.854370 0.319092 1.000000
1.000000 0.315674 1.000000
0.176941 0.464569 1.000000
0.271851 0.462799 1.000000
0.407806 0.459137 1.000000
0.534546 0.455170 1.000000
0.646118 0.451294 1.000000
0.750580 0.447662 1.000000
0.856934 0.444336 1.000000
1.000000 0.441162 1.000000
0.181641 0.579376 1.000000
0.277863 0.577942 1.000000
0.414001 0.574951 1.000000
0.540161 0.571411 1.000000
0.650848 0.568054 1.000000
0.754242 0.565002 1.000000
0.859222 0.562225 1.000000
1.000000 0.559631 1.000000
0.185669 0.693359 1.000000
0.283295 0.692169 1.000000
0.419586 0.689758 1.000000
0.545166 0.687012 1.000000
0.654999 0.684418 1.000000
0.757355 0.682098 1.000000
0.861206 0.680054 1.000000
1.000000 0.678192 1.000000
0.189362 0.816528 1.000000
0.288055 0.815796 1.000000
0.424500 0.814209 1.000000
0.549469 0.812439 1.000000
0.658508 0.810852 1.000000
0.759949 0.809418 1.000000
0.862823 0.808197 1.000000
1.000000 0.807129 1.000000
0.192657 1.000000 1.000000
0.292389 1.000000 1.000000
0.428833 1.000000 1.000000
0.553253 1.000000 1.000000
0.661469 1.000000 1.000000
0.762115 1.000000 1.000000
0.864044 1.000000 1.000000
1.000000 1.000000 1.000000
