luts/purple.CUBE
#Created by: Adobe Photoshop Export Color Lookup Plugin
TITLE "Untitled Session02649.JPG"
#LUT size
LUT_3D_SIZE 64
#data domain
DOMAIN_MIN 0.0 0.0 0.0
DOMAIN_MAX 1.0 1.0 1.0
#LUT data points
0.157745 0.147095 0.197784
0.165619 0.147003 0.197784
0.173523 0.146912 0.197754
0.181793 0.146820 0.197754
0.190491 0.146698 0.197723
0.199890 0.146576 0.197693
0.210144 0.146423 0.197693
0.221283 0.146240 0.197632
0.233459 0.146088 0.197601
0.246582 0.145905 0.197601
0.260406 0.145660 0.197571
0.274689 0.145416 0.197540
0.289337 0.145172 0.197479
0.304230 0.144836 0.197449
0.319336 0.144562 0.197418
0.334808 0.144257 0.197357
0.350494 0.143921 0.197327
0.366211 0.143585 0.197266
0.381836 0.143250 0.197205
0.397339 0.142883 0.197174
0.412567 0.142548 0.197113
0.427490 0.142212 0.197052
0.442139 0.141846 0.196991
0.456512 0.141510 0.196960
0.470673 0.141174 0.196899
0.484589 0.140839 0.196838
0.498322 0.140472 0.196777
0.511902 0.140137 0.196747
0.525269 0.139771 0.196686
0.538513 0.139404 0.196625
0.551636 0.139099 0.196564
0.564484 0.138763 0.196533
0.577332 0.138397 0.196472
0.590057 0.138062 0.196411
0.602600 0.137695 0.196350
0.615143 0.137421 0.196320
0.627533 0.137085 0.196259
0.639862 0.136719 0.196228
0.652100 0.136414 0.196136
0.664276 0.136078 0.196136
0.676422 0.135803 0.196045
0.688507 0.135468 0.196014
0.700531 0.135162 0.195953
0.712494 0.134857 0.195923
0.724487 0.134552 0.195862
0.736481 0.134247 0.195801
0.748474 0.133942 0.195770
0.760437 0.133667 0.195740
0.772522 0.133362 0.195709
0.784668 0.133057 0.195679
0.796997 0.132782 0.195618
0.809387 0.132507 0.195587
0.822021 0.132233 0.195526
0.834869 0.131927 0.195526
0.847961 0.131653 0.195465
0.861481 0.131378 0.195435
0.875397 0.131104 0.195374
0.889832 0.130829 0.195312
0.904907 0.130585 0.195312
0.920807 0.130310 0.195251
0.937836 0.130035 0.195221
0.956207 0.129761 0.195160
0.976715 0.129486 0.195129
1.000000 0.129181 0.195099
0.157928 0.154266 0.197754
0.165802 0.154205 0.197723
0.173706 0.154083 0.197723
0.181976 0.153992 0.197693
0.190674 0.153870 0.197693
0.200073 0.153748 0.197662
0.210358 0.153595 0.197632
0.221466 0.153442 0.197601
0.233704 0.153259 0.197601
0.246826 0.153015 0.197571
0.260651 0.152771 0.197540
0.274933 0.152527 0.197510
0.289612 0.152252 0.197449
0.304504 0.151947 0.197418
0.319611 0.151642 0.197357
0.335083 0.151276 0.197327
0.350739 0.150970 0.197266
0.366455 0.150635 0.197235
0.382111 0.150269 0.197174
0.397583 0.149902 0.197113
0.412842 0.149536 0.197052
0.427795 0.149170 0.196991
0.442383 0.148804 0.196960
0.456787 0.148468 0.196899
0.470917 0.148102 0.196869
0.484863 0.147736 0.196777
0.498566 0.147369 0.196747
0.512115 0.147003 0.196716
0.525543 0.146667 0.196625
0.538727 0.146301 0.196594
0.551819 0.145935 0.196564
0.564758 0.145599 0.196503
0.577545 0.145233 0.196442
0.590210 0.144867 0.196381
0.602783 0.144531 0.196350
0.615326 0.144196 0.196259
0.627747 0.143829 0.196228
0.640045 0.143494 0.196167
0.652313 0.143158 0.196136
0.664459 0.142822 0.196075
0.676575 0.142517 0.196014
0.688690 0.142181 0.195953
0.700714 0.141846 0.195923
0.712677 0.141510 0.195892
0.724670 0.141205 0.195831
0.736633 0.140900 0.195801
0.748627 0.140594 0.195770
0.760590 0.140289 0.195709
0.772675 0.139954 0.195679
0.784821 0.139679 0.195618
0.797089 0.139374 0.195587
0.809509 0.139099 0.195526
0.822113 0.138794 0.195526
0.834961 0.138489 0.195465
0.848083 0.138214 0.195435
0.861603 0.137939 0.195374
0.875458 0.137665 0.195343
0.889893 0.137360 0.195282
0.904938 0.137054 0.195282
0.920898 0.136810 0.195221
0.937897 0.136536 0.195160
0.956268 0.136261 0.195129
0.976715 0.135956 0.195099
1.000000 0.135712 0.195068
0.158112 0.161530 0.197723
0.165955 0.161438 0.197693
0.173920 0.161316 0.197693
0.182159 0.161194 0.197662
0.190887 0.161072 0.197662
0.200317 0.160950 0.197632
0.210571 0.160797 0.197632
0.221741 0.160645 0.197601
0.233948 0.160461 0.197571
0.247070 0.160248 0.197540
0.260895 0.159973 0.197510
0.275208 0.159698 0.197479
0.289886 0.159424 0.197449
0.304749 0.159119 0.197388
0.319855 0.158783 0.197357
0.335327 0.158447 0.197296
0.351044 0.158081 0.197266
0.366730 0.157715 0.197205
0.382385 0.157318 0.197144
0.397858 0.156982 0.197083
0.413116 0.156616 0.197021
0.428040 0.156219 0.196991
0.442657 0.155823 0.196930
0.457062 0.155457 0.196869
0.471191 0.155121 0.196808
0.485107 0.154724 0.196777
0.498810 0.154327 0.196716
0.512360 0.153961 0.196655
0.525787 0.153595 0.196594
0.538971 0.153229 0.196564
0.552063 0.152863 0.196503
0.564972 0.152496 0.196442
0.577759 0.152100 0.196411
0.590454 0.151764 0.196350
0.603058 0.151398 0.196289
0.615540 0.151031 0.196259
0.627960 0.150696 0.196198
0.640259 0.150330 0.196136
0.652496 0.149994 0.196106
0.664673 0.149658 0.196045
0.676788 0.149292 0.195984
0.688843 0.148956 0.195953
0.700867 0.148621 0.195892
0.712860 0.148285 0.195831
0.724854 0.147949 0.195801
0.736786 0.147644 0.195770
0.748779 0.147308 0.195740
0.760742 0.146973 0.195679
0.772827 0.146667 0.195648
0.784912 0.146393 0.195618
0.797211 0.146057 0.195557
0.809601 0.145752 0.195526
0.822205 0.145416 0.195496
0.835052 0.145142 0.195435
0.848206 0.144867 0.195404
0.861664 0.144562 0.195343
0.875549 0.144257 0.195312
0.889984 0.143951 0.195282
0.905029 0.143677 0.195251
0.920929 0.143372 0.195190
0.937958 0.143097 0.195160
0.956268 0.142822 0.195099
0.976715 0.142517 0.195068
1.000000 0.142242 0.195038
0.158295 0.169006 0.197693
0.166168 0.168915 0.197662
0.174133 0.168823 0.197662
0.182373 0.168701 0.197632
0.191132 0.168579 0.197632
0.200562 0.168457 0.197601
0.210815 0.168304 0.197601
0.221985 0.168121 0.197571
0.234222 0.167938 0.197540
0.247345 0.167664 0.197510
0.261169 0.167389 0.197479
0.275513 0.167145 0.197449
0.290131 0.166870 0.197388
0.305023 0.166534 0.197357
0.320160 0.166168 0.197327
0.335632 0.165833 0.197266
0.351318 0.165466 0.197205
0.367035 0.165100 0.197174
0.382690 0.164703 0.197113
0.398163 0.164307 0.197052
0.413391 0.163910 0.196991
0.428284 0.163544 0.196960
0.442932 0.163147 0.196899
0.457336 0.162750 0.196838
0.471466 0.162354 0.196777
0.485382 0.161957 0.196747
0.499084 0.161591 0.196686
0.512634 0.161163 0.196625
0.526031 0.160797 0.196564
0.539215 0.160431 0.196533
0.552307 0.160034 0.196472
0.565186 0.159668 0.196442
0.578003 0.159302 0.196350
0.590698 0.158905 0.196320
0.603271 0.158539 0.196259
0.615753 0.158142 0.196198
0.628174 0.157776 0.196167
0.640472 0.157440 0.196106
0.652710 0.157074 0.196045
0.664886 0.156708 0.195984
0.676971 0.156342 0.195923
0.689026 0.156006 0.195923
0.701080 0.155640 0.195862
0.713013 0.155304 0.195801
0.725006 0.154968 0.195770
0.736969 0.154633 0.195740
0.748932 0.154297 0.195679
0.760895 0.153961 0.195648
0.772980 0.153656 0.195618
0.785065 0.153351 0.195557
0.797363 0.153015 0.195526
0.809784 0.152679 0.195496
0.822327 0.152405 0.195465
0.835175 0.152069 0.195404
0.848297 0.151733 0.195343
0.861755 0.151459 0.195312
0.875610 0.151154 0.195282
0.890045 0.150879 0.195251
0.905121 0.150543 0.195190
0.920990 0.150238 0.195160
0.937988 0.149933 0.195099
0.956329 0.149658 0.195068
0.976746 0.149353 0.195038
1.000000 0.149078 0.194977
0.158478 0.176941 0.197662
0.166382 0.176849 0.197632
0.174347 0.176727 0.197632
0.182648 0.176636 0.197601
0.191376 0.176514 0.197601
0.200806 0.176361 0.197601
0.211090 0.176208 0.197571
0.222260 0.176025 0.197540
0.234497 0.175812 0.197510
0.247650 0.175568 0.197479
0.261475 0.175262 0.197449
0.275787 0.174988 0.197418
0.290466 0.174713 0.197357
0.305328 0.174347 0.197327
0.320465 0.174011 0.197296
0.335968 0.173645 0.197235
0.351624 0.173279 0.197205
0.367310 0.172852 0.197113
0.383026 0.172485 0.197052
0.398468 0.172058 0.197021
0.413696 0.171661 0.196960
0.428589 0.171265 0.196930
0.443268 0.170868 0.196838
0.457642 0.170441 0.196808
0.471741 0.170013 0.196747
0.485657 0.169647 0.196686
0.499359 0.169250 0.196655
0.512939 0.168793 0.196594
0.526306 0.168427 0.196564
0.539490 0.168060 0.196472
0.552582 0.167633 0.196442
0.565460 0.167236 0.196381
0.578278 0.166840 0.196320
0.590942 0.166473 0.196289
0.603516 0.166107 0.196198
0.615997 0.165680 0.196167
0.628387 0.165314 0.196106
0.640686 0.164917 0.196075
0.652954 0.164551 0.196014
0.665070 0.164185 0.195953
0.677185 0.163818 0.195923
0.689270 0.163452 0.195862
0.701263 0.163086 0.195831
0.713226 0.162750 0.195770
0.725189 0.162384 0.195740
0.737152 0.162018 0.195679
0.749115 0.161682 0.195648
0.761047 0.161346 0.195618
0.773102 0.161041 0.195557
0.785217 0.160706 0.195526
0.797516 0.160339 0.195496
0.809906 0.160034 0.195465
0.822479 0.159698 0.195404
0.835297 0.159424 0.195343
0.848419 0.159088 0.195312
0.861877 0.158752 0.195282
0.875732 0.158447 0.195251
0.890167 0.158142 0.195190
0.905212 0.157837 0.195160
0.921082 0.157532 0.195099
0.938019 0.157196 0.195068
0.956329 0.156891 0.195038
0.976776 0.156586 0.194977
1.000000 0.156281 0.194946
0.158752 0.185486 0.197601
0.166656 0.185394 0.197601
0.174622 0.185272 0.197601
0.182922 0.185150 0.197571
0.191681 0.185028 0.197571
0.201141 0.184875 0.197540
0.211365 0.184692 0.197540
0.222565 0.184509 0.197479
0.234802 0.184296 0.197479
0.247986 0.184052 0.197449
0.261810 0.183777 0.197388
0.276123 0.183472 0.197388
0.290802 0.183105 0.197327
0.305725 0.182800 0.197296
0.320831 0.182434 0.197235
0.336304 0.182037 0.197174
0.351990 0.181641 0.197144
0.367706 0.181274 0.197083
0.383331 0.180847 0.197021
0.398834 0.180420 0.196991
0.414032 0.179993 0.196930
0.428986 0.179596 0.196869
0.443604 0.179169 0.196808
0.457947 0.178711 0.196777
0.472076 0.178314 0.196716
0.485962 0.177887 0.196655
0.499664 0.177490 0.196594
0.513214 0.177063 0.196564
0.526611 0.176666 0.196503
0.539825 0.176239 0.196442
0.552887 0.175842 0.196381
0.565765 0.175415 0.196320
0.578552 0.175018 0.196289
0.591248 0.174591 0.196228
0.603790 0.174225 0.196167
0.616302 0.173828 0.196136
0.628662 0.173431 0.196075
0.640961 0.173035 0.196014
0.653168 0.172668 0.195953
0.665344 0.172272 0.195923
0.677399 0.171906 0.195862
0.689484 0.171509 0.195831
0.701508 0.171143 0.195770
0.713409 0.170807 0.195740
0.725372 0.170410 0.195679
0.737335 0.170044 0.195648
0.749329 0.169708 0.195618
0.761261 0.169373 0.195557
0.773315 0.169006 0.195526
0.785400 0.168671 0.195496
0.797668 0.168335 0.195465
0.810059 0.167999 0.195404
0.822601 0.167664 0.195343
0.835449 0.167328 0.195312
0.848541 0.166992 0.195282
0.862000 0.166656 0.195221
0.875854 0.166321 0.195190
0.890259 0.165985 0.195160
0.905304 0.165680 0.195099
0.921143 0.165375 0.195068
0.938110 0.165070 0.195038
0.956390 0.164734 0.194977
0.976837 0.164429 0.194946
1.000000 0.164093 0.194885
0.159058 0.194824 0.197601
0.166931 0.194702 0.197571
0.174927 0.194580 0.197571
0.183197 0.194458 0.197540
0.191986 0.194305 0.197510
0.201416 0.194153 0.197510
0.211761 0.193970 0.197479
0.222931 0.193756 0.197449
0.235168 0.193542 0.197449
0.248322 0.193298 0.197388
0.262177 0.192993 0.197357
0.276520 0.192688 0.197327
0.291199 0.192352 0.197296
0.306122 0.191986 0.197235
0.321228 0.191620 0.197205
0.336700 0.191223 0.197144
0.352386 0.190796 0.197083
0.368134 0.190399 0.197021
0.383759 0.189972 0.196991
0.399200 0.189514 0.196930
0.414429 0.189117 0.196869
0.429382 0.188660 0.196808
0.443970 0.188202 0.196777
0.458313 0.187775 0.196716
0.472473 0.187378 0.196655
0.486389 0.186920 0.196594
0.500031 0.186462 0.196564
0.513580 0.186066 0.196503
0.526978 0.185638 0.196442
0.540161 0.185211 0.196381
0.553253 0.184784 0.196350
0.566101 0.184387 0.196289
0.578888 0.183929 0.196228
0.591553 0.183533 0.196167
0.604126 0.183105 0.196106
0.616608 0.182709 0.196075
0.628967 0.182281 0.196014
0.641266 0.181885 0.195953
0.653473 0.181519 0.195923
0.665619 0.181091 0.195862
0.677704 0.180695 0.195831
0.689758 0.180328 0.195770
0.701752 0.179932 0.195740
0.713684 0.179535 0.195679
0.725647 0.179199 0.195648
0.737610 0.178802 0.195618
0.749542 0.178467 0.195557
0.761475 0.178070 0.195526
0.773529 0.177734 0.195496
0.785614 0.177368 0.195435
0.797852 0.177032 0.195404
0.810211 0.176697 0.195343
0.822784 0.176331 0.195312
0.835602 0.175995 0.195251
0.848694 0.175659 0.195221
0.862122 0.175323 0.195160
0.875946 0.174988 0.195129
0.890381 0.174652 0.195099
0.905365 0.174316 0.195038
0.921234 0.174011 0.195007
0.938141 0.173676 0.194977
0.956451 0.173340 0.194916
0.976837 0.173004 0.194885
1.000000 0.172699 0.194855
0.159332 0.204895 0.197540
0.167267 0.204773 0.197510
0.175262 0.204651 0.197510
0.183563 0.204529 0.197479
0.192322 0.204346 0.197479
0.201782 0.204254 0.197449
0.212158 0.204071 0.197449
0.223328 0.203857 0.197418
0.235596 0.203613 0.197388
0.248749 0.203339 0.197357
0.262604 0.203003 0.197327
0.276947 0.202698 0.197296
0.291626 0.202362 0.197205
0.306519 0.201996 0.197205
0.321655 0.201599 0.197144
0.337158 0.201172 0.197083
0.352844 0.200745 0.197052
0.368561 0.200317 0.196991
0.384186 0.199860 0.196930
0.399658 0.199432 0.196869
0.414917 0.198975 0.196808
0.429779 0.198517 0.196777
0.444397 0.198059 0.196716
0.458771 0.197632 0.196686
0.472870 0.197205 0.196594
0.486786 0.196716 0.196564
0.500458 0.196289 0.196503
0.514038 0.195831 0.196442
0.527374 0.195404 0.196381
0.540558 0.194977 0.196320
0.553619 0.194519 0.196289
0.566498 0.194092 0.196228
0.579254 0.193665 0.196167
0.591919 0.193237 0.196136
0.604462 0.192780 0.196075
0.616943 0.192352 0.196014
0.629303 0.191956 0.195923
0.641602 0.191528 0.195923
0.653809 0.191132 0.195862
0.665924 0.190704 0.195801
0.678009 0.190308 0.195770
0.690033 0.189941 0.195740
0.702026 0.189514 0.195679
0.713959 0.189117 0.195618
0.725922 0.188751 0.195587
0.737854 0.188354 0.195526
0.749786 0.187958 0.195526
0.761688 0.187561 0.195465
0.773743 0.187225 0.195435
0.785797 0.186920 0.195374
0.798065 0.186523 0.195312
0.810425 0.186127 0.195312
0.822998 0.185760 0.195251
0.835785 0.185425 0.195221
0.848846 0.185089 0.195160
0.862305 0.184753 0.195129
0.876099 0.184387 0.195099
0.890503 0.184052 0.195038
0.905518 0.183746 0.195007
0.921326 0.183411 0.194946
0.938232 0.183075 0.194916
0.956482 0.182739 0.194885
0.976837 0.182404 0.194824
1.000000 0.182037 0.194794
0.159698 0.215942 0.197479
0.167633 0.215820 0.197449
0.175629 0.215698 0.197449
0.183990 0.215546 0.197418
0.192749 0.215393 0.197418
0.202240 0.215271 0.197418
0.212524 0.215057 0.197388
0.223785 0.214844 0.197357
0.236053 0.214630 0.197327
0.249237 0.214325 0.197296
0.263123 0.214020 0.197266
0.277466 0.213654 0.197205
0.292145 0.213287 0.197174
0.307068 0.212921 0.197113
0.322205 0.212494 0.197083
0.337677 0.212097 0.197021
0.353363 0.211670 0.196991
0.369049 0.211212 0.196930
0.384705 0.210754 0.196869
0.400208 0.210266 0.196808
0.415405 0.209808 0.196747
0.430298 0.209351 0.196686
0.444916 0.208862 0.196655
0.459290 0.208405 0.196594
0.473358 0.207977 0.196564
0.487244 0.207489 0.196503
0.500946 0.207031 0.196442
0.514465 0.206543 0.196381
0.527832 0.206116 0.196320
0.541016 0.205658 0.196259
0.554077 0.205200 0.196228
0.566925 0.204773 0.196167
0.579681 0.204346 0.196106
0.592346 0.203888 0.196045
0.604858 0.203430 0.195984
0.617340 0.203003 0.195923
0.629669 0.202576 0.195892
0.641968 0.202148 0.195831
0.654175 0.201691 0.195801
0.666290 0.201294 0.195740
0.678345 0.200897 0.195709
0.690369 0.200470 0.195679
0.702362 0.200073 0.195618
0.714264 0.199646 0.195557
0.726196 0.199280 0.195526
0.738129 0.198883 0.195496
0.750061 0.198486 0.195465
0.761963 0.198090 0.195404
0.773987 0.197723 0.195343
0.786072 0.197357 0.195312
0.798309 0.196991 0.195282
0.810638 0.196594 0.195221
0.823181 0.196228 0.195190
0.835968 0.195892 0.195129
0.849030 0.195526 0.195099
0.862457 0.195160 0.195068
0.876251 0.194824 0.195007
0.890656 0.194458 0.194946
0.905609 0.194122 0.194916
0.921417 0.193756 0.194885
0.938324 0.193420 0.194855
0.956573 0.193054 0.194794
0.976898 0.192719 0.194763
1.000000 0.192383 0.194702
0.160065 0.227844 0.197449
0.168030 0.227692 0.197418
0.176086 0.227570 0.197388
0.184418 0.227448 0.197388
0.193237 0.227295 0.197357
0.202728 0.227081 0.197357
0.213043 0.226929 0.197327
0.224304 0.226685 0.197296
0.236603 0.226440 0.197266
0.249786 0.226135 0.197235
0.263672 0.225830 0.197205
0.278015 0.225494 0.197144
0.292725 0.225098 0.197113
0.307617 0.224701 0.197052
0.322784 0.224274 0.197021
0.338257 0.223816 0.196960
0.353943 0.223389 0.196930
0.369659 0.222931 0.196838
0.385284 0.222443 0.196808
0.400757 0.221954 0.196747
0.415955 0.221466 0.196686
0.430878 0.220978 0.196655
0.445465 0.220520 0.196564
0.459839 0.220062 0.196533
0.473907 0.219574 0.196472
0.487823 0.219086 0.196411
0.501465 0.218628 0.196350
0.514984 0.218170 0.196320
0.528351 0.217682 0.196259
0.541504 0.217224 0.196198
0.554535 0.216736 0.196136
0.567413 0.216309 0.196075
0.580170 0.215820 0.196014
0.592804 0.215393 0.195984
0.605316 0.214935 0.195923
0.617737 0.214478 0.195892
0.630127 0.214020 0.195831
0.642395 0.213593 0.195770
0.654572 0.213165 0.195740
0.666687 0.212738 0.195679
0.678741 0.212311 0.195648
0.690765 0.211884 0.195587
0.702728 0.211456 0.195557
0.714630 0.211060 0.195526
0.726562 0.210602 0.195496
0.738464 0.210236 0.195404
0.750397 0.209839 0.195374
0.762268 0.209442 0.195312
0.774292 0.209045 0.195282
0.786346 0.208679 0.195251
0.798553 0.208282 0.195190
0.810883 0.207916 0.195160
0.823425 0.207550 0.195099
0.836212 0.207153 0.195068
0.849213 0.206848 0.195038
0.862671 0.206421 0.194977
0.876434 0.206085 0.194946
0.890778 0.205719 0.194885
0.905762 0.205383 0.194885
0.921539 0.205017 0.194794
0.938416 0.204651 0.194763
0.956635 0.204285 0.194733
0.976959 0.203949 0.194672
1.000000 0.203583 0.194672
0.160553 0.240356 0.197357
0.168518 0.240204 0.197357
0.176575 0.240082 0.197327
0.184906 0.239929 0.197327
0.193756 0.239746 0.197296
0.203278 0.239594 0.197266
0.213654 0.239410 0.197235
0.224884 0.239166 0.197235
0.237183 0.238892 0.197205
0.250397 0.238586 0.197144
0.264313 0.238251 0.197113
0.278656 0.237915 0.197083
0.293365 0.237518 0.197021
0.308289 0.237122 0.196991
0.323425 0.236664 0.196960
0.338898 0.236206 0.196869
0.354584 0.235779 0.196808
0.370331 0.235291 0.196777
0.385956 0.234772 0.196716
0.401398 0.234314 0.196686
0.416626 0.233795 0.196594
0.431488 0.233307 0.196564
0.446106 0.232819 0.196503
0.460419 0.232330 0.196442
0.474518 0.231842 0.196381
0.488403 0.231354 0.196350
0.502075 0.230896 0.196289
0.515564 0.230408 0.196228
0.528931 0.229919 0.196167
0.542053 0.229431 0.196106
0.555115 0.228943 0.196045
0.567963 0.228485 0.195984
0.580688 0.227997 0.195953
0.593323 0.227570 0.195892
0.605835 0.227081 0.195831
0.618286 0.226624 0.195801
0.630615 0.226166 0.195740
0.642853 0.225739 0.195709
0.655029 0.225281 0.195679
0.667145 0.224854 0.195618
0.679169 0.224396 0.195557
0.691162 0.223969 0.195526
0.703125 0.223541 0.195496
0.715027 0.223114 0.195435
0.726929 0.222717 0.195374
0.738831 0.222321 0.195343
0.750732 0.221893 0.195282
0.762604 0.221497 0.195251
0.774597 0.221100 0.195190
0.786652 0.220734 0.195160
0.798859 0.220306 0.195129
0.811188 0.219940 0.195068
0.823669 0.219543 0.195038
0.836456 0.219177 0.194977
0.849457 0.218781 0.194946
0.862885 0.218414 0.194916
0.876617 0.218048 0.194855
0.890961 0.217712 0.194794
0.905914 0.217346 0.194763
0.921661 0.216980 0.194702
0.938507 0.216614 0.194702
0.956696 0.216217 0.194641
0.976959 0.215881 0.194611
1.000000 0.215546 0.194580
0.161041 0.253296 0.197266
0.169037 0.253143 0.197266
0.177094 0.253021 0.197235
0.185486 0.252869 0.197235
0.194336 0.252686 0.197205
0.203857 0.252533 0.197205
0.214233 0.252350 0.197174
0.225494 0.252075 0.197144
0.237823 0.251801 0.197113
0.251068 0.251495 0.197052
0.264984 0.251190 0.197021
0.279327 0.250793 0.196991
0.294037 0.250397 0.196960
0.308990 0.249969 0.196899
0.324127 0.249542 0.196838
0.339630 0.249084 0.196808
0.355286 0.248627 0.196747
0.371002 0.248108 0.196716
0.386627 0.247620 0.196655
0.402100 0.247101 0.196594
0.417267 0.246613 0.196533
0.432190 0.246094 0.196472
0.446747 0.245636 0.196411
0.461090 0.245117 0.196350
0.475189 0.244598 0.196320
0.489044 0.244141 0.196259
0.502686 0.243622 0.196198
0.516174 0.243103 0.196136
0.529510 0.242615 0.196075
0.542664 0.242157 0.196014
0.555695 0.241638 0.195953
0.568512 0.241180 0.195923
0.581268 0.240692 0.195862
0.593872 0.240234 0.195831
0.606384 0.239746 0.195740
0.618805 0.239288 0.195709
0.631104 0.238831 0.195679
0.643372 0.238342 0.195618
0.655518 0.237915 0.195587
0.667603 0.237457 0.195526
0.679626 0.237030 0.195496
0.691620 0.236603 0.195435
0.703552 0.236145 0.195374
0.715454 0.235718 0.195343
0.727325 0.235321 0.195282
0.739197 0.234863 0.195251
0.751099 0.234497 0.195190
0.762970 0.234070 0.195160
0.774963 0.233643 0.195099
0.786957 0.233276 0.195068
0.799194 0.232849 0.195038
0.811462 0.232483 0.194977
0.823975 0.232117 0.194946
0.836700 0.231720 0.194885
0.849731 0.231323 0.194855
0.863098 0.230957 0.194794
0.876862 0.230591 0.194733
0.891144 0.230194 0.194702
0.906067 0.229858 0.194672
0.921814 0.229462 0.194641
0.938660 0.229095 0.194611
0.956757 0.228729 0.194550
0.977020 0.228363 0.194519
1.000000 0.228027 0.194458
0.161591 0.266632 0.197205
0.169586 0.266449 0.197174
0.177673 0.266327 0.197174
0.186066 0.266174 0.197144
0.194946 0.265991 0.197113
0.204468 0.265808 0.197083
0.214874 0.265594 0.197083
0.226196 0.265381 0.197052
0.238525 0.265106 0.197021
0.251770 0.264771 0.196991
0.265686 0.264435 0.196960
0.280090 0.264069 0.196930
0.294861 0.263641 0.196869
0.309784 0.263214 0.196808
0.324921 0.262756 0.196777
0.340363 0.262299 0.196716
0.356049 0.261810 0.196655
0.371796 0.261292 0.196625
0.387360 0.260803 0.196564
0.402832 0.260284 0.196472
0.418030 0.259766 0.196442
0.432922 0.259277 0.196350
0.447479 0.258789 0.196350
0.461853 0.258240 0.196259
0.475861 0.257751 0.196228
0.489746 0.257233 0.196136
0.503387 0.256744 0.196075
0.516876 0.256226 0.196045
0.530182 0.255768 0.195953
0.543335 0.255249 0.195923
0.556335 0.254761 0.195862
0.569183 0.254242 0.195831
0.581848 0.253815 0.195770
0.594452 0.253326 0.195709
0.606964 0.252808 0.195679
0.619354 0.252350 0.195618
0.631683 0.251892 0.195587
0.643890 0.251434 0.195526
0.656036 0.250946 0.195496
0.668121 0.250519 0.195435
0.680145 0.250061 0.195404
0.692078 0.249603 0.195343
0.704010 0.249146 0.195282
0.715881 0.248779 0.195251
0.727753 0.248322 0.195190
0.739624 0.247864 0.195160
0.751495 0.247467 0.195099
0.763367 0.247101 0.195038
0.775360 0.246674 0.195007
0.787323 0.246246 0.194977
0.799500 0.245850 0.194916
0.811798 0.245483 0.194885
0.824280 0.245087 0.194824
0.837006 0.244659 0.194794
0.849945 0.244324 0.194733
0.863342 0.243927 0.194702
0.877075 0.243561 0.194672
0.891357 0.243164 0.194641
0.906250 0.242767 0.194580
0.921967 0.242432 0.194550
0.938782 0.242065 0.194489
0.956879 0.241699 0.194458
0.977081 0.241302 0.194427
1.000000 0.240936 0.194366
0.162140 0.280151 0.197083
0.170197 0.279999 0.197083
0.178284 0.279846 0.197052
0.186707 0.279724 0.197052
0.195618 0.279572 0.197021
0.205170 0.279358 0.197021
0.215576 0.279144 0.196991
0.226898 0.278900 0.196960
0.239258 0.278595 0.196930
0.252533 0.278290 0.196899
0.266479 0.277954 0.196838
0.280884 0.277557 0.196808
0.295624 0.277130 0.196777
0.310547 0.276733 0.196747
0.325714 0.276276 0.196686
0.341187 0.275787 0.196625
0.356873 0.275299 0.196564
0.372559 0.274780 0.196503
0.388184 0.274292 0.196472
0.403625 0.273743 0.196381
0.418793 0.273224 0.196350
0.433685 0.272736 0.196289
0.448212 0.272186 0.196228
0.462555 0.271667 0.196167
0.476624 0.271179 0.196106
0.490479 0.270660 0.196045
0.504150 0.270172 0.195984
0.517578 0.269623 0.195953
0.530884 0.269165 0.195892
0.544006 0.268646 0.195831
0.556976 0.268127 0.195770
0.569794 0.267670 0.195709
0.582489 0.267181 0.195679
0.595062 0.266693 0.195648
0.607574 0.266205 0.195587
0.619934 0.265747 0.195557
0.632263 0.265259 0.195496
0.644440 0.264771 0.195465
0.656616 0.264313 0.195374
0.668640 0.263885 0.195343
0.680664 0.263428 0.195282
0.692596 0.262939 0.195251
0.704529 0.262543 0.195190
0.716370 0.262085 0.195160
0.728241 0.261688 0.195099
0.740112 0.261230 0.195038
0.751923 0.260803 0.195007
0.763794 0.260406 0.194946
0.775726 0.259979 0.194916
