luts/rose.CUBE
#Created by: Adobe Photoshop Export Color Lookup Plugin
TITLE "rose"
#LUT size
LUT_3D_SIZE 8
#data domain
DOMAIN_MIN 0.0 0.0 0.0
DOMAIN_MAX 1.0 1.0 1.0
#LUT data points
0.113739 0.113739 0.113739
0.221985 0.113739 0.113739
0.340393 0.113739 0.113739
0.469116 0.113739 0.113739
0.603729 0.113739 0.113739
0.739807 0.113739 0.113739
0.899689 0.113739 0.113739
1.000000 0.113739 0.113739
0.113739 0.211700 0.156189
0.221985 0.211700 0.150299
0.340393 0.211700 0.144409
0.469116 0.211700 0.138489
0.603729 0.211700 0.132629
0.739807 0.211700 0.126740
0.899689 0.211700 0.120850
1.000000 0.211700 0.114990
0.113739 0.317627 0.199402
0.221985 0.317627 0.193359
0.340393 0.317627 0.187317
0.469116 0.317627 0.181305
0.603729 0.317627 0.175323
0.739807 0.317627 0.169342
0.899689 0.317627 0.163422
1.000000 0.317627 0.157471
0.113739 0.432709 0.244049
0.221985 0.432709 0.237732
0.340393 0.432709 0.231476
0.469116 0.432709 0.225281
0.603729 0.432709 0.219055
0.739807 0.432709 0.212921
0.899689 0.432709 0.206787
1.000000 0.432709 0.200714
0.113739 0.553650 0.290710
0.221985 0.553650 0.284088
0.340393 0.553650 0.277557
0.469116 0.553650 0.271027
0.603729 0.553650 0.264557
0.739807 0.553650 0.258148
0.899689 0.553650 0.251740
1.000000 0.553650 0.245392
0.113739 0.677063 0.339264
0.221985 0.677063 0.332428
0.340393 0.677063 0.325653
0.469116 0.677063 0.318848
0.603729 0.677063 0.312103
0.739807 0.677063 0.305389
0.899689 0.677063 0.298737
1.000000 0.677063 0.292084
0.113739 0.803802 0.389496
0.221985 0.803802 0.382446
0.340393 0.803802 0.375427
0.469116 0.803802 0.368439
0.603729 0.803802 0.361450
0.739807 0.803802 0.354523
0.899689 0.803802 0.347595
1.000000 0.803802 0.340729
0.113739 0.971924 0.441101
0.221985 0.971924 0.433868
0.340393 0.971924 0.426666
0.469116 0.971924 0.419495
0.603729 0.971924 0.412354
0.739807 0.971924 0.405212
0.899689 0.971924 0.398102
1.000000 0.971924 0.391022
0.113739 0.116638 0.170135
0.213837 0.116638 0.164185
0.331299 0.116638 0.158234
0.459442 0.116638 0.152344
0.593781 0.116638 0.146454
0.729797 0.116638 0.140533
0.885559 0.116638 0.134644
1.000000 0.116638 0.128754
0.113739 0.214722 0.213715
0.213837 0.214722 0.207611
0.331299 0.214722 0.201477
0.459442 0.214722 0.195435
0.593781 0.214722 0.189392
0.729797 0.214722 0.183380
0.885559 0.214722 0.177368
1.000000 0.214722 0.171387
0.113739 0.320953 0.258972
0.213837 0.320953 0.252563
0.331299 0.320953 0.246216
0.459442 0.320953 0.239868
0.593781 0.320953 0.233612
0.729797 0.320953 0.227386
0.885559 0.320953 0.221191
1.000000 0.320953 0.215027
0.113739 0.436249 0.306274
0.213837 0.436249 0.299591
0.331299 0.436249 0.292938
0.459442 0.436249 0.286346
0.593781 0.436249 0.279785
0.729797 0.436249 0.273285
0.885559 0.436249 0.266785
1.000000 0.436249 0.260315
0.113739 0.557312 0.355438
0.213837 0.557312 0.348511
0.331299 0.557312 0.341644
0.459442 0.557312 0.334778
0.593781 0.557312 0.327972
0.729797 0.557312 0.321198
0.885559 0.557312 0.314423
1.000000 0.557312 0.307709
0.113739 0.680756 0.406128
0.213837 0.680756 0.399017
0.331299 0.680756 0.391937
0.459442 0.680756 0.384888
0.593781 0.680756 0.377838
0.729797 0.680756 0.370819
0.885559 0.680756 0.363861
1.000000 0.680756 0.356903
0.113739 0.807983 0.458130
0.213837 0.807983 0.450836
0.331299 0.807983 0.443604
0.459442 0.807983 0.436371
0.593781 0.807983 0.429169
0.729797 0.807983 0.421967
0.885559 0.807983 0.414795
1.000000 0.807983 0.407654
0.113739 0.977600 0.511108
0.213837 0.977600 0.503723
0.331299 0.977600 0.496338
0.459442 0.977600 0.488953
0.593781 0.977600 0.481628
0.729797 0.977600 0.474274
0.885559 0.977600 0.466980
1.000000 0.977600 0.459686
0.113739 0.119507 0.228210
0.205688 0.119507 0.221985
0.322296 0.119507 0.215820
0.449768 0.119507 0.209717
0.583832 0.119507 0.203583
0.719849 0.119507 0.197510
0.871857 0.119507 0.191467
1.000000 0.119507 0.185455
0.113739 0.217743 0.274109
0.205688 0.217743 0.267639
0.322296 0.217743 0.261169
0.449768 0.217743 0.254761
0.583832 0.217743 0.248413
0.719849 0.217743 0.242065
0.871857 0.217743 0.235779
1.000000 0.217743 0.229523
0.113739 0.324280 0.322052
0.205688 0.324280 0.315308
0.322296 0.324280 0.308563
0.449768 0.324280 0.301880
0.583832 0.324280 0.295227
0.719849 0.324280 0.288635
0.871857 0.324280 0.282043
1.000000 0.324280 0.275513
0.113739 0.439789 0.371735
0.205688 0.439789 0.364746
0.322296 0.439789 0.357819
0.449768 0.439789 0.350891
0.583832 0.439789 0.343994
0.719849 0.439789 0.337128
0.871857 0.439789 0.330292
1.000000 0.439789 0.323486
0.113739 0.560974 0.422913
0.205688 0.560974 0.415741
0.322296 0.560974 0.408600
0.449768 0.560974 0.401459
0.583832 0.560974 0.394379
0.719849 0.560974 0.387299
0.871857 0.560974 0.380249
1.000000 0.560974 0.373230
0.113739 0.684448 0.475250
0.205688 0.684448 0.467926
0.322296 0.684448 0.460632
0.449768 0.684448 0.453339
0.583832 0.684448 0.446106
0.719849 0.684448 0.438843
0.871857 0.684448 0.431641
1.000000 0.684448 0.424438
0.113739 0.812195 0.528473
0.205688 0.812195 0.521057
0.322296 0.812195 0.513641
0.449768 0.812195 0.506256
0.583832 0.812195 0.498871
0.719849 0.812195 0.491486
0.871857 0.812195 0.484161
1.000000 0.812195 0.476807
0.113739 0.983337 0.582336
0.205688 0.983337 0.574829
0.322296 0.983337 0.567352
0.449768 0.983337 0.559875
0.583832 0.983337 0.552399
0.719849 0.983337 0.544952
0.871857 0.983337 0.537506
1.000000 0.983337 0.530060
0.113739 0.122406 0.289490
0.197601 0.122406 0.282898
0.313324 0.122406 0.276367
0.440155 0.122406 0.269867
0.573853 0.122406 0.263397
0.709930 0.122406 0.256958
0.858673 0.122406 0.250580
1.000000 0.122406 0.244232
0.113739 0.220764 0.338043
0.197601 0.220764 0.331207
0.313324 0.220764 0.324402
0.440155 0.220764 0.317627
0.573853 0.220764 0.310883
0.709930 0.220764 0.304169
0.858673 0.220764 0.297516
1.000000 0.220764 0.290894
0.113739 0.327606 0.388245
0.197601 0.327606 0.381165
0.313324 0.327606 0.374146
0.440155 0.327606 0.367157
0.573853 0.327606 0.360199
0.709930 0.327606 0.353271
0.858673 0.327606 0.346375
1.000000 0.327606 0.339508
0.113739 0.443329 0.439789
0.197601 0.443329 0.432556
0.313324 0.443329 0.425385
0.440155 0.443329 0.418213
0.573853 0.443329 0.411041
0.709930 0.443329 0.403900
0.858673 0.443329 0.396820
1.000000 0.443329 0.389709
0.113739 0.564667 0.492462
0.197601 0.564667 0.485107
0.313324 0.564667 0.477753
0.440155 0.564667 0.470459
0.573853 0.564667 0.463135
0.709930 0.564667 0.455872
0.858673 0.564667 0.448578
1.000000 0.564667 0.441345
0.113739 0.688141 0.545929
0.197601 0.688141 0.538483
0.313324 0.688141 0.531036
0.440155 0.688141 0.523621
0.573853 0.688141 0.516205
0.709930 0.688141 0.508789
0.858673 0.688141 0.501404
1.000000 0.688141 0.494019
0.113739 0.816467 0.599915
0.197601 0.816467 0.592407
0.313324 0.816467 0.584900
0.440155 0.816467 0.577423
0.573853 0.816467 0.569946
0.709930 0.816467 0.562439
0.858673 0.816467 0.554993
1.000000 0.816467 0.547516
0.113739 0.989075 0.654144
0.197601 0.989075 0.646606
0.313324 0.989075 0.639069
0.440155 0.989075 0.631592
0.573853 0.989075 0.624054
0.709930 0.989075 0.616547
0.858673 0.989075 0.609039
1.000000 0.989075 0.601501
0.113739 0.125305 0.354187
0.189575 0.125305 0.347290
0.304382 0.125305 0.340393
0.430573 0.125305 0.333557
0.563934 0.125305 0.326721
0.699951 0.125305 0.319977
0.845917 0.125305 0.313232
1.000000 0.125305 0.306519
0.113739 0.223846 0.404846
0.189575 0.223846 0.397736
0.304382 0.223846 0.390656
0.430573 0.223846 0.383636
0.563934 0.223846 0.376587
0.699951 0.223846 0.369568
0.845917 0.223846 0.362610
1.000000 0.223846 0.355652
0.113739 0.330963 0.456848
0.189575 0.330963 0.449554
0.304382 0.330963 0.442291
0.430573 0.330963 0.435059
0.563934 0.330963 0.427856
0.699951 0.330963 0.420685
0.845917 0.330963 0.413513
1.000000 0.330963 0.406403
0.113739 0.446930 0.509766
0.189575 0.446930 0.502380
0.304382 0.446930 0.494995
0.430573 0.446930 0.487640
0.563934 0.446930 0.480286
0.699951 0.446930 0.472961
0.845917 0.446930 0.465668
1.000000 0.446930 0.458374
0.113739 0.568359 0.563477
0.189575 0.568359 0.556000
0.304382 0.568359 0.548492
0.430573 0.568359 0.541046
0.563934 0.568359 0.533600
0.699951 0.568359 0.526184
0.845917 0.568359 0.518768
1.000000 0.568359 0.511383
0.113739 0.691864 0.617523
0.189575 0.691864 0.610016
0.304382 0.691864 0.602509
0.430573 0.691864 0.595032
0.563934 0.691864 0.587524
0.699951 0.691864 0.580017
0.845917 0.691864 0.572510
1.000000 0.691864 0.565033
0.113739 0.820801 0.671753
0.189575 0.820801 0.664276
0.304382 0.820801 0.656769
0.430573 0.820801 0.649200
0.563934 0.820801 0.641693
0.699951 0.820801 0.634155
0.845917 0.820801 0.626648
1.000000 0.820801 0.619141
0.113739 0.994843 0.725861
0.189575 0.994843 0.718384
0.304382 0.994843 0.710876
0.430573 0.994843 0.703400
0.563934 0.994843 0.695892
0.699951 0.994843 0.688416
0.845917 0.994843 0.680908
1.000000 0.994843 0.673370
0.113739 0.128204 0.421631
0.181610 0.128204 0.414459
0.295563 0.128204 0.407318
0.420990 0.128204 0.400177
0.554047 0.128204 0.393097
0.690002 0.128204 0.386047
0.833557 0.128204 0.378998
1.000000 0.128204 0.371979
0.113739 0.226868 0.473938
0.181610 0.226868 0.466614
0.295563 0.226868 0.459351
0.420990 0.226868 0.452057
0.554047 0.226868 0.444794
0.690002 0.226868 0.437561
0.833557 0.226868 0.430328
1.000000 0.226868 0.423157
0.113739 0.334320 0.527130
0.181610 0.334320 0.519714
0.295563 0.334320 0.512299
0.420990 0.334320 0.504913
0.554047 0.334320 0.497528
0.690002 0.334320 0.490173
0.833557 0.334320 0.482819
1.000000 0.334320 0.475494
0.113739 0.450500 0.580994
0.181610 0.450500 0.573486
0.295563 0.450500 0.566010
0.420990 0.450500 0.558533
0.554047 0.450500 0.551056
0.690002 0.450500 0.543610
0.833557 0.450500 0.536163
1.000000 0.450500 0.528717
0.113739 0.572052 0.635193
0.181610 0.572052 0.627625
0.295563 0.572052 0.620117
0.420990 0.572052 0.612610
0.554047 0.572052 0.605103
0.690002 0.572052 0.597565
0.833557 0.572052 0.590118
1.000000 0.572052 0.582611
0.113739 0.695557 0.689362
0.181610 0.695557 0.681854
0.295563 0.695557 0.674347
0.420990 0.695557 0.666870
0.554047 0.695557 0.659332
0.690002 0.695557 0.651794
0.833557 0.695557 0.644287
1.000000 0.695557 0.636749
0.113739 0.825165 0.743561
0.181610 0.825165 0.735992
0.295563 0.825165 0.728455
0.420990 0.825165 0.720947
0.554047 0.825165 0.713470
0.690002 0.825165 0.705963
0.833557 0.825165 0.698486
1.000000 0.825165 0.691010
0.113739 1.000000 0.800629
0.181610 1.000000 0.792328
0.295563 1.000000 0.784180
0.420990 1.000000 0.776154
0.554047 1.000000 0.768250
0.690002 1.000000 0.760498
0.833557 1.000000 0.752777
1.000000 1.000000 0.745148
0.113739 0.131073 0.491150
0.173676 0.131073 0.483795
0.286804 0.131073 0.476440
0.411530 0.131073 0.469116
0.544098 0.131073 0.461823
0.680054 0.131073 0.454559
0.821655 0.131073 0.447296
1.000000 0.131073 0.440033
0.113739 0.229950 0.544586
0.173676 0.229950 0.537140
0.286804 0.229950 0.529694
0.411530 0.229950 0.522278
0.544098 0.229950 0.514862
0.680054 0.229950 0.507477
0.821655 0.229950 0.500092
1.000000 0.229950 0.492706
0.113739 0.337708 0.598572
0.173676 0.337708 0.591064
0.286804 0.337708 0.583557
0.411530 0.337708 0.576080
0.544098 0.337708 0.568573
0.680054 0.337708 0.561096
0.821655 0.337708 0.553650
1.000000 0.337708 0.546173
0.113739 0.454071 0.652771
0.173676 0.454071 0.645264
0.286804 0.454071 0.637726
0.411530 0.454071 0.630219
0.544098 0.454071 0.622711
0.680054 0.454071 0.615173
0.821655 0.454071 0.607666
1.000000 0.454071 0.600159
0.113739 0.575745 0.706970
0.173676 0.575745 0.699463
0.286804 0.575745 0.691956
0.411530 0.575745 0.684448
0.544098 0.575745 0.676941
0.680054 0.575745 0.669464
0.821655 0.575745 0.661926
1.000000 0.575745 0.654388
0.113739 0.699219 0.761505
0.173676 0.699219 0.753784
0.286804 0.699219 0.746185
0.411530 0.699219 0.738586
0.544098 0.699219 0.731049
0.680054 0.699219 0.723541
0.821655 0.699219 0.716034
1.000000 0.699219 0.708557
0.113739 0.829559 0.820801
0.173676 0.829559 0.812073
0.286804 0.829559 0.803528
0.411530 0.829559 0.795166
0.544098 0.829559 0.786957
0.680054 0.829559 0.778900
0.821655 0.829559 0.770966
1.000000 0.829559 0.763184
0.113739 1.000000 0.890594
0.173676 1.000000 0.880096
0.286804 1.000000 0.869873
0.411530 1.000000 0.859924
0.544098 1.000000 0.850220
0.680054 1.000000 0.840851
0.821655 1.000000 0.831635
1.000000 1.000000 0.822662
0.113739 0.133972 0.562073
0.165741 0.133972 0.554626
0.278076 0.133972 0.547150
0.402069 0.133972 0.539703
0.534210 0.133972 0.532257
0.670044 0.133972 0.524841
0.810089 0.133972 0.517426
1.000000 0.133972 0.510010
0.113739 0.233002 0.616180
0.165741 0.233002 0.608673
0.278076 0.233002 0.601135
0.402069 0.233002 0.593628
0.534210 0.233002 0.586151
0.670044 0.233002 0.578644
0.810089 0.233002 0.571167
1.000000 0.233002 0.563690
0.113739 0.341064 0.670410
0.165741 0.341064 0.662903
0.278076 0.341064 0.655365
0.402069 0.341064 0.647858
0.534210 0.341064 0.640320
0.670044 0.341064 0.632812
0.810089 0.341064 0.625305
1.000000 0.341064 0.617767
0.113739 0.457642 0.724518
0.165741 0.457642 0.717041
0.278076 0.457642 0.709534
0.402069 0.457642 0.702057
0.534210 0.457642 0.694550
0.670044 0.457642 0.687042
0.810089 0.457642 0.679535
1.000000 0.457642 0.671997
0.113739 0.579376 0.779968
0.165741 0.579376 0.772003
0.278076 0.579376 0.764160
0.402069 0.579376 0.756439
0.534210 0.579376 0.748779
0.670044 0.579376 0.741211
0.810089 0.579376 0.733643
1.000000 0.579376 0.726105
0.113739 0.702911 0.842041
0.165741 0.702911 0.832794
0.278076 0.702911 0.823853
0.402069 0.702911 0.815063
0.534210 0.702911 0.806458
0.670044 0.702911 0.798035
0.810089 0.702911 0.789764
1.000000 0.702911 0.781677
0.113739 0.834015 0.915985
0.165741 0.834015 0.905029
0.278076 0.834015 0.894257
0.402069 0.834015 0.883667
0.534210 0.834015 0.873352
0.670044 0.834015 0.863312
0.810089 0.834015 0.853516
1.000000 0.834015 0.844055
0.113739 1.000000 0.998657
0.165741 1.000000 0.986969
0.278076 1.000000 0.975342
0.402069 1.000000 0.963715
0.534210 1.000000 0.952240
0.670044 1.000000 0.940796
0.810089 1.000000 0.929504
1.000000 1.000000 0.918304
