luts/rose.CUBE
#Created by: Adobe Photoshop Export Color Lookup Plugin
TITLE "rose"
#LUT size
LUT_3D_SIZE 4
#data domain
DOMAIN_MIN 0.0 0.0 0.0
DOMAIN_MAX 1.0 1.0 1.0
#LUT data points
0.113739 0.113739 0.113739
0.382385 0.113739 0.113739
0.694489 0.113739 0.113739
1.000000 0.113739 0.113739
0.113739 0.355133 0.214081
0.382385 0.355133 0.199829
0.694489 0.355133 0.185730
1.000000 0.355133 0.171753
0.113739 0.635834 0.322876
0.382385 0.635834 0.307159
0.694489 0.635834 0.291626
1.000000 0.635834 0.276306
0.113739 0.971924 0.441101
0.382385 0.971924 0.424255
0.694489 0.971924 0.407593
1.000000 0.971924 0.391022
0.113739 0.120483 0.248230
0.360718 0.120483 0.233521
0.671204 0.120483 0.219055
1.000000 0.120483 0.204742
0.113739 0.363098 0.360443
0.360718 0.363098 0.344330
0.671204 0.363098 0.328339
1.000000 0.363098 0.312531
0.113739 0.644470 0.480957
0.360718 0.644470 0.463928
0.671204 0.644470 0.446930
1.000000 0.644470 0.430054
0.113739 0.985260 0.606262
0.360718 0.985260 0.588715
0.671204 0.985260 0.571259
1.000000 0.985260 0.553833
0.113739 0.127228 0.398865
0.339325 0.127228 0.382355
0.647919 0.127228 0.366028
1.000000 0.127228 0.349823
0.113739 0.371124 0.521362
0.339325 0.371124 0.504059
0.647919 0.371124 0.486847
1.000000 0.371124 0.469788
0.113739 0.653107 0.647369
0.339325 0.653107 0.629791
0.647919 0.653107 0.612274
1.000000 0.653107 0.594757
0.113739 0.998657 0.774658
0.339325 0.998657 0.756470
0.647919 0.998657 0.738708
1.000000 0.998657 0.721130
0.113739 0.133972 0.562073
0.318237 0.133972 0.544647
0.624603 0.133972 0.527313
1.000000 0.133972 0.510010
0.113739 0.379150 0.688446
0.318237 0.379150 0.670959
0.624603 0.379150 0.653412
1.000000 0.379150 0.635834
0.113739 0.661713 0.820251
0.318237 0.661713 0.800232
0.624603 0.661713 0.781067
1.000000 0.661713 0.762695
0.113739 1.000000 0.998657
0.318237 1.000000 0.971466
0.624603 1.000000 0.944611
1.000000 1.000000 0.918304
