luts/rose.CUBE
#Created by: Adobe Photoshop Export Color Lookup Plugin
TITLE "rose"
#LUT size
LUT_3D_SIZE 64
#data domain
DOMAIN_MIN 0.0 0.0 0.0
DOMAIN_MAX 1.0 1.0 1.0
#LUT data points
0.113739 0.113739 0.113739
0.125549 0.113739 0.113739
0.137390 0.113739 0.113739
0.149231 0.113739 0.113739
0.161224 0.113739 0.113739
0.173157 0.113739 0.113739
0.185211 0.113739 0.113739
0.197388 0.113739 0.113739
0.209625 0.113739 0.113739
0.221985 0.113739 0.113739
0.234528 0.113739 0.113739
0.247223 0.113739 0.113739
0.260071 0.113739 0.113739
0.273071 0.113739 0.113739
0.286255 0.113739 0.113739
0.299561 0.113739 0.113739
0.313019 0.113739 0.113739
0.326630 0.113739 0.113739
0.340393 0.113739 0.113739
0.354248 0.113739 0.113739
0.368286 0.113739 0.113739
0.382385 0.113739 0.113739
0.396606 0.113739 0.113739
0.410919 0.113739 0.113739
0.425323 0.113739 0.113739
0.439850 0.113739 0.113739
0.454468 0.113739 0.113739
0.469116 0.113739 0.113739
0.483917 0.113739 0.113739
0.498688 0.113739 0.113739
0.513550 0.113739 0.113739
0.528473 0.113739 0.113739
0.543488 0.113739 0.113739
0.558502 0.113739 0.113739
0.573547 0.113739 0.113739
0.588623 0.113739 0.113739
0.603729 0.113739 0.113739
0.618866 0.113739 0.113739
0.633972 0.113739 0.113739
0.649139 0.113739 0.113739
0.664276 0.113739 0.113739
0.679413 0.113739 0.113739
0.694489 0.113739 0.113739
0.709564 0.113739 0.113739
0.724670 0.113739 0.113739
0.739807 0.113739 0.113739
0.755157 0.113739 0.113739
0.770813 0.113739 0.113739
0.786865 0.113739 0.113739
0.803528 0.113739 0.113739
0.820892 0.113739 0.113739
0.839081 0.113739 0.113739
0.858215 0.113739 0.113739
0.878479 0.113739 0.113739
0.899689 0.113739 0.113739
0.921753 0.113739 0.113739
0.944458 0.113739 0.113739
0.967590 0.113739 0.113739
0.990997 0.113739 0.113739
1.000000 0.113739 0.113739
1.000000 0.113739 0.113739
1.000000 0.113739 0.113739
1.000000 0.113739 0.113739
1.000000 0.113739 0.113739
0.113739 0.124451 0.118439
0.125549 0.124451 0.117767
0.137390 0.124451 0.117126
0.149231 0.124451 0.116486
0.161224 0.124451 0.115814
0.173157 0.124451 0.115173
0.185211 0.124451 0.114563
0.197388 0.124451 0.113892
0.209625 0.124451 0.113739
0.221985 0.124451 0.113739
0.234528 0.124451 0.113739
0.247223 0.124451 0.113739
0.260071 0.124451 0.113739
0.273071 0.124451 0.113739
0.286255 0.124451 0.113739
0.299561 0.124451 0.113739
0.313019 0.124451 0.113739
0.326630 0.124451 0.113739
0.340393 0.124451 0.113739
0.354248 0.124451 0.113739
0.368286 0.124451 0.113739
0.382385 0.124451 0.113739
0.396606 0.124451 0.113739
0.410919 0.124451 0.113739
0.425323 0.124451 0.113739
0.439850 0.124451 0.113739
0.454468 0.124451 0.113739
0.469116 0.124451 0.113739
0.483917 0.124451 0.113739
0.498688 0.124451 0.113739
0.513550 0.124451 0.113739
0.528473 0.124451 0.113739
0.543488 0.124451 0.113739
0.558502 0.124451 0.113739
0.573547 0.124451 0.113739
0.588623 0.124451 0.113739
0.603729 0.124451 0.113739
0.618866 0.124451 0.113739
0.633972 0.124451 0.113739
0.649139 0.124451 0.113739
0.664276 0.124451 0.113739
0.679413 0.124451 0.113739
0.694489 0.124451 0.113739
0.709564 0.124451 0.113739
0.724670 0.124451 0.113739
0.739807 0.124451 0.113739
0.755157 0.124451 0.113739
0.770813 0.124451 0.113739
0.786865 0.124451 0.113739
0.803528 0.124451 0.113739
0.820892 0.124451 0.113739
0.839081 0.124451 0.113739
0.858215 0.124451 0.113739
0.878479 0.124451 0.113739
0.899689 0.124451 0.113739
0.921753 0.124451 0.113739
0.944458 0.124451 0.113739
0.967590 0.124451 0.113739
0.990997 0.124451 0.113739
1.000000 0.124451 0.113739
1.000000 0.124451 0.113739
1.000000 0.124451 0.113739
1.000000 0.124451 0.113739
1.000000 0.124451 0.113739
0.113739 0.135223 0.123138
0.125549 0.135223 0.122498
0.137390 0.135223 0.121857
0.149231 0.135223 0.121185
0.161224 0.135223 0.120544
0.173157 0.135223 0.119904
0.185211 0.135223 0.119232
0.197388 0.135223 0.118591
0.209625 0.135223 0.117920
0.221985 0.135223 0.117279
0.234528 0.135223 0.116638
0.247223 0.135223 0.115967
0.260071 0.135223 0.115326
0.273071 0.135223 0.114685
0.286255 0.135223 0.114014
0.299561 0.135223 0.113739
0.313019 0.135223 0.113739
0.326630 0.135223 0.113739
0.340393 0.135223 0.113739
0.354248 0.135223 0.113739
0.368286 0.135223 0.113739
0.382385 0.135223 0.113739
0.396606 0.135223 0.113739
0.410919 0.135223 0.113739
0.425323 0.135223 0.113739
0.439850 0.135223 0.113739
0.454468 0.135223 0.113739
0.469116 0.135223 0.113739
0.483917 0.135223 0.113739
0.498688 0.135223 0.113739
0.513550 0.135223 0.113739
0.528473 0.135223 0.113739
0.543488 0.135223 0.113739
0.558502 0.135223 0.113739
0.573547 0.135223 0.113739
0.588623 0.135223 0.113739
0.603729 0.135223 0.113739
0.618866 0.135223 0.113739
0.633972 0.135223 0.113739
0.649139 0.135223 0.113739
0.664276 0.135223 0.113739
0.679413 0.135223 0.113739
0.694489 0.135223 0.113739
0.709564 0.135223 0.113739
0.724670 0.135223 0.113739
0.739807 0.135223 0.113739
0.755157 0.135223 0.113739
0.770813 0.135223 0.113739
0.786865 0.135223 0.113739
0.803528 0.135223 0.113739
0.820892 0.135223 0.113739
0.839081 0.135223 0.113739
0.858215 0.135223 0.113739
0.878479 0.135223 0.113739
0.899689 0.135223 0.113739
0.921753 0.135223 0.113739
0.944458 0.135223 0.113739
0.967590 0.135223 0.113739
0.990997 0.135223 0.113739
1.000000 0.135223 0.113739
1.000000 0.135223 0.113739
1.000000 0.135223 0.113739
1.000000 0.135223 0.113739
1.000000 0.135223 0.113739
0.113739 0.145966 0.127869
0.125549 0.145966 0.127197
0.137390 0.145966 0.126556
0.149231 0.145966 0.125916
0.161224 0.145966 0.125244
0.173157 0.145966 0.124573
0.185211 0.145966 0.123932
0.197388 0.145966 0.123291
0.209625 0.145966 0.122650
0.221985 0.145966 0.121979
0.234528 0.145966 0.121307
0.247223 0.145966 0.120697
0.260071 0.145966 0.120026
0.273071 0.145966 0.119354
0.286255 0.145966 0.118744
0.299561 0.145966 0.118103
0.313019 0.145966 0.117401
0.326630 0.145966 0.116760
0.340393 0.145966 0.116119
0.354248 0.145966 0.115479
0.368286 0.145966 0.114807
0.382385 0.145966 0.114166
0.396606 0.145966 0.113739
0.410919 0.145966 0.113739
0.425323 0.145966 0.113739
0.439850 0.145966 0.113739
0.454468 0.145966 0.113739
0.469116 0.145966 0.113739
0.483917 0.145966 0.113739
0.498688 0.145966 0.113739
0.513550 0.145966 0.113739
0.528473 0.145966 0.113739
0.543488 0.145966 0.113739
0.558502 0.145966 0.113739
0.573547 0.145966 0.113739
0.588623 0.145966 0.113739
0.603729 0.145966 0.113739
0.618866 0.145966 0.113739
0.633972 0.145966 0.113739
0.649139 0.145966 0.113739
0.664276 0.145966 0.113739
0.679413 0.145966 0.113739
0.694489 0.145966 0.113739
0.709564 0.145966 0.113739
0.724670 0.145966 0.113739
0.739807 0.145966 0.113739
0.755157 0.145966 0.113739
0.770813 0.145966 0.113739
0.786865 0.145966 0.113739
0.803528 0.145966 0.113739
0.820892 0.145966 0.113739
0.839081 0.145966 0.113739
0.858215 0.145966 0.113739
0.878479 0.145966 0.113739
0.899689 0.145966 0.113739
0.921753 0.145966 0.113739
0.944458 0.145966 0.113739
0.967590 0.145966 0.113739
0.990997 0.145966 0.113739
1.000000 0.145966 0.113739
1.000000 0.145966 0.113739
1.000000 0.145966 0.113739
1.000000 0.145966 0.113739
1.000000 0.145966 0.113739
0.113739 0.156799 0.132599
0.125549 0.156799 0.131897
0.137390 0.156799 0.131256
0.149231 0.156799 0.130615
0.161224 0.156799 0.129974
0.173157 0.156799 0.129303
0.185211 0.156799 0.128662
0.197388 0.156799 0.127991
0.209625 0.156799 0.127350
0.221985 0.156799 0.126678
0.234528 0.156799 0.126038
0.247223 0.156799 0.125397
0.260071 0.156799 0.124725
0.273071 0.156799 0.124084
0.286255 0.156799 0.123444
0.299561 0.156799 0.122772
0.313019 0.156799 0.122131
0.326630 0.156799 0.121460
0.340393 0.156799 0.120819
0.354248 0.156799 0.120178
0.368286 0.156799 0.119507
0.382385 0.156799 0.118866
0.396606 0.156799 0.118225
0.410919 0.156799 0.117584
0.425323 0.156799 0.116913
0.439850 0.156799 0.116272
0.454468 0.156799 0.115631
0.469116 0.156799 0.114960
0.483917 0.156799 0.114319
0.498688 0.156799 0.113739
0.513550 0.156799 0.113739
0.528473 0.156799 0.113739
0.543488 0.156799 0.113739
0.558502 0.156799 0.113739
0.573547 0.156799 0.113739
0.588623 0.156799 0.113739
0.603729 0.156799 0.113739
0.618866 0.156799 0.113739
0.633972 0.156799 0.113739
0.649139 0.156799 0.113739
0.664276 0.156799 0.113739
0.679413 0.156799 0.113739
0.694489 0.156799 0.113739
0.709564 0.156799 0.113739
0.724670 0.156799 0.113739
0.739807 0.156799 0.113739
0.755157 0.156799 0.113739
0.770813 0.156799 0.113739
0.786865 0.156799 0.113739
0.803528 0.156799 0.113739
0.820892 0.156799 0.113739
0.839081 0.156799 0.113739
0.858215 0.156799 0.113739
0.878479 0.156799 0.113739
0.899689 0.156799 0.113739
0.921753 0.156799 0.113739
0.944458 0.156799 0.113739
0.967590 0.156799 0.113739
0.990997 0.156799 0.113739
1.000000 0.156799 0.113739
1.000000 0.156799 0.113739
1.000000 0.156799 0.113739
1.000000 0.156799 0.113739
1.000000 0.156799 0.113739
0.113739 0.167633 0.137299
0.125549 0.167633 0.136627
0.137390 0.167633 0.135986
0.149231 0.167633 0.135345
0.161224 0.167633 0.134674
0.173157 0.167633 0.134033
0.185211 0.167633 0.133392
0.197388 0.167633 0.132721
0.209625 0.167633 0.132080
0.221985 0.167633 0.131409
0.234528 0.167633 0.130768
0.247223 0.167633 0.130127
0.260071 0.167633 0.129456
0.273071 0.167633 0.128784
0.286255 0.167633 0.128143
0.299561 0.167633 0.127502
0.313019 0.167633 0.126862
0.326630 0.167633 0.126190
0.340393 0.167633 0.125519
0.354248 0.167633 0.124878
0.368286 0.167633 0.124237
0.382385 0.167633 0.123566
0.396606 0.167633 0.122925
0.410919 0.167633 0.122284
0.425323 0.167633 0.121613
0.439850 0.167633 0.120941
0.454468 0.167633 0.120300
0.469116 0.167633 0.119659
0.483917 0.167633 0.119019
0.498688 0.167633 0.118347
0.513550 0.167633 0.117706
0.528473 0.167633 0.117035
0.543488 0.167633 0.116394
0.558502 0.167633 0.115723
0.573547 0.167633 0.115082
0.588623 0.167633 0.114441
0.603729 0.167633 0.113800
0.618866 0.167633 0.113739
0.633972 0.167633 0.113739
0.649139 0.167633 0.113739
0.664276 0.167633 0.113739
0.679413 0.167633 0.113739
0.694489 0.167633 0.113739
0.709564 0.167633 0.113739
0.724670 0.167633 0.113739
0.739807 0.167633 0.113739
0.755157 0.167633 0.113739
0.770813 0.167633 0.113739
0.786865 0.167633 0.113739
0.803528 0.167633 0.113739
0.820892 0.167633 0.113739
0.839081 0.167633 0.113739
0.858215 0.167633 0.113739
0.878479 0.167633 0.113739
0.899689 0.167633 0.113739
0.921753 0.167633 0.113739
0.944458 0.167633 0.113739
0.967590 0.167633 0.113739
0.990997 0.167633 0.113739
1.000000 0.167633 0.113739
1.000000 0.167633 0.113739
1.000000 0.167633 0.113739
1.000000 0.167633 0.113739
1.000000 0.167633 0.113739
0.113739 0.178528 0.142029
0.125549 0.178528 0.141357
0.137390 0.178528 0.140686
0.149231 0.178528 0.140045
0.161224 0.178528 0.139404
0.173157 0.178528 0.138733
0.185211 0.178528 0.138092
0.197388 0.178528 0.137421
0.209625 0.178528 0.136780
0.221985 0.178528 0.136139
0.234528 0.178528 0.135468
0.247223 0.178528 0.134796
0.260071 0.178528 0.134155
0.273071 0.178528 0.133514
0.286255 0.178528 0.132843
0.299561 0.178528 0.132202
0.313019 0.178528 0.131531
0.326630 0.178528 0.130890
0.340393 0.178528 0.130219
0.354248 0.178528 0.129578
0.368286 0.178528 0.128937
0.382385 0.178528 0.128265
0.396606 0.178528 0.127625
0.410919 0.178528 0.126984
0.425323 0.178528 0.126312
0.439850 0.178528 0.125671
0.454468 0.178528 0.125000
0.469116 0.178528 0.124390
0.483917 0.178528 0.123718
0.498688 0.178528 0.123047
0.513550 0.178528 0.122437
0.528473 0.178528 0.121765
0.543488 0.178528 0.121124
0.558502 0.178528 0.120453
0.573547 0.178528 0.119812
0.588623 0.178528 0.119171
0.603729 0.178528 0.118500
0.618866 0.178528 0.117828
0.633972 0.178528 0.117188
0.649139 0.178528 0.116547
0.664276 0.178528 0.115906
0.679413 0.178528 0.115234
0.694489 0.178528 0.114594
0.709564 0.178528 0.113953
0.724670 0.178528 0.113739
0.739807 0.178528 0.113739
0.755157 0.178528 0.113739
0.770813 0.178528 0.113739
0.786865 0.178528 0.113739
0.803528 0.178528 0.113739
0.820892 0.178528 0.113739
0.839081 0.178528 0.113739
0.858215 0.178528 0.113739
0.878479 0.178528 0.113739
0.899689 0.178528 0.113739
0.921753 0.178528 0.113739
0.944458 0.178528 0.113739
0.967590 0.178528 0.113739
0.990997 0.178528 0.113739
1.000000 0.178528 0.113739
1.000000 0.178528 0.113739
1.000000 0.178528 0.113739
1.000000 0.178528 0.113739
1.000000 0.178528 0.113739
0.113739 0.189514 0.146729
0.125549 0.189514 0.146118
0.137390 0.189514 0.145416
0.149231 0.189514 0.144775
0.161224 0.189514 0.144135
0.173157 0.189514 0.143463
0.185211 0.189514 0.142822
0.197388 0.189514 0.142181
0.209625 0.189514 0.141510
0.221985 0.189514 0.140869
0.234528 0.189514 0.140198
0.247223 0.189514 0.139526
0.260071 0.189514 0.138885
0.273071 0.189514 0.138245
0.286255 0.189514 0.137573
0.299561 0.189514 0.136932
0.313019 0.189514 0.136261
0.326630 0.189514 0.135620
0.340393 0.189514 0.134949
0.354248 0.189514 0.134308
0.368286 0.189514 0.133667
0.382385 0.189514 0.132996
0.396606 0.189514 0.132355
0.410919 0.189514 0.131683
0.425323 0.189514 0.131042
0.439850 0.189514 0.130402
0.454468 0.189514 0.129730
0.469116 0.189514 0.129089
0.483917 0.189514 0.128418
0.498688 0.189514 0.127777
0.513550 0.189514 0.127106
0.528473 0.189514 0.126465
0.543488 0.189514 0.125824
0.558502 0.189514 0.125153
0.573547 0.189514 0.124481
0.588623 0.189514 0.123840
0.603729 0.189514 0.123199
0.618866 0.189514 0.122559
0.633972 0.189514 0.121887
0.649139 0.189514 0.121246
0.664276 0.189514 0.120575
0.679413 0.189514 0.119934
0.694489 0.189514 0.119263
0.709564 0.189514 0.118622
0.724670 0.189514 0.117981
0.739807 0.189514 0.117310
0.755157 0.189514 0.116669
0.770813 0.189514 0.116028
0.786865 0.189514 0.115356
0.803528 0.189514 0.114716
0.820892 0.189514 0.114044
0.839081 0.189514 0.113739
0.858215 0.189514 0.113739
0.878479 0.189514 0.113739
0.899689 0.189514 0.113739
0.921753 0.189514 0.113739
0.944458 0.189514 0.113739
0.967590 0.189514 0.113739
0.990997 0.189514 0.113739
1.000000 0.189514 0.113739
1.000000 0.189514 0.113739
1.000000 0.189514 0.113739
1.000000 0.189514 0.113739
1.000000 0.189514 0.113739
0.113739 0.200562 0.151489
0.125549 0.200562 0.150818
0.137390 0.200562 0.150177
0.149231 0.200562 0.149506
0.161224 0.200562 0.148834
0.173157 0.200562 0.148193
0.185211 0.200562 0.147552
0.197388 0.200562 0.146881
0.209625 0.200562 0.146240
0.221985 0.200562 0.145569
0.234528 0.200562 0.144928
0.247223 0.200562 0.144257
0.260071 0.200562 0.143585
0.273071 0.200562 0.142944
0.286255 0.200562 0.142303
0.299561 0.200562 0.141632
0.313019 0.200562 0.140991
0.326630 0.200562 0.140320
0.340393 0.200562 0.139679
0.354248 0.200562 0.139008
0.368286 0.200562 0.138367
0.382385 0.200562 0.137726
0.396606 0.200562 0.137054
0.410919 0.200562 0.136383
0.425323 0.200562 0.135742
0.439850 0.200562 0.135101
0.454468 0.200562 0.134430
0.469116 0.200562 0.133759
0.483917 0.200562 0.133118
0.498688 0.200562 0.132477
0.513550 0.200562 0.131805
0.528473 0.200562 0.131165
0.543488 0.200562 0.130524
0.558502 0.200562 0.129852
0.573547 0.200562 0.129211
0.588623 0.200562 0.128571
0.603729 0.200562 0.127899
0.618866 0.200562 0.127258
0.633972 0.200562 0.126617
0.649139 0.200562 0.125977
0.664276 0.200562 0.125305
0.679413 0.200562 0.124664
0.694489 0.200562 0.123993
0.709564 0.200562 0.123352
0.724670 0.200562 0.122711
0.739807 0.200562 0.122040
0.755157 0.200562 0.121368
0.770813 0.200562 0.120728
0.786865 0.200562 0.120087
0.803528 0.200562 0.119446
0.820892 0.200562 0.118774
0.839081 0.200562 0.118134
0.858215 0.200562 0.117462
0.878479 0.200562 0.116821
0.899689 0.200562 0.116150
0.921753 0.200562 0.115509
0.944458 0.200562 0.114868
0.967590 0.200562 0.114227
0.990997 0.200562 0.113739
1.000000 0.200562 0.113739
1.000000 0.200562 0.113739
1.000000 0.200562 0.113739
1.000000 0.200562 0.113739
1.000000 0.200562 0.113739
0.113739 0.211700 0.156189
0.125549 0.211700 0.155548
0.137390 0.211700 0.154877
0.149231 0.211700 0.154236
0.161224 0.211700 0.153564
0.173157 0.211700 0.152924
0.185211 0.211700 0.152252
0.197388 0.211700 0.151611
0.209625 0.211700 0.150940
0.221985 0.211700 0.150299
0.234528 0.211700 0.149658
0.247223 0.211700 0.148987
0.260071 0.211700 0.148346
0.273071 0.211700 0.147705
0.286255 0.211700 0.147034
0.299561 0.211700 0.146362
0.313019 0.211700 0.145721
0.326630 0.211700 0.145050
0.340393 0.211700 0.144409
0.354248 0.211700 0.143738
0.368286 0.211700 0.143097
0.382385 0.211700 0.142456
0.396606 0.211700 0.141785
0.410919 0.211700 0.141113
0.425323 0.211700 0.140472
0.439850 0.211700 0.139832
0.454468 0.211700 0.139160
0.469116 0.211700 0.138489
0.483917 0.211700 0.137848
0.498688 0.211700 0.137207
0.513550 0.211700 0.136536
0.528473 0.211700 0.135895
0.543488 0.211700 0.135254
0.558502 0.211700 0.134583
0.573547 0.211700 0.133942
0.588623 0.211700 0.133270
0.603729 0.211700 0.132629
0.618866 0.211700 0.131958
0.633972 0.211700 0.131317
0.649139 0.211700 0.130646
0.664276 0.211700 0.130005
0.679413 0.211700 0.129364
0.694489 0.211700 0.128693
0.709564 0.211700 0.128021
0.724670 0.211700 0.127380
0.739807 0.211700 0.126740
0.755157 0.211700 0.126099
0.770813 0.211700 0.125427
0.786865 0.211700 0.124786
0.803528 0.211700 0.124115
0.820892 0.211700 0.123474
0.839081 0.211700 0.122803
0.858215 0.211700 0.122162
0.878479 0.211700 0.121521
0.899689 0.211700 0.120850
0.921753 0.211700 0.120209
0.944458 0.211700 0.119568
0.967590 0.211700 0.118896
0.990997 0.211700 0.118256
1.000000 0.211700 0.117584
1.000000 0.211700 0.116943
1.000000 0.211700 0.116302
1.000000 0.211700 0.115631
1.000000 0.211700 0.114990
0.113739 0.222961 0.160950
0.125549 0.222961 0.160309
0.137390 0.222961 0.159637
0.149231 0.222961 0.158997
0.161224 0.222961 0.158325
0.173157 0.222961 0.157684
0.185211 0.222961 0.157013
0.197388 0.222961 0.156372
0.209625 0.222961 0.155701
0.221985 0.222961 0.155029
0.234528 0.222961 0.154388
0.247223 0.222961 0.153748
0.260071 0.222961 0.153046
0.273071 0.222961 0.152405
0.286255 0.222961 0.151764
0.299561 0.222961 0.151093
0.313019 0.222961 0.150421
0.326630 0.222961 0.149780
0.340393 0.222961 0.149109
0.354248 0.222961 0.148468
0.368286 0.222961 0.147797
0.382385 0.222961 0.147156
0.396606 0.222961 0.146515
0.410919 0.222961 0.145844
0.425323 0.222961 0.145172
0.439850 0.222961 0.144531
0.454468 0.222961 0.143860
0.469116 0.222961 0.143219
0.483917 0.222961 0.142548
0.498688 0.222961 0.141907
0.513550 0.222961 0.141266
0.528473 0.222961 0.140594
0.543488 0.222961 0.139954
0.558502 0.222961 0.139282
0.573547 0.222961 0.138641
0.588623 0.222961 0.138000
0.603729 0.222961 0.137299
0.618866 0.222961 0.136658
0.633972 0.222961 0.136017
0.649139 0.222961 0.135376
0.664276 0.222961 0.134705
0.679413 0.222961 0.134064
0.694489 0.222961 0.133392
0.709564 0.222961 0.132751
0.724670 0.222961 0.132080
0.739807 0.222961 0.131470
0.755157 0.222961 0.130798
0.770813 0.222961 0.130157
0.786865 0.222961 0.129517
0.803528 0.222961 0.128845
0.820892 0.222961 0.128204
0.839081 0.222961 0.127533
0.858215 0.222961 0.126892
0.878479 0.222961 0.126251
0.899689 0.222961 0.125580
0.921753 0.222961 0.124908
0.944458 0.222961 0.124268
0.967590 0.222961 0.123627
0.990997 0.222961 0.122986
1.000000 0.222961 0.122314
1.000000 0.222961 0.121643
1.000000 0.222961 0.121002
1.000000 0.222961 0.120361
1.000000 0.222961 0.119690
0.113739 0.234344 0.165710
0.125549 0.234344 0.165039
0.137390 0.234344 0.164398
0.149231 0.234344 0.163727
0.161224 0.234344 0.163086
0.173157 0.234344 0.162415
0.185211 0.234344 0.161743
0.197388 0.234344 0.161102
0.209625 0.234344 0.160431
0.221985 0.234344 0.159760
0.234528 0.234344 0.159119
0.247223 0.234344 0.158447
0.260071 0.234344 0.157806
0.273071 0.234344 0.157135
0.286255 0.234344 0.156494
0.299561 0.234344 0.155823
0.313019 0.234344 0.155182
0.326630 0.234344 0.154541
0.340393 0.234344 0.153870
0.354248 0.234344 0.153229
0.368286 0.234344 0.152557
0.382385 0.234344 0.151886
0.396606 0.234344 0.151245
0.410919 0.234344 0.150574
0.425323 0.234344 0.149933
0.439850 0.234344 0.149261
0.454468 0.234344 0.148621
0.469116 0.234344 0.147980
0.483917 0.234344 0.147278
0.498688 0.234344 0.146637
0.513550 0.234344 0.145996
0.528473 0.234344 0.145325
0.543488 0.234344 0.144684
0.558502 0.234344 0.144012
0.573547 0.234344 0.143372
0.588623 0.234344 0.142731
0.603729 0.234344 0.142059
0.618866 0.234344 0.141388
0.633972 0.234344 0.140747
0.649139 0.234344 0.140106
0.664276 0.234344 0.139435
0.679413 0.234344 0.138794
0.694489 0.234344 0.138123
0.709564 0.234344 0.137482
0.724670 0.234344 0.136810
0.739807 0.234344 0.136169
0.755157 0.234344 0.135529
0.770813 0.234344 0.134857
0.786865 0.234344 0.134186
0.803528 0.234344 0.133545
0.820892 0.234344 0.132904
0.839081 0.234344 0.132263
0.858215 0.234344 0.131561
0.878479 0.234344 0.130920
0.899689 0.234344 0.130280
0.921753 0.234344 0.129639
0.944458 0.234344 0.128967
0.967590 0.234344 0.128326
0.990997 0.234344 0.127655
1.000000 0.234344 0.127014
1.000000 0.234344 0.126343
1.000000 0.234344 0.125702
1.000000 0.234344 0.125061
1.000000 0.234344 0.124390
0.113739 0.245850 0.170502
0.125549 0.245850 0.169830
0.137390 0.245850 0.169189
0.149231 0.245850 0.168518
0.161224 0.245850 0.167847
0.173157 0.245850 0.167175
0.185211 0.245850 0.166534
0.197388 0.245850 0.165863
0.209625 0.245850 0.165222
0.221985 0.245850 0.164551
0.234528 0.245850 0.163879
0.247223 0.245850 0.163239
0.260071 0.245850 0.162567
0.273071 0.245850 0.161896
0.286255 0.245850 0.161255
0.299561 0.245850 0.160583
0.313019 0.245850 0.159943
0.326630 0.245850 0.159271
0.340393 0.245850 0.158600
0.354248 0.245850 0.157959
0.368286 0.245850 0.157288
0.382385 0.245850 0.156616
0.396606 0.245850 0.155975
0.410919 0.245850 0.155334
0.425323 0.245850 0.154663
0.439850 0.245850 0.154022
0.454468 0.245850 0.153351
0.469116 0.245850 0.152710
0.483917 0.245850 0.152039
0.498688 0.245850 0.151398
0.513550 0.245850 0.150726
0.528473 0.245850 0.150085
0.543488 0.245850 0.149414
0.558502 0.245850 0.148773
0.573547 0.245850 0.148102
0.588623 0.245850 0.147461
0.603729 0.245850 0.146790
0.618866 0.245850 0.146149
0.633972 0.245850 0.145477
0.649139 0.245850 0.144836
0.664276 0.245850 0.144165
0.679413 0.245850 0.143524
0.694489 0.245850 0.142853
0.709564 0.245850 0.142212
0.724670 0.245850 0.141541
0.739807 0.245850 0.140900
0.755157 0.245850 0.140259
0.770813 0.245850 0.139587
0.786865 0.245850 0.138916
0.803528 0.245850 0.138275
0.820892 0.245850 0.137634
0.839081 0.245850 0.136963
0.858215 0.245850 0.136292
0.878479 0.245850 0.135651
0.899689 0.245850 0.135010
0.921753 0.245850 0.134338
0.944458 0.245850 0.133698
0.967590 0.245850 0.133057
0.990997 0.245850 0.132385
1.000000 0.245850 0.131744
1.000000 0.245850 0.131073
1.000000 0.245850 0.130432
1.000000 0.245850 0.129791
1.000000 0.245850 0.129120
0.113739 0.257477 0.175293
0.125549 0.257477 0.174622
0.137390 0.257477 0.173981
0.149231 0.257477 0.173309
0.161224 0.257477 0.172638
0.173157 0.257477 0.171967
0.185211 0.257477 0.171295
0.197388 0.257477 0.170654
0.209625 0.257477 0.169983
0.221985 0.257477 0.169312
0.234528 0.257477 0.168671
0.247223 0.257477 0.167999
0.260071 0.257477 0.167358
0.273071 0.257477 0.166656
0.286255 0.257477 0.166016
0.299561 0.257477 0.165375
0.313019 0.257477 0.164703
0.326630 0.257477 0.164032
0.340393 0.257477 0.163391
0.354248 0.257477 0.162720
0.368286 0.257477 0.162048
0.382385 0.257477 0.161377
0.396606 0.257477 0.160736
0.410919 0.257477 0.160095
0.425323 0.257477 0.159424
0.439850 0.257477 0.158752
0.454468 0.257477 0.158112
0.469116 0.257477 0.157440
0.483917 0.257477 0.156799
0.498688 0.257477 0.156097
0.513550 0.257477 0.155457
0.528473 0.257477 0.154816
0.543488 0.257477 0.154144
0.558502 0.257477 0.153473
0.573547 0.257477 0.152832
0.588623 0.257477 0.152161
0.603729 0.257477 0.151520
0.618866 0.257477 0.150848
0.633972 0.257477 0.150208
0.649139 0.257477 0.149567
0.664276 0.257477 0.148895
0.679413 0.257477 0.148224
0.694489 0.257477 0.147583
0.709564 0.257477 0.146912
0.724670 0.257477 0.146271
0.739807 0.257477 0.145599
0.755157 0.257477 0.144958
0.770813 0.257477 0.144318
0.786865 0.257477 0.143646
0.803528 0.257477 0.142975
