luts/teal.CUBE
#Created by: Adobe Photoshop Export Color Lookup Plugin
TITLE "Untitled Session02649.JPG"
#LUT size
LUT_3D_SIZE 8
#data domain
DOMAIN_MIN 0.0 0.0 0.0
DOMAIN_MAX 1.0 1.0 1.0
#LUT data points
0.107391 0.022125 0.014923
0.186340 0.025665 0.015472
0.329681 0.032806 0.015381
0.492798 0.040558 0.013550
0.649414 0.047791 0.010223
0.792786 0.054413 0.005920
0.946381 0.060455 0.000916
1.000000 0.130615 0.045319
0.086823 0.064575 0.017426
0.204834 0.061188 0.014008
0.337646 0.072998 0.015564
0.491974 0.095398 0.016052
0.648102 0.107758 0.011810
0.791534 0.118958 0.006714
0.945892 0.130310 0.001038
1.000000 0.200928 0.049011
0.039154 0.209045 0.019958
0.141388 0.222321 0.008270
0.381287 0.191620 0.000854
0.533508 0.165955 0.000000
0.672821 0.207825 0.000000
0.803833 0.255249 0.000000
0.947815 0.299988 0.000000
1.000000 0.359344 0.056519
0.000000 0.427460 0.023804
0.060150 0.431244 0.000000
0.359039 0.472137 0.000000
0.526398 0.350067 0.000000
0.669983 0.294617 0.000000
0.801697 0.339081 0.000000
0.947052 0.381470 0.000000
1.000000 0.435028 0.064697
0.000000 0.627808 0.037567
0.028412 0.627594 0.000000
0.277405 0.647797 0.000000
0.589569 0.674561 0.000000
0.660797 0.506165 0.000000
0.798584 0.443695 0.000000
0.946198 0.460541 0.000000
1.000000 0.501465 0.071869
0.000000 0.791443 0.052429
0.004761 0.790253 0.000000
0.217224 0.800507 0.000000
0.499786 0.816467 0.000000
0.777130 0.820770 0.000000
0.790039 0.642822 0.000000
0.944336 0.596069 0.000000
1.000000 0.560577 0.078461
0.000000 0.948242 0.072906
0.000000 0.947815 0.008209
0.168030 0.950348 0.000000
0.426605 0.954956 0.000000
0.720520 0.959229 0.000000
0.933563 0.898926 0.000000
0.941101 0.752533 0.000000
1.000000 0.682861 0.093506
0.082123 1.000000 0.151062
0.083191 1.000000 0.091614
0.182434 1.000000 0.082153
0.387909 1.000000 0.099915
0.617615 1.000000 0.116821
0.892059 1.000000 0.131622
1.000000 0.908661 0.124451
1.000000 0.797363 0.109070
0.107513 0.023193 0.034546
0.179565 0.026062 0.038208
0.325867 0.023346 0.034515
0.492889 0.017914 0.024414
0.649933 0.012970 0.015717
0.793518 0.007233 0.006409
0.946747 0.007019 0.000793
1.000000 0.068939 0.041595
0.100098 0.060730 0.042511
0.180145 0.061676 0.045105
0.323334 0.072906 0.046692
0.485046 0.085236 0.046967
0.641327 0.096588 0.045746
0.784271 0.106964 0.043457
0.935547 0.117371 0.040405
1.000000 0.196381 0.093628
0.045166 0.209442 0.061432
0.141937 0.204773 0.053467
0.357269 0.192352 0.041016
0.518829 0.188019 0.037811
0.652954 0.235718 0.046570
0.779968 0.284241 0.053619
0.933838 0.300964 0.048950
1.000000 0.354370 0.107574
0.000000 0.432892 0.075989
0.092773 0.435638 0.059357
0.312347 0.484039 0.031372
0.555237 0.394775 0.020355
0.735107 0.329407 0.000000
0.873138 0.364410 0.002258
1.000000 0.407227 0.028168
1.000000 0.468414 0.125092
0.000000 0.630463 0.094421
0.042969 0.673553 0.061462
0.214661 0.693054 0.016327
0.590240 0.750183 0.000000
0.724579 0.577789 0.000000
0.875214 0.473236 0.000000
1.000000 0.493164 0.033173
1.000000 0.534760 0.135468
0.000000 0.792908 0.114349
0.000000 0.876160 0.061859
0.131775 0.879059 0.000000
0.461914 0.891449 0.000000
0.835541 0.902618 0.000000
0.867371 0.706635 0.000000
1.000000 0.621460 0.041077
1.000000 0.592377 0.144989
0.000000 0.948669 0.141113
0.040985 1.000000 0.112366
0.127991 1.000000 0.036438
0.381378 1.000000 0.048187
0.691681 1.000000 0.059967
1.000000 0.946594 0.064026
1.000000 0.786865 0.052673
1.000000 0.700378 0.164520
0.080994 1.000000 0.210938
0.136810 1.000000 0.212402
0.185577 1.000000 0.146057
0.362885 1.000000 0.168243
0.587585 1.000000 0.192566
0.847015 1.000000 0.213928
1.000000 0.924591 0.208740
1.000000 0.813385 0.186890
0.107727 0.025421 0.098663
0.179840 0.028137 0.104919
0.309723 0.033539 0.117737
0.467560 0.032196 0.123444
0.631287 0.023773 0.112762
0.780334 0.014496 0.098511
0.938019 0.004517 0.083252
1.000000 0.054993 0.114197
0.103821 0.061157 0.112915
0.180237 0.065063 0.116974
0.309631 0.074066 0.129547
0.470245 0.072449 0.129944
0.634277 0.063995 0.114258
0.783936 0.054840 0.096466
0.935974 0.049011 0.084717
1.000000 0.115417 0.127380
0.082977 0.189362 0.140350
0.165497 0.191101 0.144897
0.307343 0.194031 0.154480
0.465942 0.214294 0.158081
0.621765 0.234070 0.160431
0.764801 0.253143 0.161469
0.913177 0.269653 0.161438
1.000000 0.344147 0.226196
0.032776 0.412231 0.173279
0.115967 0.420502 0.181305
0.262939 0.418640 0.172211
0.500061 0.396423 0.152405
0.659515 0.380096 0.146759
0.786804 0.425537 0.163574
0.925201 0.472351 0.183929
1.000000 0.531342 0.260864
0.000000 0.635010 0.212280
0.052673 0.668915 0.216309
0.217834 0.646118 0.185699
0.457886 0.689728 0.158020
0.687408 0.594482 0.146484
0.877075 0.522980 0.117401
1.000000 0.553467 0.164825
1.000000 0.601440 0.274902
0.000000 0.795624 0.250519
0.000000 0.878571 0.243408
0.173065 0.839752 0.201691
0.350739 0.862122 0.157166
0.745789 0.915405 0.169281
0.888031 0.753754 0.143066
1.000000 0.649384 0.182617
1.000000 0.655762 0.286438
0.000000 0.949585 0.291992
0.039398 1.000000 0.279449
0.159027 1.000000 0.240448
0.286407 1.000000 0.187195
0.592010 1.000000 0.223572
1.000000 0.997528 0.252563
1.000000 0.820312 0.218231
1.000000 0.736053 0.304626
0.078522 1.000000 0.343994
0.132996 1.000000 0.345459
0.240692 1.000000 0.348724
0.315674 1.000000 0.295929
0.525787 1.000000 0.324066
0.763916 1.000000 0.349274
1.000000 0.958832 0.355927
1.000000 0.845917 0.330902
0.107910 0.027740 0.211090
0.180084 0.030365 0.219208
0.309784 0.035614 0.236176
0.454834 0.041138 0.254822
0.598633 0.044830 0.270966
0.746643 0.035400 0.266785
0.892761 0.026276 0.256073
1.000000 0.058136 0.263519
0.108215 0.064423 0.227051
0.180267 0.068817 0.235107
0.309357 0.077637 0.251923
0.453735 0.087158 0.270691
0.601105 0.091125 0.283966
0.749756 0.081787 0.275848
0.897827 0.072998 0.261688
1.000000 0.121948 0.274994
0.078400 0.197296 0.285278
0.165161 0.193359 0.281952
0.306488 0.200165 0.285187
0.449005 0.216614 0.304047
0.603607 0.219147 0.306458
0.754028 0.212372 0.287048
0.906555 0.206726 0.265320
1.000000 0.272064 0.297699
0.061157 0.394897 0.308441
0.144592 0.396667 0.314453
0.284637 0.397644 0.327148
0.439697 0.398407 0.340912
0.595490 0.418365 0.344452
0.739868 0.437195 0.347290
0.887299 0.454620 0.349854
1.000000 0.519257 0.409973
0.030304 0.611603 0.330750
0.109833 0.614502 0.344177
0.238251 0.623535 0.369781
0.388763 0.619324 0.361786
0.623749 0.596222 0.340057
0.778015 0.578979 0.335693
0.918823 0.617432 0.358948
1.000000 0.670471 0.441071
0.000000 0.797913 0.380219
0.053040 0.823975 0.395386
0.181458 0.826904 0.410645
0.336182 0.805054 0.380524
0.578033 0.837463 0.355713
0.807098 0.754822 0.343536
1.000000 0.692627 0.337830
1.000000 0.721405 0.452637
0.000000 0.950226 0.418427
0.037994 1.000000 0.432007
0.152496 1.000000 0.447968
0.282104 0.987061 0.399109
0.460083 1.000000 0.359894
0.845001 1.000000 0.399292
1.000000 0.856232 0.376953
1.000000 0.774078 0.465149
0.076508 1.000000 0.455292
0.129425 1.000000 0.473236
0.234467 1.000000 0.506592
0.361511 1.000000 0.508392
0.458374 1.000000 0.469299
0.680878 1.000000 0.494720
0.995087 1.000000 0.514343
1.000000 0.881104 0.490906
0.108063 0.029816 0.361420
0.180176 0.032410 0.370148
0.309723 0.037537 0.388153
0.454498 0.042969 0.408142
0.596161 0.047882 0.426819
0.723419 0.052246 0.444031
0.857117 0.048309 0.450623
1.000000 0.062714 0.442993
0.108276 0.067871 0.378510
0.180237 0.072144 0.387054
0.309082 0.080902 0.405060
0.453064 0.090302 0.425110
0.594330 0.098846 0.444031
0.721649 0.106415 0.461212
0.859650 0.105927 0.463196
1.000000 0.128204 0.455994
0.087250 0.191376 0.434631
0.171753 0.192535 0.430511
0.305542 0.205872 0.440826
0.447632 0.222168 0.461151
0.588379 0.239594 0.480225
0.720093 0.251343 0.494263
0.866364 0.245850 0.485504
1.000000 0.279510 0.483002
0.045807 0.431915 0.522430
0.134155 0.420197 0.515839
0.282135 0.401031 0.502319
0.437683 0.404358 0.501190
0.578522 0.420654 0.519806
0.721893 0.422089 0.518463
0.873810 0.415222 0.494507
1.000000 0.461945 0.505524
0.039764 0.607452 0.509674
0.121155 0.605438 0.515686
0.257874 0.601868 0.528595
0.409119 0.599152 0.539032
0.564484 0.597656 0.548523
0.711151 0.614166 0.548187
0.860260 0.628845 0.548706
1.000000 0.672516 0.591217
0.021576 0.779358 0.514465
0.099213 0.775513 0.518860
0.221710 0.778564 0.544525
0.354919 0.783936 0.571472
0.505859 0.777954 0.562317
0.738342 0.755829 0.540039
0.908997 0.739868 0.535126
1.000000 0.779022 0.611420
0.000000 0.950897 0.547363
0.052399 0.970978 0.565063
0.164886 0.969269 0.588165
0.287964 0.966583 0.604126
0.441101 0.937775 0.575989
0.675751 0.962708 0.549316
0.958954 0.880402 0.537933
1.000000 0.821136 0.619568
0.074615 1.000000 0.559753
0.126556 1.000000 0.576965
0.230164 1.000000 0.612091
0.353271 1.000000 0.649231
0.480133 1.000000 0.652557
0.608246 1.000000 0.629242
0.878571 1.000000 0.645477
1.000000 0.913483 0.636627
0.108185 0.031708 0.545319
0.180237 0.034180 0.552887
0.309509 0.039246 0.568634
0.454041 0.044617 0.585785
0.595551 0.049500 0.601715
0.722839 0.053772 0.615906
0.844849 0.058899 0.628601
1.000000 0.066742 0.640198
0.108276 0.070953 0.560211
0.180145 0.075226 0.567688
0.308685 0.083832 0.583191
0.452393 0.093201 0.600250
0.593414 0.101654 0.615906
0.720917 0.111298 0.629974
0.843536 0.123199 0.642487
1.000000 0.133881 0.649933
0.093872 0.191589 0.606445
0.176910 0.195679 0.599426
0.304596 0.210907 0.613220
0.446381 0.227966 0.629913
0.587067 0.245239 0.645172
0.715515 0.260406 0.658569
0.839905 0.273834 0.670441
1.000000 0.286377 0.667023
0.053833 0.410828 0.682739
0.140625 0.403656 0.674316
0.286713 0.396729 0.658539
0.435730 0.409790 0.661591
0.576508 0.426208 0.675903
0.706696 0.441833 0.684479
0.837677 0.452820 0.690552
1.000000 0.469208 0.679260
0.022614 0.658112 0.744080
0.104218 0.649231 0.740021
0.245667 0.625763 0.724274
0.405060 0.601654 0.703705
0.561523 0.602509 0.694855
0.694244 0.615723 0.703857
0.839661 0.616364 0.699982
1.000000 0.637665 0.692200
0.021057 0.782471 0.696899
0.096863 0.778748 0.699249
0.226715 0.771790 0.704346
0.372742 0.765289 0.710358
0.526245 0.760406 0.716217
0.678284 0.756775 0.721771
0.828339 0.767395 0.718567
1.000000 0.794586 0.740326
0.006622 0.942169 0.689240
0.074951 0.934265 0.692078
0.196381 0.919525 0.698029
0.327850 0.914520 0.717377
0.458160 0.914612 0.737305
0.606476 0.905182 0.727112
0.858124 0.880859 0.705902
1.000000 0.869324 0.750366
0.072845 1.000000 0.653442
0.123779 1.000000 0.669128
0.226257 1.000000 0.701263
0.347961 1.000000 0.735260
0.470581 1.000000 0.765289
0.605774 1.000000 0.772736
0.783569 1.000000 0.759430
1.000000 0.943024 0.759247
0.108246 0.033325 0.741974
0.180237 0.035767 0.746429
0.309387 0.040771 0.755829
0.453552 0.046082 0.766144
0.595001 0.050934 0.775818
0.722351 0.055176 0.784515
0.844421 0.061981 0.792267
1.000000 0.069794 0.799408
0.108215 0.073669 0.750793
0.179993 0.077911 0.755280
0.308289 0.086456 0.764587
0.451599 0.095764 0.774963
0.592743 0.104126 0.784515
0.720245 0.115692 0.793182
0.843018 0.127472 0.800842
1.000000 0.138214 0.807770
0.099945 0.193939 0.778595
0.177460 0.200562 0.773560
0.303619 0.215454 0.782898
0.445160 0.233154 0.793121
0.585876 0.250305 0.802551
0.714447 0.265289 0.810852
0.839264 0.278778 0.818420
1.000000 0.291962 0.822510
0.058929 0.400787 0.848083
0.145782 0.397278 0.832977
0.289612 0.397858 0.810364
0.433929 0.414612 0.812775
0.574615 0.431305 0.820557
0.705109 0.447083 0.825531
0.832825 0.461670 0.830048
1.000000 0.475586 0.834381
0.020874 0.642761 0.908844
0.105774 0.630524 0.894958
0.249969 0.608887 0.865723
0.408478 0.596863 0.838623
0.558655 0.606873 0.831421
0.691925 0.620117 0.836609
0.824127 0.631989 0.841309
1.000000 0.642822 0.842285
0.006989 0.842316 0.932343
0.079651 0.831421 0.922791
0.207611 0.810211 0.904449
0.357117 0.784973 0.882477
0.520966 0.761810 0.858582
0.674988 0.759827 0.846893
0.808563 0.767975 0.851562
1.000000 0.775269 0.845306
0.006378 0.943146 0.851990
0.072235 0.935303 0.852570
0.191193 0.920807 0.853760
0.330292 0.907257 0.855499
0.474304 0.896454 0.857178
0.624725 0.887939 0.858887
0.783997 0.881195 0.860413
1.000000 0.895599 0.865112
0.070526 1.000000 0.773621
0.120331 1.000000 0.782074
0.221954 1.000000 0.799500
0.342743 1.000000 0.818146
0.464050 1.000000 0.842468
0.597260 1.000000 0.867249
0.749634 1.000000 0.878967
1.000000 0.970795 0.869873
0.108276 0.034821 1.000000
0.180176 0.037231 1.000000
0.309113 0.042145 1.000000
0.453033 0.047455 1.000000
0.594208 0.052246 1.000000
0.721680 0.056458 1.000000
0.843994 0.064911 1.000000
1.000000 0.072632 1.000000
0.108124 0.076233 1.000000
0.179749 0.080383 1.000000
0.307800 0.088867 1.000000
0.450958 0.098083 1.000000
0.591736 0.106506 1.000000
0.719543 0.119781 1.000000
0.842468 0.131409 1.000000
1.000000 0.141998 1.000000
0.106537 0.197784 1.000000
0.176819 0.204956 1.000000
0.302673 0.219696 1.000000
0.443878 0.238037 1.000000
0.584625 0.254913 1.000000
0.713531 0.269806 1.000000
0.838470 0.283630 1.000000
1.000000 0.296936 1.000000
0.101776 0.402985 1.000000
0.169464 0.402649 1.000000
0.292908 0.401794 1.000000
0.432068 0.419159 1.000000
0.572662 0.436157 1.000000
0.703491 0.452087 1.000000
0.831787 0.466705 1.000000
1.000000 0.480682 1.000000
0.094421 0.609528 1.000000
0.158234 0.607269 1.000000
0.277466 0.603668 1.000000
0.415222 0.600037 1.000000
0.555817 0.610992 1.000000
0.689575 0.624207 1.000000
0.822601 0.636017 1.000000
1.000000 0.646942 1.000000
0.084290 0.782898 1.000000
0.142639 0.779114 1.000000
0.256073 0.771881 1.000000
0.390533 0.765045 1.000000
0.532806 0.759705 1.000000
0.669861 0.762634 1.000000
0.804718 0.770813 1.000000
1.000000 0.778229 1.000000
0.072906 0.921814 1.000000
0.125000 0.917786 1.000000
0.230988 0.910309 1.000000
0.359100 0.903351 1.000000
0.491791 0.895203 1.000000
0.631439 0.886475 1.000000
0.778717 0.882721 1.000000
1.000000 0.886688 1.000000
0.068024 1.000000 0.905243
0.116547 1.000000 0.912872
0.217468 1.000000 0.928589
0.335327 1.000000 0.945618
0.454926 1.000000 0.961182
0.588837 1.000000 0.975189
0.742554 1.000000 0.987823
1.000000 1.000000 1.000000
