luts/teal.CUBE
#Created by: Adobe Photoshop Export Color Lookup Plugin
TITLE "Untitled Session02649.JPG"
#LUT size
LUT_3D_SIZE 64
#data domain
DOMAIN_MIN 0.0 0.0 0.0
DOMAIN_MAX 1.0 1.0 1.0
#LUT data points
0.107391 0.022125 0.014923
0.113983 0.022400 0.014984
0.120728 0.022675 0.015015
0.127747 0.022980 0.015076
0.135345 0.023315 0.015167
0.143616 0.023712 0.015228
0.152710 0.024078 0.015259
0.162842 0.024567 0.015320
0.174042 0.025055 0.015381
0.186340 0.025665 0.015472
0.199615 0.026306 0.015533
0.213623 0.027008 0.015564
0.228424 0.027740 0.015594
0.243835 0.028534 0.015625
0.259979 0.029358 0.015625
0.276825 0.030212 0.015594
0.294098 0.031036 0.015564
0.311768 0.031921 0.015472
0.329681 0.032806 0.015381
0.347717 0.033691 0.015259
0.365845 0.034576 0.015106
0.383911 0.035461 0.014954
0.401917 0.036346 0.014801
0.419952 0.037140 0.014557
0.438049 0.038055 0.014313
0.456207 0.038879 0.014099
0.474457 0.039703 0.013824
0.492798 0.040558 0.013550
0.511261 0.041412 0.013214
0.529388 0.042206 0.012909
0.547272 0.043030 0.012573
0.564819 0.043823 0.012207
0.582184 0.044617 0.011810
0.599274 0.045441 0.011475
0.616180 0.046234 0.011047
0.632904 0.047028 0.010651
0.649414 0.047791 0.010223
0.665802 0.048553 0.009796
0.681976 0.049316 0.009338
0.698029 0.050049 0.008881
0.714020 0.050812 0.008423
0.729858 0.051544 0.007904
0.745636 0.052307 0.007416
0.761353 0.053009 0.006927
0.777069 0.053741 0.006409
0.792786 0.054413 0.005920
0.808502 0.055115 0.005371
0.824341 0.055817 0.004822
0.840393 0.056519 0.004303
0.856628 0.057159 0.003754
0.873199 0.057800 0.003204
0.890259 0.058502 0.002625
0.907990 0.059143 0.002075
0.926544 0.059814 0.001495
0.946381 0.060455 0.000916
0.968140 0.061096 0.000336
0.992218 0.062073 0.000000
1.000000 0.068695 0.004059
1.000000 0.077728 0.010101
1.000000 0.087006 0.016510
1.000000 0.096802 0.023224
1.000000 0.107849 0.030273
1.000000 0.119141 0.037628
1.000000 0.130615 0.045319
0.105835 0.024719 0.015137
0.115692 0.024536 0.015015
0.122345 0.024445 0.014984
0.128479 0.025208 0.015259
0.135437 0.025970 0.015533
0.143707 0.026337 0.015594
0.152802 0.026794 0.015625
0.162933 0.027283 0.015686
0.174103 0.027802 0.015747
0.186371 0.028412 0.015808
0.199646 0.029114 0.015869
0.213684 0.029846 0.015900
0.228516 0.030670 0.015930
0.243896 0.031433 0.015930
0.260040 0.032318 0.015930
0.276855 0.033203 0.015869
0.294159 0.034149 0.015839
0.311768 0.035034 0.015717
0.329712 0.035950 0.015625
0.347748 0.036896 0.015533
0.365875 0.037872 0.015381
0.383911 0.038788 0.015228
0.401917 0.039673 0.015015
0.419952 0.040619 0.014801
0.438019 0.041473 0.014526
0.456177 0.042419 0.014282
0.474426 0.043335 0.014008
0.492767 0.044189 0.013733
0.511200 0.045044 0.013397
0.529358 0.045929 0.013092
0.547180 0.046783 0.012756
0.564758 0.047638 0.012390
0.582123 0.048462 0.011993
0.599213 0.049347 0.011597
0.616119 0.050171 0.011200
0.632812 0.051056 0.010803
0.649353 0.051758 0.010345
0.665741 0.052643 0.009888
0.681915 0.053467 0.009460
0.697968 0.054260 0.008972
0.713898 0.054993 0.008514
0.729767 0.055817 0.007996
0.745544 0.056580 0.007507
0.761292 0.057251 0.006989
0.777008 0.058136 0.006500
0.792694 0.058838 0.005951
0.808411 0.059509 0.005432
0.824280 0.060364 0.004883
0.840302 0.061035 0.004364
0.856537 0.061676 0.003784
0.873108 0.062439 0.003235
0.890167 0.063049 0.002686
0.907928 0.063843 0.002106
0.926483 0.064484 0.001526
0.946381 0.065216 0.000946
0.968140 0.065826 0.000336
0.992218 0.066895 0.000000
1.000000 0.073425 0.004089
1.000000 0.082581 0.010193
1.000000 0.091980 0.016632
1.000000 0.102112 0.023407
1.000000 0.113251 0.030457
1.000000 0.124481 0.037903
1.000000 0.135742 0.045593
0.104279 0.027527 0.015381
0.114532 0.028198 0.015167
0.124115 0.027100 0.015045
0.131805 0.026367 0.014801
0.138428 0.027039 0.015076
0.145630 0.027985 0.015411
0.153503 0.029144 0.015808
0.162994 0.030151 0.016083
0.174164 0.030762 0.016144
0.186493 0.031403 0.016205
0.199738 0.032104 0.016235
0.213776 0.032898 0.016266
0.228546 0.033752 0.016266
0.243958 0.034607 0.016266
0.260101 0.035492 0.016266
0.276917 0.036438 0.016205
0.294159 0.037415 0.016144
0.311829 0.038391 0.016052
0.329742 0.039368 0.015930
0.347778 0.040375 0.015778
0.365906 0.041351 0.015625
0.383942 0.042297 0.015442
0.401917 0.043304 0.015259
0.419952 0.044250 0.015015
0.438019 0.045197 0.014801
0.456116 0.046173 0.014496
0.474396 0.047058 0.014221
0.492737 0.048035 0.013916
0.511169 0.048981 0.013611
0.529297 0.049866 0.013275
0.547119 0.050812 0.012909
0.564697 0.051727 0.012573
0.582031 0.052582 0.012146
0.599152 0.053497 0.011749
0.616058 0.054413 0.011353
0.632782 0.055267 0.010925
0.649261 0.056091 0.010498
0.665619 0.057007 0.010010
0.681854 0.057770 0.009552
0.697876 0.058594 0.009094
0.713837 0.059418 0.008606
0.729645 0.060242 0.008118
0.745483 0.061157 0.007599
0.761200 0.061920 0.007080
0.776947 0.062683 0.006561
0.792633 0.063507 0.006042
0.808350 0.064178 0.005493
0.824188 0.065002 0.004913
0.840210 0.065796 0.004395
0.856476 0.066559 0.003845
0.873047 0.067352 0.003265
0.890106 0.067932 0.002686
0.907898 0.068634 0.002106
0.926422 0.069397 0.001526
0.946320 0.070068 0.000946
0.968140 0.070984 0.000336
0.992218 0.071960 0.000000
1.000000 0.078613 0.004120
1.000000 0.087646 0.010315
1.000000 0.096985 0.016785
1.000000 0.107727 0.023590
1.000000 0.118774 0.030701
1.000000 0.129944 0.038116
1.000000 0.141205 0.045898
0.102570 0.030640 0.015625
0.110077 0.031006 0.015137
0.126465 0.032410 0.015320
0.132904 0.029999 0.015045
0.141846 0.028534 0.014557
0.148987 0.029205 0.014862
0.156860 0.030243 0.015228
0.165649 0.031494 0.015625
0.175415 0.033081 0.016144
0.186554 0.034668 0.016571
0.199799 0.035461 0.016602
0.213837 0.036285 0.016632
0.228638 0.037140 0.016632
0.244019 0.038055 0.016602
0.260162 0.039032 0.016571
0.276978 0.040009 0.016510
0.294220 0.041046 0.016479
0.311859 0.042053 0.016357
0.329773 0.043091 0.016205
0.347839 0.044128 0.016083
0.365906 0.045166 0.015869
0.383942 0.046173 0.015686
0.401917 0.047211 0.015503
0.419952 0.048279 0.015259
0.437988 0.049255 0.015015
0.456085 0.050262 0.014740
0.474365 0.051208 0.014435
0.492706 0.052307 0.014130
0.511108 0.053253 0.013824
0.529266 0.054199 0.013458
0.547089 0.055176 0.013092
0.564636 0.056152 0.012726
0.581970 0.057068 0.012329
0.599060 0.058014 0.011902
0.615936 0.058929 0.011505
0.632660 0.059845 0.011078
0.649170 0.060760 0.010620
0.665527 0.061676 0.010162
0.681732 0.062531 0.009674
0.697754 0.063446 0.009186
0.713745 0.064331 0.008698
0.729584 0.065186 0.008209
0.745392 0.066010 0.007690
0.761108 0.066925 0.007172
0.776855 0.067688 0.006622
0.792511 0.068542 0.006104
0.808289 0.069366 0.005554
0.824127 0.070160 0.004974
0.840118 0.070984 0.004456
0.856384 0.071716 0.003876
0.872986 0.072479 0.003296
0.890076 0.073334 0.002716
0.907806 0.074036 0.002136
0.926392 0.074707 0.001556
0.946320 0.075562 0.000946
0.968079 0.076385 0.000336
0.992218 0.077362 0.000000
1.000000 0.084106 0.004181
1.000000 0.093231 0.010406
1.000000 0.102997 0.016907
1.000000 0.113800 0.023773
1.000000 0.124725 0.030914
1.000000 0.135864 0.038422
1.000000 0.147095 0.046204
0.100677 0.034180 0.015839
0.105957 0.034363 0.015137
0.120880 0.035614 0.015259
0.138977 0.037201 0.015442
0.142365 0.033295 0.015045
0.152466 0.031281 0.014343
0.160400 0.031769 0.014587
0.169098 0.032837 0.014984
0.178925 0.034302 0.015411
0.189484 0.036041 0.015961
0.201172 0.038116 0.016510
0.213928 0.040131 0.016998
0.228699 0.041046 0.016998
0.244080 0.041962 0.016968
0.260193 0.043030 0.016937
0.277039 0.044037 0.016876
0.294281 0.045135 0.016785
0.311890 0.046234 0.016663
0.329834 0.047333 0.016541
0.347839 0.048431 0.016388
0.365936 0.049500 0.016205
0.383942 0.050598 0.015991
0.401917 0.051697 0.015778
0.419922 0.052795 0.015533
0.437958 0.053864 0.015259
0.456055 0.054901 0.014984
0.474304 0.056000 0.014709
0.492645 0.057068 0.014374
0.511047 0.058014 0.014038
0.529144 0.059082 0.013702
0.546997 0.060089 0.013306
0.564545 0.061096 0.012909
0.581879 0.062103 0.012512
0.598969 0.063110 0.012115
0.615845 0.064026 0.011658
0.632568 0.065002 0.011230
0.649078 0.066071 0.010773
0.665436 0.066956 0.010315
0.681610 0.067963 0.009796
0.697662 0.068878 0.009308
0.713623 0.069794 0.008820
0.729462 0.070709 0.008331
0.745270 0.071625 0.007782
0.760986 0.072418 0.007233
0.776733 0.073334 0.006714
0.792389 0.074280 0.006165
0.808167 0.075134 0.005615
0.824005 0.075928 0.005035
0.840057 0.076752 0.004486
0.856293 0.077667 0.003937
0.872894 0.078369 0.003326
0.889984 0.079224 0.002747
0.907745 0.080109 0.002167
0.926331 0.080902 0.001556
0.946259 0.081726 0.000946
0.968079 0.082458 0.000366
0.992218 0.083588 0.000000
1.000000 0.090271 0.004211
1.000000 0.099396 0.010498
1.000000 0.109772 0.017090
1.000000 0.120575 0.023987
1.000000 0.131348 0.031189
1.000000 0.142426 0.038696
1.000000 0.153473 0.046570
0.098602 0.038361 0.016174
0.102631 0.038452 0.015106
0.115448 0.039520 0.015228
0.132446 0.041046 0.015381
0.151611 0.042816 0.015564
0.152557 0.037140 0.015015
0.163666 0.034729 0.014191
0.173035 0.034790 0.014282
0.182678 0.035950 0.014648
0.193176 0.037537 0.015167
0.204742 0.039520 0.015717
0.216949 0.041779 0.016327
0.229889 0.044403 0.016968
0.244141 0.046539 0.017395
0.260254 0.047607 0.017365
0.277069 0.048737 0.017273
0.294312 0.049866 0.017212
0.311951 0.051025 0.017029
0.329834 0.052185 0.016876
0.347870 0.053375 0.016724
0.365936 0.054504 0.016541
0.383911 0.055634 0.016327
0.401886 0.056824 0.016113
0.419861 0.057983 0.015839
0.437927 0.059113 0.015564
0.455994 0.060242 0.015259
0.474213 0.061371 0.014954
0.492584 0.062469 0.014618
0.510956 0.063629 0.014282
0.529083 0.064636 0.013916
0.546906 0.065674 0.013550
0.564453 0.066742 0.013123
0.581787 0.067780 0.012726
0.598846 0.068878 0.012299
0.615753 0.069885 0.011841
0.632446 0.071014 0.011414
0.648956 0.071991 0.010925
0.665283 0.072968 0.010468
0.681458 0.074036 0.009949
0.697540 0.074982 0.009460
0.713501 0.075928 0.008942
0.729340 0.076935 0.008423
0.745148 0.077881 0.007904
0.760864 0.078735 0.007355
0.776581 0.079773 0.006836
0.792297 0.080688 0.006256
0.808044 0.081604 0.005707
0.823883 0.082458 0.005127
0.839935 0.083405 0.004547
0.856232 0.084167 0.003967
0.872803 0.085052 0.003387
0.889893 0.085938 0.002777
0.907654 0.086792 0.002197
0.926300 0.087555 0.001587
0.946198 0.088562 0.000977
0.968018 0.089294 0.000366
0.992218 0.090546 0.000000
1.000000 0.097107 0.004242
1.000000 0.107056 0.010620
1.000000 0.117523 0.017273
1.000000 0.128113 0.024200
1.000000 0.138885 0.031494
1.000000 0.149750 0.039032
1.000000 0.160797 0.046936
0.096252 0.043243 0.016418
0.098907 0.043274 0.015045
0.109741 0.043976 0.015198
0.126038 0.045563 0.015289
0.144836 0.047516 0.015411
0.163910 0.049103 0.015564
0.163818 0.041626 0.014923
0.176056 0.038727 0.013977
0.186890 0.038239 0.013855
0.197449 0.039581 0.014282
0.208832 0.041321 0.014801
0.221008 0.043457 0.015320
0.233917 0.045990 0.015961
0.247437 0.048767 0.016602
0.261292 0.051910 0.017426
0.277100 0.054260 0.017731
0.294373 0.055420 0.017609
0.311981 0.056641 0.017456
0.329834 0.057831 0.017303
0.347870 0.059113 0.017120
0.365906 0.060364 0.016907
0.383911 0.061554 0.016663
0.401855 0.062836 0.016449
0.419830 0.064056 0.016205
0.437836 0.065216 0.015869
0.455933 0.066406 0.015564
0.474152 0.067627 0.015259
0.492493 0.068726 0.014923
0.510864 0.069916 0.014557
0.528961 0.071075 0.014191
0.546783 0.072235 0.013794
0.564331 0.073364 0.013367
0.581665 0.074524 0.012939
0.598724 0.075653 0.012512
0.615601 0.076752 0.012085
0.632324 0.077789 0.011597
0.648804 0.078979 0.011108
0.665161 0.080017 0.010651
0.681305 0.081116 0.010132
0.697388 0.082062 0.009613
0.713318 0.083130 0.009094
0.729187 0.084106 0.008575
0.744995 0.085144 0.008026
0.760712 0.086121 0.007477
0.776428 0.087250 0.006927
0.792145 0.088074 0.006378
0.807892 0.088989 0.005798
0.823761 0.090088 0.005219
0.839813 0.090912 0.004608
0.856110 0.091888 0.004028
0.872711 0.092834 0.003448
0.889801 0.093689 0.002838
0.907623 0.094513 0.002228
0.926178 0.095551 0.001617
0.946167 0.096497 0.001007
0.968018 0.097229 0.000366
0.992218 0.098419 0.000000
1.000000 0.105682 0.004303
1.000000 0.115784 0.010742
1.000000 0.126282 0.017456
1.000000 0.136688 0.024506
1.000000 0.147095 0.031799
1.000000 0.157990 0.039429
1.000000 0.168732 0.047363
0.093506 0.049103 0.016724
0.094513 0.048981 0.014923
0.104248 0.049500 0.015106
0.119232 0.051086 0.015228
0.137268 0.052887 0.015289
0.157959 0.055176 0.015381
0.176331 0.055969 0.015411
0.176178 0.046997 0.014679
0.189697 0.043579 0.013641
0.202118 0.042450 0.013306
0.213348 0.043884 0.013794
0.225525 0.045776 0.014252
0.238373 0.048065 0.014832
0.251831 0.050751 0.015411
0.266022 0.053711 0.016083
0.280457 0.057007 0.016846
0.295624 0.060516 0.017578
0.311981 0.063354 0.017914
0.329834 0.064667 0.017761
0.347839 0.066010 0.017578
0.365906 0.067291 0.017365
0.383850 0.068604 0.017120
0.401794 0.069885 0.016815
0.419769 0.071198 0.016571
0.437775 0.072479 0.016266
0.455841 0.073761 0.015961
0.474030 0.075012 0.015594
0.492340 0.076294 0.015259
0.510742 0.077454 0.014893
0.528839 0.078766 0.014465
0.546631 0.079956 0.014069
0.564178 0.081177 0.013672
0.581482 0.082367 0.013214
0.598572 0.083527 0.012756
0.615417 0.084717 0.012299
0.632080 0.085876 0.011810
0.648590 0.087097 0.011322
0.664948 0.088196 0.010834
0.681122 0.089355 0.010345
0.697205 0.090393 0.009796
0.713165 0.091583 0.009247
0.729004 0.092590 0.008728
0.744781 0.093628 0.008179
0.760559 0.094788 0.007599
0.776276 0.095795 0.007019
0.791962 0.096863 0.006470
0.807739 0.097900 0.005890
0.823608 0.098877 0.005310
0.839661 0.099823 0.004700
0.855957 0.100861 0.004089
0.872589 0.101807 0.003479
0.889679 0.102722 0.002869
0.907471 0.103790 0.002258
0.926147 0.104614 0.001648
0.946106 0.105621 0.001007
0.967957 0.106506 0.000366
0.992218 0.108215 0.000000
1.000000 0.116058 0.004395
1.000000 0.125916 0.010895
1.000000 0.136230 0.017670
1.000000 0.146393 0.024780
1.000000 0.156860 0.032135
1.000000 0.167419 0.039856
1.000000 0.178192 0.047852
0.090393 0.056152 0.017059
0.090393 0.055969 0.014954
0.099396 0.056458 0.014984
0.111908 0.057526 0.015106
0.129425 0.059509 0.015167
0.149353 0.061829 0.015198
0.172394 0.064606 0.015228
0.189972 0.064209 0.015198
0.189850 0.053467 0.014435
0.204681 0.049347 0.013184
0.218567 0.047363 0.012604
0.230560 0.048889 0.013062
0.243347 0.050964 0.013611
0.256683 0.053406 0.014160
0.271271 0.056183 0.014618
0.285767 0.059326 0.015350
0.300873 0.062775 0.016022
0.316040 0.066467 0.016785
0.332062 0.070251 0.017365
0.347809 0.074066 0.018066
0.365814 0.075439 0.017822
0.383789 0.076813 0.017578
0.401733 0.078247 0.017303
0.419678 0.079681 0.016998
0.437653 0.080994 0.016663
0.455719 0.082336 0.016357
0.473907 0.083679 0.015961
0.492157 0.085052 0.015625
0.510529 0.086365 0.015228
0.528625 0.087738 0.014862
0.546448 0.088989 0.014404
0.563965 0.090302 0.013977
0.581238 0.091614 0.013519
0.598328 0.092865 0.013031
0.615173 0.094147 0.012573
0.631866 0.095306 0.012115
0.648376 0.096558 0.011566
0.664734 0.097778 0.011047
0.680878 0.099060 0.010559
0.696960 0.100189 0.009979
0.712921 0.101440 0.009460
0.728760 0.102631 0.008881
0.744568 0.103729 0.008331
0.760284 0.104797 0.007751
0.776093 0.106049 0.007172
0.791779 0.107056 0.006592
0.807526 0.108063 0.005981
0.823425 0.109161 0.005402
0.839478 0.110382 0.004791
0.855774 0.111267 0.004181
0.872437 0.112366 0.003540
0.889557 0.113342 0.002930
0.907379 0.114502 0.002289
0.926025 0.115326 0.001648
0.945984 0.116669 0.001007
0.967896 0.118225 0.000397
0.992218 0.120361 0.000000
1.000000 0.127716 0.004456
1.000000 0.137665 0.011047
1.000000 0.147675 0.017914
1.000000 0.157593 0.025116
1.000000 0.167999 0.032562
1.000000 0.178406 0.040344
1.000000 0.188782 0.048370
0.086823 0.064575 0.017426
0.086792 0.064392 0.015259
0.093811 0.064728 0.014740
0.104156 0.065399 0.014954
0.120972 0.067352 0.014954
0.140442 0.069763 0.014954
0.162628 0.072510 0.014984
0.188263 0.075836 0.014954
0.204926 0.074036 0.014862
0.204834 0.061188 0.014008
0.220795 0.056335 0.012604
0.236389 0.053192 0.011658
0.249115 0.054840 0.012146
0.262604 0.056915 0.012604
0.276733 0.059479 0.013153
0.291321 0.062469 0.013763
0.306458 0.065674 0.014343
0.321838 0.069244 0.014984
0.337646 0.072998 0.015564
0.353455 0.076935 0.016205
0.368896 0.081177 0.017029
0.384644 0.085388 0.017670
0.401611 0.088135 0.017822
0.419525 0.089569 0.017487
0.437500 0.091064 0.017151
0.455536 0.092529 0.016785
0.473694 0.093994 0.016418
0.491974 0.095398 0.016052
0.510345 0.096863 0.015625
0.528412 0.098206 0.015228
0.546204 0.099670 0.014801
0.563721 0.101074 0.014313
0.580994 0.102478 0.013855
0.598053 0.103729 0.013367
0.614929 0.105072 0.012878
0.631561 0.106415 0.012390
0.648102 0.107758 0.011810
0.664459 0.109070 0.011322
0.680634 0.110474 0.010803
0.696686 0.111694 0.010223
0.712646 0.112885 0.009644
0.728485 0.114197 0.009094
0.744324 0.115326 0.008545
0.760040 0.116608 0.007904
0.775818 0.117859 0.007324
0.791534 0.118958 0.006714
0.807312 0.120087 0.006104
0.823212 0.121368 0.005493
0.839294 0.122528 0.004883
0.855560 0.123566 0.004242
0.872253 0.124756 0.003632
0.889374 0.125824 0.002991
0.907257 0.127106 0.002350
0.925903 0.128662 0.001709
0.945892 0.130310 0.001038
0.967834 0.131989 0.000397
0.992157 0.134033 0.000000
1.000000 0.141266 0.004517
1.000000 0.150970 0.011230
1.000000 0.160706 0.018219
1.000000 0.170593 0.025482
1.000000 0.180481 0.033020
1.000000 0.190735 0.040863
1.000000 0.200928 0.049011
0.082825 0.074402 0.017792
0.082794 0.074219 0.015564
0.087555 0.074402 0.014435
0.098022 0.075134 0.014618
0.111877 0.076538 0.014709
0.130981 0.079102 0.014679
0.152740 0.081818 0.014679
0.177582 0.085236 0.014587
0.206055 0.089508 0.014465
0.221008 0.085297 0.014282
0.220947 0.070221 0.013458
0.238007 0.064667 0.011902
0.255463 0.059937 0.010559
0.269012 0.061584 0.010956
0.283203 0.063721 0.011383
0.297729 0.066376 0.011963
0.312622 0.069427 0.012543
0.328278 0.072815 0.013000
0.343964 0.076447 0.013580
0.359528 0.080292 0.014221
0.375854 0.084198 0.014618
0.390778 0.088593 0.015533
0.406616 0.092804 0.016113
0.422699 0.097168 0.016602
0.438477 0.101654 0.017181
0.455322 0.104340 0.017303
0.473480 0.105865 0.016907
0.491730 0.107422 0.016510
0.510071 0.108917 0.016083
0.528137 0.110413 0.015625
0.545929 0.111969 0.015198
0.563385 0.113403 0.014709
0.580688 0.114868 0.014221
0.597748 0.116333 0.013733
0.614594 0.117889 0.013214
0.631287 0.119263 0.012695
0.647766 0.120667 0.012146
0.664124 0.122040 0.011597
0.680298 0.123383 0.011047
0.696350 0.124756 0.010498
0.712280 0.126160 0.009888
0.728180 0.127411 0.009308
0.744019 0.128754 0.008728
0.759735 0.130005 0.008118
0.775513 0.131348 0.007477
0.791229 0.132599 0.006866
0.807037 0.133759 0.006256
0.822937 0.135040 0.005646
0.839050 0.136383 0.004974
0.855347 0.137390 0.004364
0.872040 0.139008 0.003693
0.889221 0.140839 0.003052
0.907074 0.142517 0.002380
0.925751 0.144165 0.001740
0.945770 0.145905 0.001068
0.967773 0.147614 0.000397
0.992157 0.149414 0.000000
1.000000 0.156708 0.004608
1.000000 0.165833 0.011414
1.000000 0.175354 0.018524
1.000000 0.184875 0.025909
1.000000 0.194763 0.033539
1.000000 0.204437 0.041443
1.000000 0.214447 0.049652
0.078430 0.085815 0.018158
0.078430 0.085602 0.015839
0.080627 0.085541 0.014069
0.091339 0.086273 0.014252
0.102722 0.087097 0.014435
0.121246 0.089508 0.014435
0.142578 0.092590 0.014282
0.166992 0.096100 0.014160
0.194550 0.100433 0.014008
0.225861 0.105347 0.013824
0.238129 0.097931 0.013489
0.238098 0.080597 0.012695
0.256317 0.074280 0.010986
0.275635 0.067749 0.009247
0.289948 0.069183 0.009552
0.304688 0.071503 0.009949
0.319702 0.074188 0.010437
0.335083 0.077301 0.010925
0.351013 0.080688 0.011322
0.366394 0.084442 0.011993
0.382416 0.088287 0.012421
0.398285 0.092285 0.012909
0.414185 0.096527 0.013367
0.429169 0.100891 0.014221
0.445404 0.105316 0.014587
0.460846 0.109955 0.015320
0.477264 0.114410 0.015656
0.492828 0.119202 0.016388
0.509705 0.122620 0.016571
0.527771 0.124268 0.016113
0.545502 0.125885 0.015625
0.563019 0.127441 0.015137
0.580292 0.129028 0.014618
0.597321 0.130615 0.014130
0.614227 0.132141 0.013611
0.630859 0.133606 0.013031
0.647369 0.135162 0.012482
0.663696 0.136688 0.011902
0.679901 0.138062 0.011322
0.695984 0.139587 0.010742
0.711914 0.140991 0.010132
0.727814 0.142365 0.009521
0.743652 0.143890 0.008942
0.759369 0.145264 0.008331
0.775177 0.146667 0.007660
0.790894 0.147888 0.007019
0.806702 0.149261 0.006409
0.822632 0.150513 0.005768
0.838776 0.152252 0.005096
0.855103 0.154022 0.004456
0.871826 0.155884 0.003784
0.889008 0.157532 0.003113
0.906891 0.159332 0.002441
0.925598 0.161041 0.001770
0.945679 0.162872 0.001099
0.967712 0.164581 0.000397
0.992157 0.166565 0.000000
1.000000 0.173431 0.004700
1.000000 0.182434 0.011658
1.000000 0.191559 0.018860
1.000000 0.200836 0.026337
1.000000 0.210083 0.034088
1.000000 0.219696 0.042084
1.000000 0.229370 0.050385
0.073700 0.098816 0.018524
0.073700 0.098602 0.016144
0.073669 0.098297 0.013763
0.083923 0.099030 0.013794
0.095642 0.099884 0.013977
0.110657 0.101685 0.014008
0.132080 0.104706 0.013916
0.156067 0.108490 0.013702
0.183167 0.112885 0.013458
0.213470 0.117798 0.013214
0.247711 0.123779 0.012848
0.256256 0.112091 0.012482
0.256348 0.092346 0.011719
0.275665 0.085327 0.009888
0.295929 0.078125 0.008026
0.312195 0.077850 0.007782
0.327118 0.080170 0.008240
0.342529 0.082886 0.008575
0.358093 0.086060 0.009033
0.374084 0.089508 0.009430
0.389404 0.093231 0.010040
0.405334 0.097137 0.010437
0.420746 0.101196 0.011047
0.436707 0.105438 0.011444
0.452942 0.109772 0.011780
0.468842 0.114136 0.012299
0.484497 0.118774 0.012909
0.500519 0.123444 0.013397
0.516205 0.128235 0.014008
0.532074 0.133148 0.014465
0.547577 0.137817 0.014984
0.562592 0.142975 0.015564
0.579865 0.144745 0.015076
0.596893 0.146454 0.014526
0.613739 0.148132 0.013977
0.630402 0.149780 0.013397
0.646912 0.151306 0.012817
0.663300 0.152985 0.012268
0.679443 0.154449 0.011627
0.695496 0.156006 0.011017
0.711456 0.157745 0.010437
0.727386 0.159119 0.009766
0.743195 0.160706 0.009155
0.758972 0.162201 0.008545
0.774750 0.163696 0.007843
0.790558 0.164948 0.007202
0.806335 0.166992 0.006561
0.822296 0.168793 0.005920
0.838409 0.170654 0.005249
0.854797 0.172577 0.004547
0.871552 0.174286 0.003876
0.888733 0.176147 0.003174
0.906647 0.177856 0.002502
0.925446 0.179657 0.001801
0.945557 0.181366 0.001099
0.967590 0.183197 0.000397
0.992065 0.185211 0.000000
1.000000 0.191833 0.004822
1.000000 0.200226 0.011902
1.000000 0.208984 0.019257
1.000000 0.217926 0.026825
1.000000 0.227020 0.034668
1.000000 0.236053 0.042786
1.000000 0.245300 0.051147
0.068604 0.113342 0.018829
0.068604 0.113129 0.016418
0.068604 0.112793 0.013947
0.076019 0.113281 0.013184
0.087860 0.114197 0.013367
0.100616 0.115265 0.013580
0.121002 0.118286 0.013428
0.144989 0.122070 0.013184
0.171722 0.126740 0.012848
0.201599 0.131897 0.012512
0.234650 0.138062 0.012085
0.270050 0.144440 0.011658
0.275421 0.127563 0.011230
0.275574 0.105621 0.010590
0.295868 0.097748 0.008575
0.316864 0.089844 0.006561
0.334808 0.087372 0.005859
0.350342 0.089691 0.006134
0.365875 0.092468 0.006531
0.381775 0.095581 0.006866
0.397675 0.098969 0.007172
0.413300 0.102722 0.007599
0.428833 0.106628 0.008118
0.444885 0.110718 0.008484
0.461121 0.114899 0.008759
0.476898 0.119263 0.009247
0.493073 0.123718 0.009613
0.508820 0.128326 0.010132
0.524902 0.133057 0.010559
0.540283 0.137817 0.011047
0.555359 0.142731 0.011658
0.570648 0.147614 0.012085
0.585510 0.152679 0.012573
0.600037 0.157623 0.013184
0.615082 0.162659 0.013458
0.629883 0.167480 0.013824
0.646393 0.169189 0.013184
0.662720 0.170959 0.012604
0.678925 0.172607 0.011993
0.695007 0.174103 0.011322
0.710999 0.175903 0.010712
0.726898 0.177490 0.010040
0.742706 0.179138 0.009399
0.758514 0.180817 0.008728
0.774323 0.182922 0.008087
0.790100 0.184692 0.007385
0.805908 0.186737 0.006714
0.821899 0.188568 0.006073
0.838074 0.190430 0.005371
