luts/teal.CUBE
#Created by: Adobe Photoshop Export Color Lookup Plugin
TITLE "Untitled Session02649.JPG"
#LUT size
LUT_3D_SIZE 4
#data domain
DOMAIN_MIN 0.0 0.0 0.0
DOMAIN_MAX 1.0 1.0 1.0
#LUT data points
0.107391 0.022125 0.014923
0.383911 0.035461 0.014954
0.745636 0.052307 0.007416
1.000000 0.130615 0.045319
0.019775 0.281036 0.020081
0.430908 0.242920 0.000000
0.759613 0.268036 0.000000
1.000000 0.389740 0.059784
0.000000 0.739563 0.047455
0.329651 0.758026 0.000000
0.746613 0.600708 0.000000
1.000000 0.541870 0.076324
0.082123 1.000000 0.151062
0.247101 1.000000 0.087982
0.785980 1.000000 0.126984
1.000000 0.797363 0.109070
0.107758 0.026215 0.131622
0.358490 0.036163 0.158478
0.720245 0.024414 0.155273
1.000000 0.055756 0.160004
0.075806 0.252838 0.190796
0.352875 0.259155 0.210999
0.709778 0.308411 0.218353
1.000000 0.402435 0.286560
0.000000 0.745514 0.279694
0.243225 0.766388 0.253876
0.790070 0.705658 0.211670
1.000000 0.661743 0.338226
0.077728 1.000000 0.384735
0.280762 1.000000 0.401855
0.652649 1.000000 0.390167
1.000000 0.857941 0.384796
0.108154 0.031097 0.480499
0.358124 0.040558 0.512939
0.681885 0.051910 0.554047
1.000000 0.065521 0.576233
0.078400 0.256287 0.576355
0.349792 0.273987 0.574890
0.671509 0.313843 0.613312
1.000000 0.345154 0.613129
0.026917 0.727386 0.640717
0.286621 0.716919 0.652191
0.640717 0.708405 0.668732
1.000000 0.756866 0.694153
0.073425 1.000000 0.623505
0.268219 1.000000 0.684845
0.563263 1.000000 0.734863
1.000000 0.933472 0.720428
0.108276 0.034821 1.000000
0.357452 0.044006 1.000000
0.680450 0.055115 1.000000
1.000000 0.072632 1.000000
0.105286 0.262726 1.000000
0.346832 0.286011 1.000000
0.668488 0.325348 1.000000
1.000000 0.358521 1.000000
0.088013 0.728333 1.000000
0.308594 0.717346 1.000000
0.633423 0.716370 1.000000
1.000000 0.737732 1.000000
0.068024 1.000000 0.905243
0.257050 1.000000 0.934357
0.542938 1.000000 0.970734
1.000000 1.000000 1.000000
